%
(808)
(everything)
(T2 D=6 CR=0 - ZMIN=-10 - flat end mill)
N10 G90 G94
N15 G17
N20 G21
N25 M9
N30 G28

(cut out)
N35 T2 M6
N40 S15000 M3
N45 G54
N50 G0 X-147.463 Y43.057
N55 G43 Z15
N60 Z5
N65 G1 Z4 F200
N70 Z-2.4
N75 X-147.455 Y43.056 Z-2.494
N80 X-147.434 Y43.052 Z-2.585
N85 X-147.399 Y43.045 Z-2.672
N90 X-147.35 Y43.035 Z-2.753
N95 X-147.29 Y43.024 Z-2.824
N100 X-147.22 Y43.01 Z-2.885
N105 X-147.141 Y42.994 Z-2.935
N110 X-147.056 Y42.978 Z-2.971
N115 X-146.966 Y42.96 Z-2.993
N120 X-146.874 Y42.942 Z-3
N125 X-146.285 Y42.826 F800
N130 G3 X-145.581 Y43.3 I0.116 J0.589
N135 G2 X-145.536 Y43.494 I2.944 J-0.578
N140 G1 X-145.493 Y43.656
N145 G2 X-145.363 Y44.038 I2.899 J-0.772
N150 G1 X-145.291 Y44.211
N155 G2 X-145.202 Y44.405 I2.769 J-1.155
N160 G1 X-145.002 Y44.801
N165 X-144.808 Y45.211
N170 X-144.754 Y45.344
N175 X-144.706 Y45.48
N180 X-144.671 Y45.608
N185 X-144.668 Y45.625
N190 X-144.698 Y45.633
N195 X-144.875 Y45.664
N200 X-145.088 Y45.688
N205 X-145.327 Y45.702
N210 X-145.572 Y45.706
N215 X-146.171 Y45.691
N220 X-146.773 Y45.658
N225 G2 X-146.819 Y45.656 I-0.162 J2.996
N230 G1 X-147.384 Y45.634
N235 G2 X-147.616 I-0.116 J2.998
N240 G1 X-148.181 Y45.656
N245 G2 X-148.227 Y45.658 I0.116 J2.998
N250 G1 X-148.829 Y45.691
N255 X-149.428 Y45.706
N260 X-149.673 Y45.702
N265 X-149.912 Y45.688
N270 X-150.125 Y45.664
N275 X-150.302 Y45.633
N280 X-150.332 Y45.625
N285 X-150.329 Y45.608
N290 X-150.294 Y45.48
N295 X-150.246 Y45.344
N300 X-150.192 Y45.211
N305 X-149.998 Y44.801
N310 X-149.798 Y44.405
N315 G2 X-149.709 Y44.211 I-2.68 J-1.348
N320 G1 X-149.637 Y44.038
N325 G2 X-149.507 Y43.656 I-2.769 J-1.155
N330 G1 X-149.464 Y43.494
N335 G2 X-149.376 Y42.996 I-2.899 J-0.772
N340 G1 X-149.361 Y42.832
N345 G2 X-149.356 Y42.336 I-2.988 J-0.274
N350 G1 X-149.37 Y42.148
N355 G2 X-149.417 Y41.8 I-2.992 J0.222
N360 G1 X-149.476 Y41.495
N365 G2 X-149.504 Y41.365 I-2.945 J0.57
N370 G1 X-149.607 Y40.936
N375 G2 X-149.629 Y40.847 I-2.917 J0.699
N380 G1 X-149.936 Y39.719
N385 G2 X-149.953 Y39.659 I-2.895 J0.787
N390 G1 X-150.339 Y38.348
N395 G2 X-150.354 Y38.3 I-2.878 J0.847
N400 G1 X-150.755 Y37.017
N405 G2 X-150.772 Y36.963 I-2.863 J0.895
N410 G1 X-151.123 Y35.911
N415 G2 X-151.15 Y35.835 I-2.846 J0.95
N420 G1 X-151.491 Y34.898
N425 G2 X-151.513 Y34.837 I-2.819 J1.026
N430 G1 X-151.874 Y33.908
N435 G2 X-151.895 Y33.857 I-2.797 J1.086
N440 G1 X-152.273 Y32.934
N445 G2 X-152.29 Y32.892 I-2.776 J1.137
N450 G1 X-152.682 Y31.975
N455 G2 X-152.696 Y31.942 I-2.759 J1.178
N460 G1 X-153.099 Y31.029
N465 G2 X-153.109 Y31.008 I-2.745 J1.211
N470 G1 X-153.519 Y30.097
N475 G2 X-153.524 Y30.085 I-2.735 J1.232
N480 G1 X-153.938 Y29.177
N485 G2 X-153.943 Y29.167 I-2.73 J1.245
N490 G1 X-154.357 Y28.268
N495 G2 X-154.366 Y28.249 I-2.725 J1.255
N500 G1 X-154.774 Y27.379
N505 G2 X-154.786 Y27.352 I-2.716 J1.273
N510 G1 X-155.191 Y26.51
N515 G2 X-155.209 Y26.473 I-2.704 J1.3
N520 G1 X-155.615 Y25.657
N525 G2 X-155.636 Y25.616 I-2.686 J1.337
N530 G1 X-156.045 Y24.825
N535 G2 X-156.071 Y24.777 I-2.665 J1.378
N540 G1 X-156.486 Y24.009
N545 G2 X-156.517 Y23.952 I-2.639 J1.426
N550 G1 X-156.942 Y23.205
N555 G2 X-156.978 Y23.144 I-2.608 J1.483
N560 G1 X-157.415 Y22.416
N565 G2 X-157.457 Y22.348 I-2.572 J1.544
N570 G1 X-157.91 Y21.637
N575 G2 X-157.954 Y21.569 I-2.53 J1.612
N580 G1 X-158.424 Y20.874
N585 G2 X-158.479 Y20.796 I-2.486 J1.68
N590 G1 X-158.972 Y20.114
N595 G2 X-159.028 Y20.039 I-2.431 J1.757
N600 G1 X-159.558 Y19.352
N605 G2 X-159.622 Y19.272 I-2.375 J1.833
N610 G1 X-160.205 Y18.568
N615 G2 X-160.28 Y18.48 I-2.311 J1.912
N620 G1 X-160.922 Y17.762
N625 G2 X-160.982 Y17.697 I-2.236 J2
N630 G1 X-161.326 Y17.334
N635 G2 X-161.367 Y17.293 I-2.176 J2.066
N640 G1 X-161.726 Y16.929
N645 G2 X-161.772 Y16.883 I-2.135 J2.107
N650 G1 X-162.148 Y16.518
N655 G2 X-162.195 Y16.473 I-2.089 J2.153
N660 G1 X-162.588 Y16.108
N665 G2 X-162.636 Y16.065 I-2.042 J2.198
N670 G1 X-163.046 Y15.7
N675 G2 X-163.097 Y15.656 I-1.994 J2.241
N680 G1 X-163.525 Y15.292
N685 G2 X-163.578 Y15.248 I-1.943 J2.286
N690 G1 X-164.025 Y14.885
N695 G2 X-164.077 Y14.844 I-1.89 J2.33
N700 G1 X-164.542 Y14.484
N705 G2 X-164.599 Y14.44 I-1.838 J2.371
N710 G1 X-165.084 Y14.083
N715 G2 X-165.138 Y14.043 I-1.781 J2.414
N720 G1 X-165.642 Y13.689
N725 G2 X-165.702 Y13.648 I-1.727 J2.453
N730 G1 X-166.227 Y13.297
N735 G2 X-166.287 Y13.258 I-1.667 J2.494
N740 G1 X-166.833 Y12.912
N745 G2 X-166.892 Y12.875 I-1.607 J2.533
N750 G1 X-167.457 Y12.535
N755 G2 X-167.518 Y12.499 I-1.548 J2.57
N760 G1 X-168.093 Y12.171
N765 G2 X-168.152 Y12.138 I-1.487 J2.605
N770 G1 X-168.735 Y11.822
N775 G2 X-168.797 Y11.79 I-1.428 J2.638
N780 G1 X-169.389 Y11.487
N785 G2 X-169.448 Y11.458 I-1.366 J2.671
N790 G1 X-170.047 Y11.168
N795 G2 X-170.104 Y11.141 I-1.307 J2.7
N800 G1 X-170.709 Y10.864
N805 G2 X-170.771 Y10.836 I-1.25 J2.727
N810 G1 X-171.384 Y10.572
N815 G2 X-171.44 Y10.548 I-1.188 J2.755
N820 G1 X-172.058 Y10.297
N825 G2 X-172.116 Y10.274 I-1.132 J2.778
N830 G1 X-172.739 Y10.035
N835 G2 X-172.798 Y10.013 I-1.074 J2.801
N840 G1 X-173.427 Y9.787
N845 G2 X-173.483 Y9.767 I-1.015 J2.823
N850 G1 X-174.116 Y9.554
N855 G2 X-174.175 Y9.535 I-0.959 J2.843
N860 G1 X-174.813 Y9.334
N865 G2 X-174.868 Y9.317 I-0.9 J2.862
N870 G1 X-175.509 Y9.129
N875 G2 X-175.566 Y9.113 I-0.845 J2.879
N880 G1 X-176.21 Y8.938
N885 G2 X-176.266 Y8.923 I-0.788 J2.895
N890 G1 X-176.913 Y8.76
N895 G2 X-176.969 Y8.747 I-0.732 J2.909
N900 G1 X-177.618 Y8.597
N905 G2 X-177.674 Y8.584 I-0.676 J2.923
N910 G1 X-178.325 Y8.447
N915 G2 X-178.381 Y8.436 I-0.62 J2.935
N920 G1 X-179.033 Y8.311
N925 G2 X-179.089 Y8.301 I-0.564 J2.947
N930 G1 X-179.741 Y8.189
N935 G2 X-179.797 Y8.18 I-0.508 J2.957
N940 G1 X-180.451 Y8.08
N945 G2 X-180.507 Y8.072 I-0.452 J2.966
N950 G1 X-181.162 Y7.985
N955 G2 X-181.219 Y7.978 I-0.396 J2.974
N960 G1 X-181.878 Y7.903
N965 G2 X-181.935 Y7.897 I-0.339 J2.981
N970 G1 X-182.394 Y7.854
N975 Z-2
N980 X-182.596 Y7.835
N985 G2 X-182.654 Y7.83 I-0.282 J2.987
N990 G1 X-183.317 Y7.78
N995 G2 X-183.375 Y7.776 I-0.224 J2.992
N1000 G1 X-184.039 Y7.739
N1005 G2 X-184.098 Y7.737 I-0.166 J2.995
N1010 G1 X-184.763 Y7.713
N1015 G2 X-184.822 Y7.711 I-0.107 J2.998
N1020 G1 X-185.488 Y7.701
N1025 G2 X-185.549 Y7.7 I-0.048 J3
N1030 G1 X-186.215 Y7.703
N1035 G2 X-186.275 Y7.704 I0.013 J3
N1040 G1 X-186.941 Y7.72
N1045 G2 X-187.004 Y7.722 I0.073 J2.999
N1050 G1 X-187.669 Y7.753
N1055 G2 X-187.732 Y7.756 I0.136 J2.997
N1060 G1 X-188.395 Y7.8
N1065 G2 X-188.458 Y7.805 I0.199 J2.993
N1070 G1 X-189.12 Y7.863
N1075 G2 X-189.185 Y7.869 I0.262 J2.989
N1080 G1 X-189.845 Y7.942
N1085 G2 X-189.911 Y7.95 I0.327 J2.982
N1090 G1 X-190.393 Y8.013
N1095 Z-3 F200
N1100 X-190.568 Y8.037 F800
N1105 G2 X-190.635 Y8.046 I0.393 J2.974
N1110 G1 X-191.289 Y8.148
N1115 G2 X-191.356 Y8.159 I0.46 J2.965
N1120 G1 X-192.007 Y8.275
N1125 G2 X-192.076 Y8.288 I0.527 J2.953
N1130 G1 X-192.723 Y8.419
N1135 G2 X-192.794 Y8.435 I0.596 J2.94
N1140 G1 X-193.436 Y8.581
N1145 G2 X-193.507 Y8.598 I0.667 J2.925
N1150 G1 X-194.145 Y8.76
N1155 G2 X-194.216 Y8.779 I0.738 J2.908
N1160 G1 X-194.85 Y8.957
N1165 G2 X-194.925 Y8.979 I0.809 J2.889
N1170 G1 X-195.553 Y9.172
N1175 G2 X-195.628 Y9.196 I0.884 J2.867
N1180 G1 X-196.25 Y9.406
N1185 G2 X-196.326 Y9.433 I0.959 J2.843
N1190 G1 X-196.942 Y9.659
N1195 G2 X-197.017 Y9.688 I1.035 J2.816
N1200 G1 X-197.627 Y9.931
N1205 G2 X-197.704 Y9.963 I1.11 J2.787
N1210 G1 X-198.307 Y10.223
N1215 G2 X-198.384 Y10.257 I1.187 J2.755
N1220 G1 X-198.98 Y10.534
N1225 G2 X-199.059 Y10.572 I1.264 J2.721
N1230 G1 X-199.647 Y10.867
N1235 G2 X-199.725 Y10.907 I1.343 J2.683
N1240 G1 X-200.305 Y11.219
N1245 G2 X-200.384 Y11.263 I1.421 J2.642
N1250 G1 X-200.955 Y11.593
N1255 G2 X-201.032 Y11.639 I1.5 J2.598
N1260 G1 X-201.595 Y11.987
N1265 G2 X-201.673 Y12.037 I1.577 J2.552
N1270 G1 X-202.224 Y12.401
N1275 G2 X-202.301 Y12.454 I1.655 J2.502
N1280 G1 X-202.837 Y12.833
N1285 G2 X-202.91 Y12.886 I1.732 J2.45
N1290 G1 X-203.432 Y13.279
N1295 G2 X-203.504 Y13.335 I1.805 J2.396
N1300 G1 X-204.012 Y13.743
N1305 G2 X-204.083 Y13.801 I1.877 J2.34
N1310 G1 X-204.577 Y14.222
N1315 G2 X-204.645 Y14.283 I1.948 J2.282
N1320 G1 X-205.125 Y14.718
N1325 G2 X-205.189 Y14.779 I2.016 J2.222
N1330 G1 X-205.656 Y15.228
N1335 G2 X-205.719 Y15.29 I2.08 J2.161
N1340 G1 X-206.173 Y15.753
N1345 G2 X-206.231 Y15.814 I2.143 J2.099
N1350 G1 X-206.673 Y16.291
N1355 G2 X-206.733 Y16.358 I2.201 J2.039
N1360 G1 X-207.161 Y16.849
N1365 G2 X-207.212 Y16.909 I2.261 J1.972
N1370 G1 X-207.629 Y17.413
N1375 G2 X-207.682 Y17.479 I2.312 J1.912
N1380 G1 X-208.086 Y17.997
N1385 G2 X-208.133 Y18.058 I2.365 J1.846
N1390 G1 X-208.526 Y18.589
N1395 G2 X-208.569 Y18.65 I2.412 J1.784
N1400 G1 X-208.951 Y19.194
N1405 G2 X-208.995 Y19.257 I2.455 J1.724
N1410 G1 X-209.363 Y19.811
N1415 G2 X-209.401 Y19.87 I2.499 J1.661
N1420 G1 X-209.756 Y20.432
N1425 G2 X-209.792 Y20.492 I2.537 J1.602
N1430 G1 X-210.134 Y21.062
N1435 G2 X-210.169 Y21.121 I2.573 J1.542
N1440 G1 X-210.498 Y21.7
N1445 G2 X-210.525 Y21.749 I2.608 J1.483
N1450 G1 X-210.844 Y22.335
N1455 G2 X-210.873 Y22.39 I2.635 J1.434
N1460 G1 X-211.18 Y22.984
N1465 G2 X-211.205 Y23.031 I2.664 J1.379
N1470 G1 X-211.502 Y23.631
N1475 G2 X-211.525 Y23.679 I2.689 J1.331
N1480 G1 X-211.812 Y24.286
N1485 G2 X-211.834 Y24.333 I2.712 J1.283
N1490 G1 X-212.111 Y24.946
N1495 G2 X-212.128 Y24.985 I2.734 J1.236
N1500 G1 X-212.397 Y25.604
N1505 G2 X-212.422 Y25.662 I2.751 J1.197
N1510 G1 X-212.936 Y26.915
N1515 G2 X-212.963 Y26.984 I2.776 J1.139
N1520 G1 X-213.448 Y28.256
N1525 G2 X-213.469 Y28.312 I2.803 J1.069
N1530 G1 X-213.931 Y29.601
N1535 G2 X-213.947 Y29.648 I2.824 J1.013
N1540 G1 X-214.4 Y30.981
N1545 G2 X-214.413 Y31.019 I2.84 J0.965
N1550 G1 X-214.917 Y32.569
N1555 G2 X-214.93 Y32.611 I2.853 J0.928
N1560 G1 X-215.452 Y34.302
N1565 G2 X-215.465 Y34.345 I2.866 J0.885
N1570 G1 X-215.716 Y35.203
N1575 G2 X-215.726 Y35.236 I2.879 J0.842
N1580 G1 X-215.963 Y36.082
N1585 G2 X-215.975 Y36.128 I2.889 J0.809
N1590 G1 X-216.19 Y36.946
N1595 G2 X-216.205 Y37.004 I2.901 J0.763
N1600 G1 X-216.392 Y37.778
N1605 G2 X-216.409 Y37.85 I2.916 J0.705
N1610 G1 X-216.563 Y38.564
N1615 G2 X-216.576 Y38.631 I2.933 J0.633
N1620 G1 X-216.689 Y39.219
N1625 G2 X-216.698 Y39.269 I2.946 J0.566
N1630 G1 X-216.827 Y40.008
N1635 G2 X-216.844 Y40.113 I2.955 J0.516
N1640 G1 X-216.911 Y40.598
N1645 X-216.99 Y41.17
N1650 X-217.033 Y41.437
N1655 X-217.078 Y41.667
N1660 X-217.125 Y41.858
N1665 X-217.172 Y42.012
N1670 X-217.218 Y42.129
N1675 X-217.256 Y42.208
N1680 X-217.289 Y42.261
N1685 X-217.324 Y42.307
N1690 X-217.359 Y42.345
N1695 X-217.404 Y42.384
N1700 X-217.469 Y42.431
N1705 X-217.559 Y42.484
N1710 X-217.682 Y42.545
N1715 X-217.828 Y42.605
N1720 X-217.988 Y42.66
N1725 X-218.158 Y42.709
N1730 X-218.328 Y42.751
N1735 X-218.475 Y42.781
N1740 X-218.787 Y42.831
N1745 X-219.062 Y42.861
N1750 X-219.307 Y42.876
N1755 X-219.488 Y42.878
N1760 X-219.689 Y42.868
N1765 G2 X-222.841 Y45.864 I-0.152 J2.996
N1770 G1 Y47.215
N1775 Z-2
N1780 Y55.215
N1785 Z-3 F200
N1790 Y55.695 F800
N1795 G2 X-219.92 Y58.694 I3
N1800 G1 X-219.216 Y58.713
N1805 X-218.521 Y58.746
N1810 X-217.803 Y58.795
N1815 X-217.066 Y58.857
N1820 X-216.311 Y58.933
N1825 X-215.551 Y59.019
N1830 X-213.975 Y59.225
N1835 X-212.388 Y59.463
N1840 X-210.802 Y59.724
N1845 X-207.689 Y60.277
N1850 X-204.696 Y60.825
N1855 G2 X-204.684 Y60.827 I0.54 J-2.951
N1860 G1 X-203.164 Y61.099
N1865 G2 X-203.143 Y61.102 I0.528 J-2.953
N1870 G1 X-201.603 Y61.367
N1875 G2 X-201.574 Y61.372 I0.507 J-2.957
N1880 G1 X-200.009 Y61.624
N1885 G2 X-199.971 Y61.63 I0.478 J-2.962
N1890 G1 X-198.376 Y61.867
N1895 G2 X-198.331 Y61.873 I0.44 J-2.968
N1900 G1 X-196.703 Y62.089
N1905 G2 X-196.651 Y62.096 I0.395 J-2.974
N1910 G1 X-194.985 Y62.287
N1915 G2 X-194.926 Y62.293 I0.343 J-2.98
N1920 G1 X-193.217 Y62.456
N1925 G2 X-193.153 Y62.461 I0.284 J-2.987
N1930 G1 X-191.397 Y62.59
N1935 G2 X-191.346 Y62.594 I0.22 J-2.992
N1940 G1 X-190.449 Y62.644
N1945 G2 X-190.414 Y62.646 I0.169 J-2.995
N1950 G1 X-189.507 Y62.687
N1955 G2 X-189.472 Y62.688 I0.134 J-2.997
N1960 G1 X-188.572 Y62.718
N1965 G2 X-188.538 Y62.719 I0.099 J-2.998
N1970 G1 X-187.649 Y62.738
N1975 G2 X-187.6 Y62.739 I0.065 J-2.999
N1980 G1 X-185.856 Y62.748
N1985 G2 X-185.792 I0.016 J-3
N1990 G1 X-184.099 Y62.721
N1995 G2 X-184.037 Y62.719 I-0.048 J-3
N2000 G1 X-182.401 Y62.659
N2005 G2 X-182.342 Y62.656 I-0.11 J-2.998
N2010 G1 X-180.766 Y62.567
N2015 G2 X-180.708 Y62.563 I-0.169 J-2.995
N2020 G1 X-179.199 Y62.449
N2025 G2 X-179.142 Y62.444 I-0.227 J-2.991
N2030 G1 X-177.705 Y62.307
N2035 G2 X-177.65 Y62.302 I-0.284 J-2.987
N2040 G1 X-176.289 Y62.147
N2045 G2 X-176.233 Y62.14 I-0.339 J-2.981
N2050 G1 X-174.955 Y61.97
N2055 G2 X-174.9 Y61.962 I-0.395 J-2.974
N2060 G1 X-173.708 Y61.781
N2065 G2 X-173.652 Y61.772 I-0.45 J-2.966
N2070 G1 X-172.535 Y61.581
N2075 G2 X-172.477 Y61.57 I-0.506 J-2.957
N2080 G1 X-171.426 Y61.369
N2085 G2 X-171.368 Y61.358 I-0.564 J-2.946
N2090 G1 X-170.379 Y61.148
N2095 G2 X-170.321 Y61.135 I-0.622 J-2.935
N2100 G1 X-169.392 Y60.919
N2105 G2 X-169.334 Y60.905 I-0.68 J-2.922
N2110 G1 X-168.461 Y60.683
N2115 G2 X-168.405 Y60.668 I-0.738 J-2.908
N2120 G1 X-167.585 Y60.443
N2125 G2 X-167.528 Y60.427 I-0.794 J-2.893
N2130 G1 X-166.76 Y60.199
N2135 G2 X-166.708 Y60.184 I-0.851 J-2.877
N2140 G1 X-165.987 Y59.956
N2145 G2 X-165.937 Y59.94 I-0.903 J-2.861
N2150 G1 X-165.26 Y59.713
N2155 G2 X-165.195 Y59.69 I-0.953 J-2.845
N2160 G1 X-163.965 Y59.247
N2165 G2 X-163.9 Y59.222 I-1.018 J-2.822
N2170 G1 X-162.813 Y58.802
N2175 G2 X-162.788 Y58.792 I-1.083 J-2.798
N2180 G1 X-161.83 Y58.411
N2185 X-160.963 Y58.078
N2190 X-160.585 Y57.944
N2195 X-160.217 Y57.823
N2200 X-159.861 Y57.718
N2205 X-159.514 Y57.629
N2210 X-159.166 Y57.555
N2215 X-158.808 Y57.495
N2220 X-158.431 Y57.449
N2225 X-158.044 Y57.418
N2230 X-157.644 Y57.402
N2235 X-157.228 Y57.401
N2240 X-156.794 Y57.412
N2245 X-156.351 Y57.435
N2250 X-155.358 Y57.514
N2255 X-154.286 Y57.621
N2260 X-153.136 Y57.736
N2265 G2 X-153.089 Y57.741 I0.299 J-2.985
N2270 G1 X-151.877 Y57.843
N2275 G2 X-151.815 Y57.847 I0.252 J-2.989
N2280 G1 X-151.607 Y57.861
N2285 Z-2
N2290 X-151.182 Y57.888
N2295 G2 X-151.129 Y57.891 I0.19 J-2.994
N2300 G1 X-150.477 Y57.92
N2305 G2 X-150.415 Y57.923 I0.137 J-2.997
N2310 G1 X-149.74 Y57.939
N2315 G2 X-149.673 Y57.94 I0.075 J-2.999
N2320 G1 X-148.977 Y57.942
N2325 G2 X-148.903 Y57.941 I0.008 J-3
N2330 G1 X-148.181 Y57.926
N2335 G2 X-148.104 Y57.923 I-0.066 J-2.999
N2340 G1 X-147.5 Y57.894
N2345 X-146.896 Y57.923
N2350 G2 X-146.819 Y57.926 I0.143 J-2.997
N2355 G1 X-146.097 Y57.941
N2360 G2 X-146.023 Y57.942 I0.066 J-2.999
N2365 G1 X-145.327 Y57.94
N2370 G2 X-145.26 Y57.939 I-0.008 J-3
N2375 G1 X-144.585 Y57.923
N2380 G2 X-144.523 Y57.92 I-0.075 J-2.999
N2385 G1 X-143.871 Y57.891
N2390 G2 X-143.818 Y57.888 I-0.137 J-2.997
N2395 G1 X-143.602 Y57.874
N2400 Z-3 F200
N2405 X-143.185 Y57.847 F800
N2410 G2 X-143.123 Y57.843 I-0.19 J-2.994
N2415 G1 X-141.911 Y57.741
N2420 G2 X-141.864 Y57.736 I-0.252 J-2.989
N2425 G1 X-140.714 Y57.621
N2430 X-139.642 Y57.514
N2435 X-138.649 Y57.435
N2440 X-138.206 Y57.412
N2445 X-137.772 Y57.401
N2450 X-137.356 Y57.402
N2455 X-136.956 Y57.418
N2460 X-136.569 Y57.449
N2465 X-136.192 Y57.495
N2470 X-135.834 Y57.555
N2475 X-135.486 Y57.629
N2480 X-135.139 Y57.718
N2485 X-134.783 Y57.823
N2490 X-134.415 Y57.944
N2495 X-134.037 Y58.078
N2500 X-133.17 Y58.411
N2505 X-132.212 Y58.792
N2510 G2 X-132.187 Y58.802 I1.108 J-2.788
N2515 G1 X-131.1 Y59.222
N2520 G2 X-131.035 Y59.247 I1.083 J-2.798
N2525 G1 X-129.805 Y59.69
N2530 G2 X-129.74 Y59.713 I1.018 J-2.822
N2535 G1 X-129.063 Y59.94
N2540 G2 X-129.013 Y59.956 I0.953 J-2.845
N2545 G1 X-128.292 Y60.184
N2550 G2 X-128.24 Y60.199 I0.903 J-2.861
N2555 G1 X-127.472 Y60.427
N2560 G2 X-127.415 Y60.443 I0.851 J-2.877
N2565 G1 X-126.595 Y60.668
N2570 G2 X-126.539 Y60.683 I0.794 J-2.893
N2575 G1 X-125.666 Y60.905
N2580 G2 X-125.608 Y60.919 I0.738 J-2.908
N2585 G1 X-124.679 Y61.135
N2590 G2 X-124.621 Y61.148 I0.68 J-2.922
N2595 G1 X-123.632 Y61.358
N2600 G2 X-123.574 Y61.369 I0.622 J-2.935
N2605 G1 X-122.523 Y61.57
N2610 G2 X-122.465 Y61.581 I0.564 J-2.946
N2615 G1 X-121.348 Y61.772
N2620 G2 X-121.292 Y61.781 I0.506 J-2.957
N2625 G1 X-120.1 Y61.962
N2630 G2 X-120.045 Y61.97 I0.45 J-2.966
N2635 G1 X-118.767 Y62.14
N2640 G2 X-118.711 Y62.147 I0.395 J-2.974
N2645 G1 X-117.35 Y62.302
N2650 G2 X-117.295 Y62.307 I0.339 J-2.981
N2655 G1 X-115.858 Y62.444
N2660 G2 X-115.801 Y62.449 I0.284 J-2.987
N2665 G1 X-114.292 Y62.563
N2670 G2 X-114.234 Y62.567 I0.227 J-2.991
N2675 G1 X-112.658 Y62.656
N2680 G2 X-112.599 Y62.659 I0.169 J-2.995
N2685 G1 X-110.963 Y62.719
N2690 G2 X-110.901 Y62.721 I0.11 J-2.998
N2695 G1 X-109.208 Y62.748
N2700 G2 X-109.144 I0.048 J-3
N2705 G1 X-107.4 Y62.739
N2710 G2 X-107.351 Y62.738 I-0.016 J-3
N2715 G1 X-106.462 Y62.719
N2720 G2 X-106.428 Y62.718 I-0.065 J-2.999
N2725 G1 X-105.528 Y62.688
N2730 G2 X-105.493 Y62.687 I-0.099 J-2.998
N2735 G1 X-104.586 Y62.646
N2740 G2 X-104.551 Y62.644 I-0.134 J-2.997
N2745 G1 X-103.654 Y62.594
N2750 G2 X-103.603 Y62.59 I-0.169 J-2.995
N2755 G1 X-101.847 Y62.461
N2760 G2 X-101.783 Y62.456 I-0.22 J-2.992
N2765 G1 X-100.074 Y62.293
N2770 G2 X-100.015 Y62.287 I-0.284 J-2.987
N2775 G1 X-98.349 Y62.096
N2780 G2 X-98.297 Y62.089 I-0.343 J-2.98
N2785 G1 X-96.669 Y61.873
N2790 G2 X-96.623 Y61.867 I-0.395 J-2.974
N2795 G1 X-95.029 Y61.63
N2800 G2 X-94.991 Y61.624 I-0.44 J-2.968
N2805 G1 X-93.426 Y61.372
N2810 G2 X-93.397 Y61.367 I-0.478 J-2.962
N2815 G1 X-91.856 Y61.102
N2820 G2 X-91.836 Y61.099 I-0.507 J-2.957
N2825 G1 X-90.316 Y60.827
N2830 G2 X-90.304 Y60.825 I-0.528 J-2.953
N2835 G1 X-87.312 Y60.277
N2840 X-84.198 Y59.724
N2845 X-82.613 Y59.463
N2850 X-81.025 Y59.225
N2855 X-79.449 Y59.019
N2860 X-78.689 Y58.933
N2865 X-77.934 Y58.857
N2870 X-77.197 Y58.795
N2875 X-76.479 Y58.746
N2880 X-75.785 Y58.713
N2885 X-75.08 Y58.694
N2890 G2 X-72.159 Y55.695 I-0.079 J-2.999
N2895 G1 Y55.303
N2900 Z-2
N2905 Y47.303
N2910 Z-3 F200
N2915 Y45.864 F800
N2920 G2 X-75.31 Y42.868 I-3
N2925 G1 X-75.512 Y42.878
N2930 X-75.693 Y42.876
N2935 X-75.938 Y42.861
N2940 X-76.213 Y42.831
N2945 X-76.525 Y42.781
N2950 X-76.671 Y42.751
N2955 X-76.842 Y42.709
N2960 X-77.012 Y42.66
N2965 X-77.173 Y42.605
N2970 X-77.318 Y42.545
N2975 X-77.44 Y42.485
N2980 X-77.531 Y42.43
N2985 X-77.597 Y42.383
N2990 X-77.642 Y42.343
N2995 X-77.678 Y42.305
N3000 X-77.71 Y42.263
N3005 X-77.743 Y42.209
N3010 X-77.782 Y42.129
N3015 X-77.827 Y42.013
N3020 X-77.875 Y41.86
N3025 X-77.922 Y41.667
N3030 X-77.967 Y41.434
N3035 X-78.01 Y41.17
N3040 X-78.089 Y40.6
N3045 Y40.599
N3050 X-78.156 Y40.114
N3055 G2 X-78.172 Y40.008 I-2.972 J0.41
N3060 G1 X-78.301 Y39.268
N3065 G2 X-78.311 Y39.217 I-2.955 J0.516
N3070 G1 X-78.424 Y38.629
N3075 G2 X-78.437 Y38.566 I-2.946 J0.568
N3080 G1 X-78.591 Y37.852
N3085 G2 X-78.608 Y37.776 I-2.933 J0.631
N3090 G1 X-78.796 Y37.002
N3095 G2 X-78.81 Y36.945 I-2.916 J0.707
N3100 G1 X-79.025 Y36.127
N3105 G2 X-79.037 Y36.083 I-2.901 J0.763
N3110 G1 X-79.274 Y35.237
N3115 G2 X-79.284 Y35.202 I-2.889 J0.808
N3120 G1 X-79.535 Y34.344
N3125 G2 X-79.548 Y34.302 I-2.879 J0.843
N3130 G1 X-80.069 Y32.612
N3135 G2 X-80.083 Y32.568 I-2.867 J0.884
N3140 G1 X-80.587 Y31.018
N3145 G2 X-80.6 Y30.98 I-2.853 J0.928
N3150 G1 X-81.053 Y29.648
N3155 G2 X-81.069 Y29.601 I-2.84 J0.966
N3160 G1 X-81.531 Y28.313
N3165 G2 X-81.552 Y28.256 I-2.824 J1.012
N3170 G1 X-82.037 Y26.983
N3175 G2 X-82.064 Y26.915 I-2.803 J1.07
N3180 G1 X-82.578 Y25.662
N3185 G2 X-82.603 Y25.604 I-2.776 J1.138
N3190 G1 X-82.872 Y24.985
N3195 G2 X-82.89 Y24.944 I-2.751 J1.196
N3200 G1 X-83.168 Y24.331
N3205 G2 X-83.188 Y24.286 I-2.733 J1.238
N3210 G1 X-83.475 Y23.68
N3215 G2 X-83.498 Y23.632 I-2.712 J1.283
N3220 G1 X-83.795 Y23.032
N3225 G2 X-83.82 Y22.983 I-2.689 J1.33
N3230 G1 X-84.127 Y22.39
N3235 G2 X-84.155 Y22.337 I-2.664 J1.379
N3240 G1 X-84.473 Y21.751
N3245 G2 X-84.503 Y21.697 I-2.636 J1.432
N3250 G1 X-84.833 Y21.119
N3255 G2 X-84.866 Y21.062 I-2.606 J1.486
N3260 G1 X-85.209 Y20.491
N3265 G2 X-85.244 Y20.433 I-2.573 J1.543
N3270 G1 X-85.599 Y19.871
N3275 G2 X-85.638 Y19.811 I-2.537 J1.601
N3280 G1 X-86.006 Y19.257
N3285 G2 X-86.048 Y19.196 I-2.499 J1.661
N3290 G1 X-86.429 Y18.652
N3295 G2 X-86.474 Y18.59 I-2.457 J1.722
N3300 G1 X-86.867 Y18.059
N3305 G2 X-86.915 Y17.995 I-2.412 J1.784
N3310 G1 X-87.319 Y17.478
N3315 G2 X-87.37 Y17.414 I-2.364 J1.847
N3320 G1 X-87.787 Y16.91
N3325 G2 X-87.84 Y16.847 I-2.313 J1.911
N3330 G1 X-88.269 Y16.356
N3335 G2 X-88.326 Y16.293 I-2.259 J1.974
N3340 G1 X-88.767 Y15.816
N3345 G2 X-88.827 Y15.753 I-2.203 J2.037
N3350 G1 X-89.281 Y15.29
N3355 G2 X-89.343 Y15.228 I-2.143 J2.099
N3360 G1 X-89.81 Y14.778
N3365 G2 X-89.875 Y14.718 I-2.08 J2.162
N3370 G1 X-90.356 Y14.282
N3375 G2 X-90.423 Y14.223 I-2.015 J2.222
N3380 G1 X-90.917 Y13.801
N3385 G2 X-90.987 Y13.743 I-1.948 J2.282
N3390 G1 X-91.495 Y13.336
N3395 G2 X-91.568 Y13.279 I-1.878 J2.34
N3400 G1 X-92.09 Y12.886
N3405 G2 X-92.163 Y12.832 I-1.805 J2.396
N3410 G1 X-92.7 Y12.453
N3415 G2 X-92.776 Y12.401 I-1.731 J2.45
N3420 G1 X-93.327 Y12.036
N3425 G2 X-93.404 Y11.987 I-1.655 J2.502
N3430 G1 X-93.967 Y11.639
N3435 G2 X-94.045 Y11.592 I-1.578 J2.551
N3440 G1 X-94.617 Y11.262
N3445 G2 X-94.695 Y11.219 I-1.499 J2.599
N3450 G1 X-95.275 Y10.907
N3455 G2 X-95.353 Y10.866 I-1.421 J2.642
N3460 G1 X-95.941 Y10.572
N3465 G2 X-96.02 Y10.534 I-1.343 J2.683
N3470 G1 X-96.615 Y10.257
N3475 G2 X-96.693 Y10.223 I-1.265 J2.72
N3480 G1 X-97.296 Y9.963
N3485 G2 X-97.373 Y9.931 I-1.187 J2.755
N3490 G1 X-97.983 Y9.688
N3495 G2 X-98.059 Y9.659 I-1.11 J2.787
N3500 G1 X-98.675 Y9.433
N3505 G2 X-98.75 Y9.406 I-1.034 J2.816
N3510 G1 X-99.372 Y9.196
N3515 G2 X-99.447 Y9.172 I-0.959 J2.843
N3520 G1 X-100.075 Y8.979
N3525 G2 X-100.15 Y8.957 I-0.884 J2.867
N3530 G1 X-100.784 Y8.779
N3535 G2 X-100.855 Y8.76 I-0.809 J2.889
N3540 G1 X-101.493 Y8.598
N3545 G2 X-101.564 Y8.581 I-0.738 J2.908
N3550 G1 X-102.206 Y8.435
N3555 G2 X-102.277 Y8.419 I-0.667 J2.925
N3560 G1 X-102.924 Y8.288
N3565 G2 X-102.993 Y8.275 I-0.596 J2.94
N3570 G1 X-103.644 Y8.159
N3575 G2 X-103.711 Y8.148 I-0.527 J2.953
N3580 G1 X-104.365 Y8.046
N3585 G2 X-104.432 Y8.037 I-0.46 J2.965
N3590 G1 X-105.089 Y7.95
N3595 G2 X-105.155 Y7.942 I-0.393 J2.974
N3600 G1 X-105.815 Y7.869
N3605 G2 X-105.88 Y7.863 I-0.327 J2.982
N3610 G1 X-106.147 Y7.84
N3615 Z-2
N3620 X-106.542 Y7.805
N3625 G2 X-106.605 Y7.8 I-0.262 J2.989
N3630 G1 X-107.268 Y7.756
N3635 G2 X-107.331 Y7.753 I-0.199 J2.993
N3640 G1 X-107.996 Y7.722
N3645 G2 X-108.059 Y7.72 I-0.136 J2.997
N3650 G1 X-108.725 Y7.704
N3655 G2 X-108.785 Y7.703 I-0.073 J2.999
N3660 G1 X-109.451 Y7.7
N3665 G2 X-109.512 Y7.701 I-0.013 J3
N3670 G1 X-110.178 Y7.711
N3675 G2 X-110.237 Y7.713 I0.048 J3
N3680 G1 X-110.902 Y7.737
N3685 G2 X-110.961 Y7.739 I0.107 J2.998
N3690 G1 X-111.625 Y7.776
N3695 G2 X-111.683 Y7.78 I0.166 J2.995
N3700 G1 X-112.346 Y7.83
N3705 G2 X-112.404 Y7.835 I0.224 J2.992
N3710 G1 X-113.065 Y7.897
N3715 G2 X-113.122 Y7.903 I0.282 J2.987
N3720 G1 X-113.781 Y7.978
N3725 G2 X-113.838 Y7.985 I0.339 J2.981
N3730 G1 X-114.146 Y8.026
N3735 Z-3 F200
N3740 X-114.493 Y8.072 F800
N3745 G2 X-114.549 Y8.08 I0.396 J2.974
N3750 G1 X-115.203 Y8.18
N3755 G2 X-115.259 Y8.189 I0.452 J2.966
N3760 G1 X-115.911 Y8.301
N3765 G2 X-115.967 Y8.311 I0.508 J2.957
N3770 G1 X-116.619 Y8.436
N3775 G2 X-116.675 Y8.447 I0.564 J2.947
N3780 G1 X-117.326 Y8.584
N3785 G2 X-117.382 Y8.597 I0.62 J2.935
N3790 G1 X-118.031 Y8.747
N3795 G2 X-118.087 Y8.76 I0.676 J2.923
N3800 G1 X-118.734 Y8.923
N3805 G2 X-118.79 Y8.938 I0.732 J2.909
N3810 G1 X-119.434 Y9.113
N3815 G2 X-119.491 Y9.129 I0.788 J2.895
N3820 G1 X-120.132 Y9.317
N3825 G2 X-120.187 Y9.334 I0.845 J2.879
N3830 G1 X-120.825 Y9.535
N3835 G2 X-120.884 Y9.554 I0.9 J2.862
N3840 G1 X-121.517 Y9.767
N3845 G2 X-121.573 Y9.787 I0.959 J2.843
N3850 G1 X-122.202 Y10.013
N3855 G2 X-122.261 Y10.035 I1.015 J2.823
N3860 G1 X-122.884 Y10.274
N3865 G2 X-122.942 Y10.297 I1.074 J2.801
N3870 G1 X-123.56 Y10.548
N3875 G2 X-123.616 Y10.572 I1.132 J2.778
N3880 G1 X-124.229 Y10.836
N3885 G2 X-124.291 Y10.864 I1.188 J2.755
N3890 G1 X-124.896 Y11.141
N3895 G2 X-124.953 Y11.168 I1.25 J2.727
N3900 G1 X-125.552 Y11.458
N3905 G2 X-125.611 Y11.487 I1.307 J2.7
N3910 G1 X-126.203 Y11.79
N3915 G2 X-126.265 Y11.822 I1.366 J2.671
N3920 G1 X-126.848 Y12.138
N3925 G2 X-126.907 Y12.171 I1.428 J2.638
N3930 G1 X-127.482 Y12.499
N3935 G2 X-127.543 Y12.535 I1.487 J2.605
N3940 G1 X-128.108 Y12.875
N3945 G2 X-128.167 Y12.912 I1.548 J2.57
N3950 G1 X-128.713 Y13.258
N3955 G2 X-128.773 Y13.297 I1.607 J2.533
N3960 G1 X-129.298 Y13.648
N3965 G2 X-129.358 Y13.689 I1.667 J2.494
N3970 G1 X-129.862 Y14.043
N3975 G2 X-129.916 Y14.083 I1.727 J2.453
N3980 G1 X-130.401 Y14.44
N3985 G2 X-130.458 Y14.484 I1.781 J2.414
N3990 G1 X-130.923 Y14.844
N3995 G2 X-130.975 Y14.885 I1.838 J2.371
N4000 G1 X-131.422 Y15.248
N4005 G2 X-131.475 Y15.292 I1.89 J2.33
N4010 G1 X-131.903 Y15.656
N4015 G2 X-131.954 Y15.7 I1.943 J2.286
N4020 G1 X-132.364 Y16.065
N4025 G2 X-132.412 Y16.108 I1.994 J2.241
N4030 G1 X-132.805 Y16.473
N4035 G2 X-132.852 Y16.518 I2.042 J2.198
N4040 G1 X-133.228 Y16.883
N4045 G2 X-133.274 Y16.929 I2.089 J2.153
N4050 G1 X-133.633 Y17.293
N4055 G2 X-133.674 Y17.334 I2.135 J2.107
N4060 G1 X-134.018 Y17.697
N4065 G2 X-134.078 Y17.762 I2.176 J2.066
N4070 G1 X-134.72 Y18.48
N4075 G2 X-134.795 Y18.568 I2.236 J2
N4080 G1 X-135.378 Y19.272
N4085 G2 X-135.442 Y19.352 I2.311 J1.912
N4090 G1 X-135.972 Y20.039
N4095 G2 X-136.028 Y20.114 I2.375 J1.833
N4100 G1 X-136.521 Y20.796
N4105 G2 X-136.576 Y20.874 I2.431 J1.757
N4110 G1 X-137.046 Y21.569
N4115 G2 X-137.09 Y21.637 I2.486 J1.68
N4120 G1 X-137.543 Y22.348
N4125 G2 X-137.585 Y22.416 I2.53 J1.612
N4130 G1 X-138.022 Y23.144
N4135 G2 X-138.058 Y23.205 I2.572 J1.544
N4140 G1 X-138.483 Y23.952
N4145 G2 X-138.514 Y24.009 I2.608 J1.483
N4150 G1 X-138.929 Y24.777
N4155 G2 X-138.955 Y24.825 I2.639 J1.426
N4160 G1 X-139.364 Y25.616
N4165 G2 X-139.385 Y25.657 I2.665 J1.378
N4170 G1 X-139.791 Y26.473
N4175 G2 X-139.809 Y26.51 I2.686 J1.337
N4180 G1 X-140.214 Y27.352
N4185 G2 X-140.226 Y27.379 I2.704 J1.3
N4190 G1 X-140.634 Y28.249
N4195 G2 X-140.643 Y28.268 I2.716 J1.273
N4200 G1 X-141.057 Y29.167
N4205 G2 X-141.062 Y29.177 I2.725 J1.255
N4210 G1 X-141.476 Y30.085
N4215 G2 X-141.481 Y30.097 I2.73 J1.245
N4220 G1 X-141.891 Y31.008
N4225 G2 X-141.901 Y31.029 I2.735 J1.232
N4230 G1 X-142.304 Y31.942
N4235 G2 X-142.318 Y31.975 I2.745 J1.211
N4240 G1 X-142.71 Y32.892
N4245 G2 X-142.727 Y32.934 I2.759 J1.178
N4250 G1 X-143.105 Y33.857
N4255 G2 X-143.126 Y33.908 I2.776 J1.137
N4260 G1 X-143.487 Y34.837
N4265 G2 X-143.509 Y34.898 I2.797 J1.086
N4270 G1 X-143.85 Y35.835
N4275 G2 X-143.877 Y35.911 I2.819 J1.026
N4280 G1 X-144.228 Y36.963
N4285 G2 X-144.245 Y37.017 I2.846 J0.95
N4290 G1 X-144.646 Y38.3
N4295 G2 X-144.661 Y38.348 I2.863 J0.895
N4300 G1 X-145.047 Y39.659
N4305 G2 X-145.064 Y39.719 I2.878 J0.847
N4310 G1 X-145.371 Y40.847
N4315 G2 X-145.393 Y40.936 I2.895 J0.787
N4320 G1 X-145.496 Y41.365
N4325 G2 X-145.524 Y41.495 I2.917 J0.699
N4330 G1 X-145.583 Y41.8
N4335 G2 X-145.63 Y42.148 I2.945 J0.57
N4340 G1 X-145.644 Y42.336
N4345 G2 X-145.639 Y42.832 I2.992 J0.222
N4350 G1 X-145.624 Y42.996
N4355 G2 X-145.581 Y43.3 I2.988 J-0.274
N4360 G3 X-146.054 Y44.004 I-0.589 J0.116
N4365 G1 X-146.643 Y44.119
N4370 X-146.735 Y44.137 Z-2.993
N4375 X-146.825 Y44.155 Z-2.971
N4380 X-146.91 Y44.172 Z-2.935
N4385 X-146.989 Y44.187 Z-2.885
N4390 X-147.059 Y44.201 Z-2.824
N4395 X-147.119 Y44.213 Z-2.753
N4400 X-147.168 Y44.222 Z-2.672
N4405 X-147.203 Y44.229 Z-2.585
N4410 X-147.224 Y44.233 Z-2.494
N4415 X-147.232 Y44.235 Z-2.4
N4420 G0 Z5
N4425 X-147.463 Y43.057
N4430 G1 Z1 F200
N4435 Z-5.4
N4440 X-147.455 Y43.056 Z-5.494
N4445 X-147.434 Y43.052 Z-5.585
N4450 X-147.399 Y43.045 Z-5.672
N4455 X-147.35 Y43.035 Z-5.753
N4460 X-147.29 Y43.024 Z-5.824
N4465 X-147.22 Y43.01 Z-5.885
N4470 X-147.141 Y42.994 Z-5.935
N4475 X-147.056 Y42.978 Z-5.971
N4480 X-146.966 Y42.96 Z-5.993
N4485 X-146.874 Y42.942 Z-6
N4490 X-146.285 Y42.826 F800
N4495 G3 X-145.581 Y43.3 I0.116 J0.589
N4500 G2 X-145.536 Y43.494 I2.944 J-0.578
N4505 G1 X-145.493 Y43.656
N4510 G2 X-145.363 Y44.038 I2.899 J-0.772
N4515 G1 X-145.291 Y44.211
N4520 G2 X-145.202 Y44.405 I2.769 J-1.155
N4525 G1 X-145.002 Y44.801
N4530 X-144.808 Y45.211
N4535 X-144.754 Y45.344
N4540 X-144.706 Y45.48
N4545 X-144.671 Y45.608
N4550 X-144.668 Y45.625
N4555 X-144.698 Y45.633
N4560 X-144.875 Y45.664
N4565 X-145.088 Y45.688
N4570 X-145.327 Y45.702
N4575 X-145.572 Y45.706
N4580 X-146.171 Y45.691
N4585 X-146.773 Y45.658
N4590 G2 X-146.819 Y45.656 I-0.162 J2.996
N4595 G1 X-147.384 Y45.634
N4600 G2 X-147.616 I-0.116 J2.998
N4605 G1 X-148.181 Y45.656
N4610 G2 X-148.227 Y45.658 I0.116 J2.998
N4615 G1 X-148.829 Y45.691
N4620 X-149.428 Y45.706
N4625 X-149.673 Y45.702
N4630 X-149.912 Y45.688
N4635 X-150.125 Y45.664
N4640 X-150.302 Y45.633
N4645 X-150.332 Y45.625
N4650 X-150.329 Y45.608
N4655 X-150.294 Y45.48
N4660 X-150.246 Y45.344
N4665 X-150.192 Y45.211
N4670 X-149.998 Y44.801
N4675 X-149.798 Y44.405
N4680 G2 X-149.709 Y44.211 I-2.68 J-1.348
N4685 G1 X-149.637 Y44.038
N4690 G2 X-149.507 Y43.656 I-2.769 J-1.155
N4695 G1 X-149.464 Y43.494
N4700 G2 X-149.376 Y42.996 I-2.899 J-0.772
N4705 G1 X-149.361 Y42.832
N4710 G2 X-149.356 Y42.336 I-2.988 J-0.274
N4715 G1 X-149.37 Y42.148
N4720 G2 X-149.417 Y41.8 I-2.992 J0.222
N4725 G1 X-149.476 Y41.495
N4730 G2 X-149.504 Y41.365 I-2.945 J0.57
N4735 G1 X-149.607 Y40.936
N4740 G2 X-149.629 Y40.847 I-2.917 J0.699
N4745 G1 X-149.936 Y39.719
N4750 G2 X-149.953 Y39.659 I-2.895 J0.787
N4755 G1 X-150.339 Y38.348
N4760 G2 X-150.354 Y38.3 I-2.878 J0.847
N4765 G1 X-150.755 Y37.017
N4770 G2 X-150.772 Y36.963 I-2.863 J0.895
N4775 G1 X-151.123 Y35.911
N4780 G2 X-151.15 Y35.835 I-2.846 J0.95
N4785 G1 X-151.491 Y34.898
N4790 G2 X-151.513 Y34.837 I-2.819 J1.026
N4795 G1 X-151.874 Y33.908
N4800 G2 X-151.895 Y33.857 I-2.797 J1.086
N4805 G1 X-152.273 Y32.934
N4810 G2 X-152.29 Y32.892 I-2.776 J1.137
N4815 G1 X-152.682 Y31.975
N4820 G2 X-152.696 Y31.942 I-2.759 J1.178
N4825 G1 X-153.099 Y31.029
N4830 G2 X-153.109 Y31.008 I-2.745 J1.211
N4835 G1 X-153.519 Y30.097
N4840 G2 X-153.524 Y30.085 I-2.735 J1.232
N4845 G1 X-153.938 Y29.177
N4850 G2 X-153.943 Y29.167 I-2.73 J1.245
N4855 G1 X-154.357 Y28.268
N4860 G2 X-154.366 Y28.249 I-2.725 J1.255
N4865 G1 X-154.774 Y27.379
N4870 G2 X-154.786 Y27.352 I-2.716 J1.273
N4875 G1 X-155.191 Y26.51
N4880 G2 X-155.209 Y26.473 I-2.704 J1.3
N4885 G1 X-155.615 Y25.657
N4890 G2 X-155.636 Y25.616 I-2.686 J1.337
N4895 G1 X-156.045 Y24.825
N4900 G2 X-156.071 Y24.777 I-2.665 J1.378
N4905 G1 X-156.486 Y24.009
N4910 G2 X-156.517 Y23.952 I-2.639 J1.426
N4915 G1 X-156.942 Y23.205
N4920 G2 X-156.978 Y23.144 I-2.608 J1.483
N4925 G1 X-157.415 Y22.416
N4930 G2 X-157.457 Y22.348 I-2.572 J1.544
N4935 G1 X-157.91 Y21.637
N4940 G2 X-157.954 Y21.569 I-2.53 J1.612
N4945 G1 X-158.424 Y20.874
N4950 G2 X-158.479 Y20.796 I-2.486 J1.68
N4955 G1 X-158.972 Y20.114
N4960 G2 X-159.028 Y20.039 I-2.431 J1.757
N4965 G1 X-159.558 Y19.352
N4970 G2 X-159.622 Y19.272 I-2.375 J1.833
N4975 G1 X-160.205 Y18.568
N4980 G2 X-160.28 Y18.48 I-2.311 J1.912
N4985 G1 X-160.922 Y17.762
N4990 G2 X-160.982 Y17.697 I-2.236 J2
N4995 G1 X-161.326 Y17.334
N5000 G2 X-161.367 Y17.293 I-2.176 J2.066
N5005 G1 X-161.726 Y16.929
N5010 G2 X-161.772 Y16.883 I-2.135 J2.107
N5015 G1 X-162.148 Y16.518
N5020 G2 X-162.195 Y16.473 I-2.089 J2.153
N5025 G1 X-162.588 Y16.108
N5030 G2 X-162.636 Y16.065 I-2.042 J2.198
N5035 G1 X-163.046 Y15.7
N5040 G2 X-163.097 Y15.656 I-1.994 J2.241
N5045 G1 X-163.525 Y15.292
N5050 G2 X-163.578 Y15.248 I-1.943 J2.286
N5055 G1 X-164.025 Y14.885
N5060 G2 X-164.077 Y14.844 I-1.89 J2.33
N5065 G1 X-164.542 Y14.484
N5070 G2 X-164.599 Y14.44 I-1.838 J2.371
N5075 G1 X-165.084 Y14.083
N5080 G2 X-165.138 Y14.043 I-1.781 J2.414
N5085 G1 X-165.642 Y13.689
N5090 G2 X-165.702 Y13.648 I-1.727 J2.453
N5095 G1 X-166.227 Y13.297
N5100 G2 X-166.287 Y13.258 I-1.667 J2.494
N5105 G1 X-166.833 Y12.912
N5110 G2 X-166.892 Y12.875 I-1.607 J2.533
N5115 G1 X-167.457 Y12.535
N5120 G2 X-167.518 Y12.499 I-1.548 J2.57
N5125 G1 X-168.093 Y12.171
N5130 G2 X-168.152 Y12.138 I-1.487 J2.605
N5135 G1 X-168.735 Y11.822
N5140 G2 X-168.797 Y11.79 I-1.428 J2.638
N5145 G1 X-169.389 Y11.487
N5150 G2 X-169.448 Y11.458 I-1.366 J2.671
N5155 G1 X-170.047 Y11.168
N5160 G2 X-170.104 Y11.141 I-1.307 J2.7
N5165 G1 X-170.709 Y10.864
N5170 G2 X-170.771 Y10.836 I-1.25 J2.727
N5175 G1 X-171.384 Y10.572
N5180 G2 X-171.44 Y10.548 I-1.188 J2.755
N5185 G1 X-172.058 Y10.297
N5190 G2 X-172.116 Y10.274 I-1.132 J2.778
N5195 G1 X-172.739 Y10.035
N5200 G2 X-172.798 Y10.013 I-1.074 J2.801
N5205 G1 X-173.427 Y9.787
N5210 G2 X-173.483 Y9.767 I-1.015 J2.823
N5215 G1 X-174.116 Y9.554
N5220 G2 X-174.175 Y9.535 I-0.959 J2.843
N5225 G1 X-174.813 Y9.334
N5230 G2 X-174.868 Y9.317 I-0.9 J2.862
N5235 G1 X-175.509 Y9.129
N5240 G2 X-175.566 Y9.113 I-0.845 J2.879
N5245 G1 X-176.21 Y8.938
N5250 G2 X-176.266 Y8.923 I-0.788 J2.895
N5255 G1 X-176.913 Y8.76
N5260 G2 X-176.969 Y8.747 I-0.732 J2.909
N5265 G1 X-177.618 Y8.597
N5270 G2 X-177.674 Y8.584 I-0.676 J2.923
N5275 G1 X-178.325 Y8.447
N5280 G2 X-178.381 Y8.436 I-0.62 J2.935
N5285 G1 X-179.033 Y8.311
N5290 G2 X-179.089 Y8.301 I-0.564 J2.947
N5295 G1 X-179.741 Y8.189
N5300 G2 X-179.797 Y8.18 I-0.508 J2.957
N5305 G1 X-180.451 Y8.08
N5310 G2 X-180.507 Y8.072 I-0.452 J2.966
N5315 G1 X-181.162 Y7.985
N5320 G2 X-181.219 Y7.978 I-0.396 J2.974
N5325 G1 X-181.878 Y7.903
N5330 G2 X-181.935 Y7.897 I-0.339 J2.981
N5335 G1 X-182.394 Y7.854
N5340 Z-2
N5345 X-182.596 Y7.835
N5350 G2 X-182.654 Y7.83 I-0.282 J2.987
N5355 G1 X-183.317 Y7.78
N5360 G2 X-183.375 Y7.776 I-0.224 J2.992
N5365 G1 X-184.039 Y7.739
N5370 G2 X-184.098 Y7.737 I-0.166 J2.995
N5375 G1 X-184.763 Y7.713
N5380 G2 X-184.822 Y7.711 I-0.107 J2.998
N5385 G1 X-185.488 Y7.701
N5390 G2 X-185.549 Y7.7 I-0.048 J3
N5395 G1 X-186.215 Y7.703
N5400 G2 X-186.275 Y7.704 I0.013 J3
N5405 G1 X-186.941 Y7.72
N5410 G2 X-187.004 Y7.722 I0.073 J2.999
N5415 G1 X-187.669 Y7.753
N5420 G2 X-187.732 Y7.756 I0.136 J2.997
N5425 G1 X-188.395 Y7.8
N5430 G2 X-188.458 Y7.805 I0.199 J2.993
N5435 G1 X-189.12 Y7.863
N5440 G2 X-189.185 Y7.869 I0.262 J2.989
N5445 G1 X-189.845 Y7.942
N5450 G2 X-189.911 Y7.95 I0.327 J2.982
N5455 G1 X-190.393 Y8.013
N5460 Z-6 F200
N5465 X-190.568 Y8.037 F800
N5470 G2 X-190.635 Y8.046 I0.393 J2.974
N5475 G1 X-191.289 Y8.148
N5480 G2 X-191.356 Y8.159 I0.46 J2.965
N5485 G1 X-192.007 Y8.275
N5490 G2 X-192.076 Y8.288 I0.527 J2.953
N5495 G1 X-192.723 Y8.419
N5500 G2 X-192.794 Y8.435 I0.596 J2.94
N5505 G1 X-193.436 Y8.581
N5510 G2 X-193.507 Y8.598 I0.667 J2.925
N5515 G1 X-194.145 Y8.76
N5520 G2 X-194.216 Y8.779 I0.738 J2.908
N5525 G1 X-194.85 Y8.957
N5530 G2 X-194.925 Y8.979 I0.809 J2.889
N5535 G1 X-195.553 Y9.172
N5540 G2 X-195.628 Y9.196 I0.884 J2.867
N5545 G1 X-196.25 Y9.406
N5550 G2 X-196.326 Y9.433 I0.959 J2.843
N5555 G1 X-196.942 Y9.659
N5560 G2 X-197.017 Y9.688 I1.035 J2.816
N5565 G1 X-197.627 Y9.931
N5570 G2 X-197.704 Y9.963 I1.11 J2.787
N5575 G1 X-198.307 Y10.223
N5580 G2 X-198.384 Y10.257 I1.187 J2.755
N5585 G1 X-198.98 Y10.534
N5590 G2 X-199.059 Y10.572 I1.264 J2.721
N5595 G1 X-199.647 Y10.867
N5600 G2 X-199.725 Y10.907 I1.343 J2.683
N5605 G1 X-200.305 Y11.219
N5610 G2 X-200.384 Y11.263 I1.421 J2.642
N5615 G1 X-200.955 Y11.593
N5620 G2 X-201.032 Y11.639 I1.5 J2.598
N5625 G1 X-201.595 Y11.987
N5630 G2 X-201.673 Y12.037 I1.577 J2.552
N5635 G1 X-202.224 Y12.401
N5640 G2 X-202.301 Y12.454 I1.655 J2.502
N5645 G1 X-202.837 Y12.833
N5650 G2 X-202.91 Y12.886 I1.732 J2.45
N5655 G1 X-203.432 Y13.279
N5660 G2 X-203.504 Y13.335 I1.805 J2.396
N5665 G1 X-204.012 Y13.743
N5670 G2 X-204.083 Y13.801 I1.877 J2.34
N5675 G1 X-204.577 Y14.222
N5680 G2 X-204.645 Y14.283 I1.948 J2.282
N5685 G1 X-205.125 Y14.718
N5690 G2 X-205.189 Y14.779 I2.016 J2.222
N5695 G1 X-205.656 Y15.228
N5700 G2 X-205.719 Y15.29 I2.08 J2.161
N5705 G1 X-206.173 Y15.753
N5710 G2 X-206.231 Y15.814 I2.143 J2.099
N5715 G1 X-206.673 Y16.291
N5720 G2 X-206.733 Y16.358 I2.201 J2.039
N5725 G1 X-207.161 Y16.849
N5730 G2 X-207.212 Y16.909 I2.261 J1.972
N5735 G1 X-207.629 Y17.413
N5740 G2 X-207.682 Y17.479 I2.312 J1.912
N5745 G1 X-208.086 Y17.997
N5750 G2 X-208.133 Y18.058 I2.365 J1.846
N5755 G1 X-208.526 Y18.589
N5760 G2 X-208.569 Y18.65 I2.412 J1.784
N5765 G1 X-208.951 Y19.194
N5770 G2 X-208.995 Y19.257 I2.455 J1.724
N5775 G1 X-209.363 Y19.811
N5780 G2 X-209.401 Y19.87 I2.499 J1.661
N5785 G1 X-209.756 Y20.432
N5790 G2 X-209.792 Y20.492 I2.537 J1.602
N5795 G1 X-210.134 Y21.062
N5800 G2 X-210.169 Y21.121 I2.573 J1.542
N5805 G1 X-210.498 Y21.7
N5810 G2 X-210.525 Y21.749 I2.608 J1.483
N5815 G1 X-210.844 Y22.335
N5820 G2 X-210.873 Y22.39 I2.635 J1.434
N5825 G1 X-211.18 Y22.984
N5830 G2 X-211.205 Y23.031 I2.664 J1.379
N5835 G1 X-211.502 Y23.631
N5840 G2 X-211.525 Y23.679 I2.689 J1.331
N5845 G1 X-211.812 Y24.286
N5850 G2 X-211.834 Y24.333 I2.712 J1.283
N5855 G1 X-212.111 Y24.946
N5860 G2 X-212.128 Y24.985 I2.734 J1.236
N5865 G1 X-212.397 Y25.604
N5870 G2 X-212.422 Y25.662 I2.751 J1.197
N5875 G1 X-212.936 Y26.915
N5880 G2 X-212.963 Y26.984 I2.776 J1.139
N5885 G1 X-213.448 Y28.256
N5890 G2 X-213.469 Y28.312 I2.803 J1.069
N5895 G1 X-213.931 Y29.601
N5900 G2 X-213.947 Y29.648 I2.824 J1.013
N5905 G1 X-214.4 Y30.981
N5910 G2 X-214.413 Y31.019 I2.84 J0.965
N5915 G1 X-214.917 Y32.569
N5920 G2 X-214.93 Y32.611 I2.853 J0.928
N5925 G1 X-215.452 Y34.302
N5930 G2 X-215.465 Y34.345 I2.866 J0.885
N5935 G1 X-215.716 Y35.203
N5940 G2 X-215.726 Y35.236 I2.879 J0.842
N5945 G1 X-215.963 Y36.082
N5950 G2 X-215.975 Y36.128 I2.889 J0.809
N5955 G1 X-216.19 Y36.946
N5960 G2 X-216.205 Y37.004 I2.901 J0.763
N5965 G1 X-216.392 Y37.778
N5970 G2 X-216.409 Y37.85 I2.916 J0.705
N5975 G1 X-216.563 Y38.564
N5980 G2 X-216.576 Y38.631 I2.933 J0.633
N5985 G1 X-216.689 Y39.219
N5990 G2 X-216.698 Y39.269 I2.946 J0.566
N5995 G1 X-216.827 Y40.008
N6000 G2 X-216.844 Y40.113 I2.955 J0.516
N6005 G1 X-216.911 Y40.598
N6010 X-216.99 Y41.17
N6015 X-217.033 Y41.437
N6020 X-217.078 Y41.667
N6025 X-217.125 Y41.858
N6030 X-217.172 Y42.012
N6035 X-217.218 Y42.129
N6040 X-217.256 Y42.208
N6045 X-217.289 Y42.261
N6050 X-217.324 Y42.307
N6055 X-217.359 Y42.345
N6060 X-217.404 Y42.384
N6065 X-217.469 Y42.431
N6070 X-217.559 Y42.484
N6075 X-217.682 Y42.545
N6080 X-217.828 Y42.605
N6085 X-217.988 Y42.66
N6090 X-218.158 Y42.709
N6095 X-218.328 Y42.751
N6100 X-218.475 Y42.781
N6105 X-218.787 Y42.831
N6110 X-219.062 Y42.861
N6115 X-219.307 Y42.876
N6120 X-219.488 Y42.878
N6125 X-219.689 Y42.868
N6130 G2 X-222.841 Y45.864 I-0.152 J2.996
N6135 G1 Y47.215
N6140 Z-2
N6145 Y55.215
N6150 Z-6 F200
N6155 Y55.695 F800
N6160 G2 X-219.92 Y58.694 I3
N6165 G1 X-219.216 Y58.713
N6170 X-218.521 Y58.746
N6175 X-217.803 Y58.795
N6180 X-217.066 Y58.857
N6185 X-216.311 Y58.933
N6190 X-215.551 Y59.019
N6195 X-213.975 Y59.225
N6200 X-212.388 Y59.463
N6205 X-210.802 Y59.724
N6210 X-207.689 Y60.277
N6215 X-204.696 Y60.825
N6220 G2 X-204.684 Y60.827 I0.54 J-2.951
N6225 G1 X-203.164 Y61.099
N6230 G2 X-203.143 Y61.102 I0.528 J-2.953
N6235 G1 X-201.603 Y61.367
N6240 G2 X-201.574 Y61.372 I0.507 J-2.957
N6245 G1 X-200.009 Y61.624
N6250 G2 X-199.971 Y61.63 I0.478 J-2.962
N6255 G1 X-198.376 Y61.867
N6260 G2 X-198.331 Y61.873 I0.44 J-2.968
N6265 G1 X-196.703 Y62.089
N6270 G2 X-196.651 Y62.096 I0.395 J-2.974
N6275 G1 X-194.985 Y62.287
N6280 G2 X-194.926 Y62.293 I0.343 J-2.98
N6285 G1 X-193.217 Y62.456
N6290 G2 X-193.153 Y62.461 I0.284 J-2.987
N6295 G1 X-191.397 Y62.59
N6300 G2 X-191.346 Y62.594 I0.22 J-2.992
N6305 G1 X-190.449 Y62.644
N6310 G2 X-190.414 Y62.646 I0.169 J-2.995
N6315 G1 X-189.507 Y62.687
N6320 G2 X-189.472 Y62.688 I0.134 J-2.997
N6325 G1 X-188.572 Y62.718
N6330 G2 X-188.538 Y62.719 I0.099 J-2.998
N6335 G1 X-187.649 Y62.738
N6340 G2 X-187.6 Y62.739 I0.065 J-2.999
N6345 G1 X-185.856 Y62.748
N6350 G2 X-185.792 I0.016 J-3
N6355 G1 X-184.099 Y62.721
N6360 G2 X-184.037 Y62.719 I-0.048 J-3
N6365 G1 X-182.401 Y62.659
N6370 G2 X-182.342 Y62.656 I-0.11 J-2.998
N6375 G1 X-180.766 Y62.567
N6380 G2 X-180.708 Y62.563 I-0.169 J-2.995
N6385 G1 X-179.199 Y62.449
N6390 G2 X-179.142 Y62.444 I-0.227 J-2.991
N6395 G1 X-177.705 Y62.307
N6400 G2 X-177.65 Y62.302 I-0.284 J-2.987
N6405 G1 X-176.289 Y62.147
N6410 G2 X-176.233 Y62.14 I-0.339 J-2.981
N6415 G1 X-174.955 Y61.97
N6420 G2 X-174.9 Y61.962 I-0.395 J-2.974
N6425 G1 X-173.708 Y61.781
N6430 G2 X-173.652 Y61.772 I-0.45 J-2.966
N6435 G1 X-172.535 Y61.581
N6440 G2 X-172.477 Y61.57 I-0.506 J-2.957
N6445 G1 X-171.426 Y61.369
N6450 G2 X-171.368 Y61.358 I-0.564 J-2.946
N6455 G1 X-170.379 Y61.148
N6460 G2 X-170.321 Y61.135 I-0.622 J-2.935
N6465 G1 X-169.392 Y60.919
N6470 G2 X-169.334 Y60.905 I-0.68 J-2.922
N6475 G1 X-168.461 Y60.683
N6480 G2 X-168.405 Y60.668 I-0.738 J-2.908
N6485 G1 X-167.585 Y60.443
N6490 G2 X-167.528 Y60.427 I-0.794 J-2.893
N6495 G1 X-166.76 Y60.199
N6500 G2 X-166.708 Y60.184 I-0.851 J-2.877
N6505 G1 X-165.987 Y59.956
N6510 G2 X-165.937 Y59.94 I-0.903 J-2.861
N6515 G1 X-165.26 Y59.713
N6520 G2 X-165.195 Y59.69 I-0.953 J-2.845
N6525 G1 X-163.965 Y59.247
N6530 G2 X-163.9 Y59.222 I-1.018 J-2.822
N6535 G1 X-162.813 Y58.802
N6540 G2 X-162.788 Y58.792 I-1.083 J-2.798
N6545 G1 X-161.83 Y58.411
N6550 X-160.963 Y58.078
N6555 X-160.585 Y57.944
N6560 X-160.217 Y57.823
N6565 X-159.861 Y57.718
N6570 X-159.514 Y57.629
N6575 X-159.166 Y57.555
N6580 X-158.808 Y57.495
N6585 X-158.431 Y57.449
N6590 X-158.044 Y57.418
N6595 X-157.644 Y57.402
N6600 X-157.228 Y57.401
N6605 X-156.794 Y57.412
N6610 X-156.351 Y57.435
N6615 X-155.358 Y57.514
N6620 X-154.286 Y57.621
N6625 X-153.136 Y57.736
N6630 G2 X-153.089 Y57.741 I0.299 J-2.985
N6635 G1 X-151.877 Y57.843
N6640 G2 X-151.815 Y57.847 I0.252 J-2.989
N6645 G1 X-151.607 Y57.861
N6650 Z-2
N6655 X-151.182 Y57.888
N6660 G2 X-151.129 Y57.891 I0.19 J-2.994
N6665 G1 X-150.477 Y57.92
N6670 G2 X-150.415 Y57.923 I0.137 J-2.997
N6675 G1 X-149.74 Y57.939
N6680 G2 X-149.673 Y57.94 I0.075 J-2.999
N6685 G1 X-148.977 Y57.942
N6690 G2 X-148.903 Y57.941 I0.008 J-3
N6695 G1 X-148.181 Y57.926
N6700 G2 X-148.104 Y57.923 I-0.066 J-2.999
N6705 G1 X-147.5 Y57.894
N6710 X-146.896 Y57.923
N6715 G2 X-146.819 Y57.926 I0.143 J-2.997
N6720 G1 X-146.097 Y57.941
N6725 G2 X-146.023 Y57.942 I0.066 J-2.999
N6730 G1 X-145.327 Y57.94
N6735 G2 X-145.26 Y57.939 I-0.008 J-3
N6740 G1 X-144.585 Y57.923
N6745 G2 X-144.523 Y57.92 I-0.075 J-2.999
N6750 G1 X-143.871 Y57.891
N6755 G2 X-143.818 Y57.888 I-0.137 J-2.997
N6760 G1 X-143.602 Y57.874
N6765 Z-6 F200
N6770 X-143.185 Y57.847 F800
N6775 G2 X-143.123 Y57.843 I-0.19 J-2.994
N6780 G1 X-141.911 Y57.741
N6785 G2 X-141.864 Y57.736 I-0.252 J-2.989
N6790 G1 X-140.714 Y57.621
N6795 X-139.642 Y57.514
N6800 X-138.649 Y57.435
N6805 X-138.206 Y57.412
N6810 X-137.772 Y57.401
N6815 X-137.356 Y57.402
N6820 X-136.956 Y57.418
N6825 X-136.569 Y57.449
N6830 X-136.192 Y57.495
N6835 X-135.834 Y57.555
N6840 X-135.486 Y57.629
N6845 X-135.139 Y57.718
N6850 X-134.783 Y57.823
N6855 X-134.415 Y57.944
N6860 X-134.037 Y58.078
N6865 X-133.17 Y58.411
N6870 X-132.212 Y58.792
N6875 G2 X-132.187 Y58.802 I1.108 J-2.788
N6880 G1 X-131.1 Y59.222
N6885 G2 X-131.035 Y59.247 I1.083 J-2.798
N6890 G1 X-129.805 Y59.69
N6895 G2 X-129.74 Y59.713 I1.018 J-2.822
N6900 G1 X-129.063 Y59.94
N6905 G2 X-129.013 Y59.956 I0.953 J-2.845
N6910 G1 X-128.292 Y60.184
N6915 G2 X-128.24 Y60.199 I0.903 J-2.861
N6920 G1 X-127.472 Y60.427
N6925 G2 X-127.415 Y60.443 I0.851 J-2.877
N6930 G1 X-126.595 Y60.668
N6935 G2 X-126.539 Y60.683 I0.794 J-2.893
N6940 G1 X-125.666 Y60.905
N6945 G2 X-125.608 Y60.919 I0.738 J-2.908
N6950 G1 X-124.679 Y61.135
N6955 G2 X-124.621 Y61.148 I0.68 J-2.922
N6960 G1 X-123.632 Y61.358
N6965 G2 X-123.574 Y61.369 I0.622 J-2.935
N6970 G1 X-122.523 Y61.57
N6975 G2 X-122.465 Y61.581 I0.564 J-2.946
N6980 G1 X-121.348 Y61.772
N6985 G2 X-121.292 Y61.781 I0.506 J-2.957
N6990 G1 X-120.1 Y61.962
N6995 G2 X-120.045 Y61.97 I0.45 J-2.966
N7000 G1 X-118.767 Y62.14
N7005 G2 X-118.711 Y62.147 I0.395 J-2.974
N7010 G1 X-117.35 Y62.302
N7015 G2 X-117.295 Y62.307 I0.339 J-2.981
N7020 G1 X-115.858 Y62.444
N7025 G2 X-115.801 Y62.449 I0.284 J-2.987
N7030 G1 X-114.292 Y62.563
N7035 G2 X-114.234 Y62.567 I0.227 J-2.991
N7040 G1 X-112.658 Y62.656
N7045 G2 X-112.599 Y62.659 I0.169 J-2.995
N7050 G1 X-110.963 Y62.719
N7055 G2 X-110.901 Y62.721 I0.11 J-2.998
N7060 G1 X-109.208 Y62.748
N7065 G2 X-109.144 I0.048 J-3
N7070 G1 X-107.4 Y62.739
N7075 G2 X-107.351 Y62.738 I-0.016 J-3
N7080 G1 X-106.462 Y62.719
N7085 G2 X-106.428 Y62.718 I-0.065 J-2.999
N7090 G1 X-105.528 Y62.688
N7095 G2 X-105.493 Y62.687 I-0.099 J-2.998
N7100 G1 X-104.586 Y62.646
N7105 G2 X-104.551 Y62.644 I-0.134 J-2.997
N7110 G1 X-103.654 Y62.594
N7115 G2 X-103.603 Y62.59 I-0.169 J-2.995
N7120 G1 X-101.847 Y62.461
N7125 G2 X-101.783 Y62.456 I-0.22 J-2.992
N7130 G1 X-100.074 Y62.293
N7135 G2 X-100.015 Y62.287 I-0.284 J-2.987
N7140 G1 X-98.349 Y62.096
N7145 G2 X-98.297 Y62.089 I-0.343 J-2.98
N7150 G1 X-96.669 Y61.873
N7155 G2 X-96.623 Y61.867 I-0.395 J-2.974
N7160 G1 X-95.029 Y61.63
N7165 G2 X-94.991 Y61.624 I-0.44 J-2.968
N7170 G1 X-93.426 Y61.372
N7175 G2 X-93.397 Y61.367 I-0.478 J-2.962
N7180 G1 X-91.856 Y61.102
N7185 G2 X-91.836 Y61.099 I-0.507 J-2.957
N7190 G1 X-90.316 Y60.827
N7195 G2 X-90.304 Y60.825 I-0.528 J-2.953
N7200 G1 X-87.312 Y60.277
N7205 X-84.198 Y59.724
N7210 X-82.613 Y59.463
N7215 X-81.025 Y59.225
N7220 X-79.449 Y59.019
N7225 X-78.689 Y58.933
N7230 X-77.934 Y58.857
N7235 X-77.197 Y58.795
N7240 X-76.479 Y58.746
N7245 X-75.785 Y58.713
N7250 X-75.08 Y58.694
N7255 G2 X-72.159 Y55.695 I-0.079 J-2.999
N7260 G1 Y55.303
N7265 Z-2
N7270 Y47.303
N7275 Z-6 F200
N7280 Y45.864 F800
N7285 G2 X-75.31 Y42.868 I-3
N7290 G1 X-75.512 Y42.878
N7295 X-75.693 Y42.876
N7300 X-75.938 Y42.861
N7305 X-76.213 Y42.831
N7310 X-76.525 Y42.781
N7315 X-76.671 Y42.751
N7320 X-76.842 Y42.709
N7325 X-77.012 Y42.66
N7330 X-77.173 Y42.605
N7335 X-77.318 Y42.545
N7340 X-77.44 Y42.485
N7345 X-77.531 Y42.43
N7350 X-77.597 Y42.383
N7355 X-77.642 Y42.343
N7360 X-77.678 Y42.305
N7365 X-77.71 Y42.263
N7370 X-77.743 Y42.209
N7375 X-77.782 Y42.129
N7380 X-77.827 Y42.013
N7385 X-77.875 Y41.86
N7390 X-77.922 Y41.667
N7395 X-77.967 Y41.434
N7400 X-78.01 Y41.17
N7405 X-78.089 Y40.6
N7410 Y40.599
N7415 X-78.156 Y40.114
N7420 G2 X-78.172 Y40.008 I-2.972 J0.41
N7425 G1 X-78.301 Y39.268
N7430 G2 X-78.311 Y39.217 I-2.955 J0.516
N7435 G1 X-78.424 Y38.629
N7440 G2 X-78.437 Y38.566 I-2.946 J0.568
N7445 G1 X-78.591 Y37.852
N7450 G2 X-78.608 Y37.776 I-2.933 J0.631
N7455 G1 X-78.796 Y37.002
N7460 G2 X-78.81 Y36.945 I-2.916 J0.707
N7465 G1 X-79.025 Y36.127
N7470 G2 X-79.037 Y36.083 I-2.901 J0.763
N7475 G1 X-79.274 Y35.237
N7480 G2 X-79.284 Y35.202 I-2.889 J0.808
N7485 G1 X-79.535 Y34.344
N7490 G2 X-79.548 Y34.302 I-2.879 J0.843
N7495 G1 X-80.069 Y32.612
N7500 G2 X-80.083 Y32.568 I-2.867 J0.884
N7505 G1 X-80.587 Y31.018
N7510 G2 X-80.6 Y30.98 I-2.853 J0.928
N7515 G1 X-81.053 Y29.648
N7520 G2 X-81.069 Y29.601 I-2.84 J0.966
N7525 G1 X-81.531 Y28.313
N7530 G2 X-81.552 Y28.256 I-2.824 J1.012
N7535 G1 X-82.037 Y26.983
N7540 G2 X-82.064 Y26.915 I-2.803 J1.07
N7545 G1 X-82.578 Y25.662
N7550 G2 X-82.603 Y25.604 I-2.776 J1.138
N7555 G1 X-82.872 Y24.985
N7560 G2 X-82.89 Y24.944 I-2.751 J1.196
N7565 G1 X-83.168 Y24.331
N7570 G2 X-83.188 Y24.286 I-2.733 J1.238
N7575 G1 X-83.475 Y23.68
N7580 G2 X-83.498 Y23.632 I-2.712 J1.283
N7585 G1 X-83.795 Y23.032
N7590 G2 X-83.82 Y22.983 I-2.689 J1.33
N7595 G1 X-84.127 Y22.39
N7600 G2 X-84.155 Y22.337 I-2.664 J1.379
N7605 G1 X-84.473 Y21.751
N7610 G2 X-84.503 Y21.697 I-2.636 J1.432
N7615 G1 X-84.833 Y21.119
N7620 G2 X-84.866 Y21.062 I-2.606 J1.486
N7625 G1 X-85.209 Y20.491
N7630 G2 X-85.244 Y20.433 I-2.573 J1.543
N7635 G1 X-85.599 Y19.871
N7640 G2 X-85.638 Y19.811 I-2.537 J1.601
N7645 G1 X-86.006 Y19.257
N7650 G2 X-86.048 Y19.196 I-2.499 J1.661
N7655 G1 X-86.429 Y18.652
N7660 G2 X-86.474 Y18.59 I-2.457 J1.722
N7665 G1 X-86.867 Y18.059
N7670 G2 X-86.915 Y17.995 I-2.412 J1.784
N7675 G1 X-87.319 Y17.478
N7680 G2 X-87.37 Y17.414 I-2.364 J1.847
N7685 G1 X-87.787 Y16.91
N7690 G2 X-87.84 Y16.847 I-2.313 J1.911
N7695 G1 X-88.269 Y16.356
N7700 G2 X-88.326 Y16.293 I-2.259 J1.974
N7705 G1 X-88.767 Y15.816
N7710 G2 X-88.827 Y15.753 I-2.203 J2.037
N7715 G1 X-89.281 Y15.29
N7720 G2 X-89.343 Y15.228 I-2.143 J2.099
N7725 G1 X-89.81 Y14.778
N7730 G2 X-89.875 Y14.718 I-2.08 J2.162
N7735 G1 X-90.356 Y14.282
N7740 G2 X-90.423 Y14.223 I-2.015 J2.222
N7745 G1 X-90.917 Y13.801
N7750 G2 X-90.987 Y13.743 I-1.948 J2.282
N7755 G1 X-91.495 Y13.336
N7760 G2 X-91.568 Y13.279 I-1.878 J2.34
N7765 G1 X-92.09 Y12.886
N7770 G2 X-92.163 Y12.832 I-1.805 J2.396
N7775 G1 X-92.7 Y12.453
N7780 G2 X-92.776 Y12.401 I-1.731 J2.45
N7785 G1 X-93.327 Y12.036
N7790 G2 X-93.404 Y11.987 I-1.655 J2.502
N7795 G1 X-93.967 Y11.639
N7800 G2 X-94.045 Y11.592 I-1.578 J2.551
N7805 G1 X-94.617 Y11.262
N7810 G2 X-94.695 Y11.219 I-1.499 J2.599
N7815 G1 X-95.275 Y10.907
N7820 G2 X-95.353 Y10.866 I-1.421 J2.642
N7825 G1 X-95.941 Y10.572
N7830 G2 X-96.02 Y10.534 I-1.343 J2.683
N7835 G1 X-96.615 Y10.257
N7840 G2 X-96.693 Y10.223 I-1.265 J2.72
N7845 G1 X-97.296 Y9.963
N7850 G2 X-97.373 Y9.931 I-1.187 J2.755
N7855 G1 X-97.983 Y9.688
N7860 G2 X-98.059 Y9.659 I-1.11 J2.787
N7865 G1 X-98.675 Y9.433
N7870 G2 X-98.75 Y9.406 I-1.034 J2.816
N7875 G1 X-99.372 Y9.196
N7880 G2 X-99.447 Y9.172 I-0.959 J2.843
N7885 G1 X-100.075 Y8.979
N7890 G2 X-100.15 Y8.957 I-0.884 J2.867
N7895 G1 X-100.784 Y8.779
N7900 G2 X-100.855 Y8.76 I-0.809 J2.889
N7905 G1 X-101.493 Y8.598
N7910 G2 X-101.564 Y8.581 I-0.738 J2.908
N7915 G1 X-102.206 Y8.435
N7920 G2 X-102.277 Y8.419 I-0.667 J2.925
N7925 G1 X-102.924 Y8.288
N7930 G2 X-102.993 Y8.275 I-0.596 J2.94
N7935 G1 X-103.644 Y8.159
N7940 G2 X-103.711 Y8.148 I-0.527 J2.953
N7945 G1 X-104.365 Y8.046
N7950 G2 X-104.432 Y8.037 I-0.46 J2.965
N7955 G1 X-105.089 Y7.95
N7960 G2 X-105.155 Y7.942 I-0.393 J2.974
N7965 G1 X-105.815 Y7.869
N7970 G2 X-105.88 Y7.863 I-0.327 J2.982
N7975 G1 X-106.147 Y7.84
N7980 Z-2
N7985 X-106.542 Y7.805
N7990 G2 X-106.605 Y7.8 I-0.262 J2.989
N7995 G1 X-107.268 Y7.756
N8000 G2 X-107.331 Y7.753 I-0.199 J2.993
N8005 G1 X-107.996 Y7.722
N8010 G2 X-108.059 Y7.72 I-0.136 J2.997
N8015 G1 X-108.725 Y7.704
N8020 G2 X-108.785 Y7.703 I-0.073 J2.999
N8025 G1 X-109.451 Y7.7
N8030 G2 X-109.512 Y7.701 I-0.013 J3
N8035 G1 X-110.178 Y7.711
N8040 G2 X-110.237 Y7.713 I0.048 J3
N8045 G1 X-110.902 Y7.737
N8050 G2 X-110.961 Y7.739 I0.107 J2.998
N8055 G1 X-111.625 Y7.776
N8060 G2 X-111.683 Y7.78 I0.166 J2.995
N8065 G1 X-112.346 Y7.83
N8070 G2 X-112.404 Y7.835 I0.224 J2.992
N8075 G1 X-113.065 Y7.897
N8080 G2 X-113.122 Y7.903 I0.282 J2.987
N8085 G1 X-113.781 Y7.978
N8090 G2 X-113.838 Y7.985 I0.339 J2.981
N8095 G1 X-114.146 Y8.026
N8100 Z-6 F200
N8105 X-114.493 Y8.072 F800
N8110 G2 X-114.549 Y8.08 I0.396 J2.974
N8115 G1 X-115.203 Y8.18
N8120 G2 X-115.259 Y8.189 I0.452 J2.966
N8125 G1 X-115.911 Y8.301
N8130 G2 X-115.967 Y8.311 I0.508 J2.957
N8135 G1 X-116.619 Y8.436
N8140 G2 X-116.675 Y8.447 I0.564 J2.947
N8145 G1 X-117.326 Y8.584
N8150 G2 X-117.382 Y8.597 I0.62 J2.935
N8155 G1 X-118.031 Y8.747
N8160 G2 X-118.087 Y8.76 I0.676 J2.923
N8165 G1 X-118.734 Y8.923
N8170 G2 X-118.79 Y8.938 I0.732 J2.909
N8175 G1 X-119.434 Y9.113
N8180 G2 X-119.491 Y9.129 I0.788 J2.895
N8185 G1 X-120.132 Y9.317
N8190 G2 X-120.187 Y9.334 I0.845 J2.879
N8195 G1 X-120.825 Y9.535
N8200 G2 X-120.884 Y9.554 I0.9 J2.862
N8205 G1 X-121.517 Y9.767
N8210 G2 X-121.573 Y9.787 I0.959 J2.843
N8215 G1 X-122.202 Y10.013
N8220 G2 X-122.261 Y10.035 I1.015 J2.823
N8225 G1 X-122.884 Y10.274
N8230 G2 X-122.942 Y10.297 I1.074 J2.801
N8235 G1 X-123.56 Y10.548
N8240 G2 X-123.616 Y10.572 I1.132 J2.778
N8245 G1 X-124.229 Y10.836
N8250 G2 X-124.291 Y10.864 I1.188 J2.755
N8255 G1 X-124.896 Y11.141
N8260 G2 X-124.953 Y11.168 I1.25 J2.727
N8265 G1 X-125.552 Y11.458
N8270 G2 X-125.611 Y11.487 I1.307 J2.7
N8275 G1 X-126.203 Y11.79
N8280 G2 X-126.265 Y11.822 I1.366 J2.671
N8285 G1 X-126.848 Y12.138
N8290 G2 X-126.907 Y12.171 I1.428 J2.638
N8295 G1 X-127.482 Y12.499
N8300 G2 X-127.543 Y12.535 I1.487 J2.605
N8305 G1 X-128.108 Y12.875
N8310 G2 X-128.167 Y12.912 I1.548 J2.57
N8315 G1 X-128.713 Y13.258
N8320 G2 X-128.773 Y13.297 I1.607 J2.533
N8325 G1 X-129.298 Y13.648
N8330 G2 X-129.358 Y13.689 I1.667 J2.494
N8335 G1 X-129.862 Y14.043
N8340 G2 X-129.916 Y14.083 I1.727 J2.453
N8345 G1 X-130.401 Y14.44
N8350 G2 X-130.458 Y14.484 I1.781 J2.414
N8355 G1 X-130.923 Y14.844
N8360 G2 X-130.975 Y14.885 I1.838 J2.371
N8365 G1 X-131.422 Y15.248
N8370 G2 X-131.475 Y15.292 I1.89 J2.33
N8375 G1 X-131.903 Y15.656
N8380 G2 X-131.954 Y15.7 I1.943 J2.286
N8385 G1 X-132.364 Y16.065
N8390 G2 X-132.412 Y16.108 I1.994 J2.241
N8395 G1 X-132.805 Y16.473
N8400 G2 X-132.852 Y16.518 I2.042 J2.198
N8405 G1 X-133.228 Y16.883
N8410 G2 X-133.274 Y16.929 I2.089 J2.153
N8415 G1 X-133.633 Y17.293
N8420 G2 X-133.674 Y17.334 I2.135 J2.107
N8425 G1 X-134.018 Y17.697
N8430 G2 X-134.078 Y17.762 I2.176 J2.066
N8435 G1 X-134.72 Y18.48
N8440 G2 X-134.795 Y18.568 I2.236 J2
N8445 G1 X-135.378 Y19.272
N8450 G2 X-135.442 Y19.352 I2.311 J1.912
N8455 G1 X-135.972 Y20.039
N8460 G2 X-136.028 Y20.114 I2.375 J1.833
N8465 G1 X-136.521 Y20.796
N8470 G2 X-136.576 Y20.874 I2.431 J1.757
N8475 G1 X-137.046 Y21.569
N8480 G2 X-137.09 Y21.637 I2.486 J1.68
N8485 G1 X-137.543 Y22.348
N8490 G2 X-137.585 Y22.416 I2.53 J1.612
N8495 G1 X-138.022 Y23.144
N8500 G2 X-138.058 Y23.205 I2.572 J1.544
N8505 G1 X-138.483 Y23.952
N8510 G2 X-138.514 Y24.009 I2.608 J1.483
N8515 G1 X-138.929 Y24.777
N8520 G2 X-138.955 Y24.825 I2.639 J1.426
N8525 G1 X-139.364 Y25.616
N8530 G2 X-139.385 Y25.657 I2.665 J1.378
N8535 G1 X-139.791 Y26.473
N8540 G2 X-139.809 Y26.51 I2.686 J1.337
N8545 G1 X-140.214 Y27.352
N8550 G2 X-140.226 Y27.379 I2.704 J1.3
N8555 G1 X-140.634 Y28.249
N8560 G2 X-140.643 Y28.268 I2.716 J1.273
N8565 G1 X-141.057 Y29.167
N8570 G2 X-141.062 Y29.177 I2.725 J1.255
N8575 G1 X-141.476 Y30.085
N8580 G2 X-141.481 Y30.097 I2.73 J1.245
N8585 G1 X-141.891 Y31.008
N8590 G2 X-141.901 Y31.029 I2.735 J1.232
N8595 G1 X-142.304 Y31.942
N8600 G2 X-142.318 Y31.975 I2.745 J1.211
N8605 G1 X-142.71 Y32.892
N8610 G2 X-142.727 Y32.934 I2.759 J1.178
N8615 G1 X-143.105 Y33.857
N8620 G2 X-143.126 Y33.908 I2.776 J1.137
N8625 G1 X-143.487 Y34.837
N8630 G2 X-143.509 Y34.898 I2.797 J1.086
N8635 G1 X-143.85 Y35.835
N8640 G2 X-143.877 Y35.911 I2.819 J1.026
N8645 G1 X-144.228 Y36.963
N8650 G2 X-144.245 Y37.017 I2.846 J0.95
N8655 G1 X-144.646 Y38.3
N8660 G2 X-144.661 Y38.348 I2.863 J0.895
N8665 G1 X-145.047 Y39.659
N8670 G2 X-145.064 Y39.719 I2.878 J0.847
N8675 G1 X-145.371 Y40.847
N8680 G2 X-145.393 Y40.936 I2.895 J0.787
N8685 G1 X-145.496 Y41.365
N8690 G2 X-145.524 Y41.495 I2.917 J0.699
N8695 G1 X-145.583 Y41.8
N8700 G2 X-145.63 Y42.148 I2.945 J0.57
N8705 G1 X-145.644 Y42.336
N8710 G2 X-145.639 Y42.832 I2.992 J0.222
N8715 G1 X-145.624 Y42.996
N8720 G2 X-145.581 Y43.3 I2.988 J-0.274
N8725 G3 X-146.054 Y44.004 I-0.589 J0.116
N8730 G1 X-146.643 Y44.119
N8735 X-146.735 Y44.137 Z-5.993
N8740 X-146.825 Y44.155 Z-5.971
N8745 X-146.91 Y44.172 Z-5.935
N8750 X-146.989 Y44.187 Z-5.885
N8755 X-147.059 Y44.201 Z-5.824
N8760 X-147.119 Y44.213 Z-5.753
N8765 X-147.168 Y44.222 Z-5.672
N8770 X-147.203 Y44.229 Z-5.585
N8775 X-147.224 Y44.233 Z-5.494
N8780 X-147.232 Y44.235 Z-5.4
N8785 G0 Z5
N8790 X-147.463 Y43.057
N8795 G1 Z-2 F200
N8800 Z-8.4
N8805 X-147.455 Y43.056 Z-8.494
N8810 X-147.434 Y43.052 Z-8.585
N8815 X-147.399 Y43.045 Z-8.672
N8820 X-147.35 Y43.035 Z-8.753
N8825 X-147.29 Y43.024 Z-8.824
N8830 X-147.22 Y43.01 Z-8.885
N8835 X-147.141 Y42.994 Z-8.935
N8840 X-147.056 Y42.978 Z-8.971
N8845 X-146.966 Y42.96 Z-8.993
N8850 X-146.874 Y42.942 Z-9
N8855 X-146.285 Y42.826 F800
N8860 G3 X-145.581 Y43.3 I0.116 J0.589
N8865 G2 X-145.536 Y43.494 I2.944 J-0.578
N8870 G1 X-145.493 Y43.656
N8875 G2 X-145.363 Y44.038 I2.899 J-0.772
N8880 G1 X-145.291 Y44.211
N8885 G2 X-145.202 Y44.405 I2.769 J-1.155
N8890 G1 X-145.002 Y44.801
N8895 X-144.808 Y45.211
N8900 X-144.754 Y45.344
N8905 X-144.706 Y45.48
N8910 X-144.671 Y45.608
N8915 X-144.668 Y45.625
N8920 X-144.698 Y45.633
N8925 X-144.875 Y45.664
N8930 X-145.088 Y45.688
N8935 X-145.327 Y45.702
N8940 X-145.572 Y45.706
N8945 X-146.171 Y45.691
N8950 X-146.773 Y45.658
N8955 G2 X-146.819 Y45.656 I-0.162 J2.996
N8960 G1 X-147.384 Y45.634
N8965 G2 X-147.616 I-0.116 J2.998
N8970 G1 X-148.181 Y45.656
N8975 G2 X-148.227 Y45.658 I0.116 J2.998
N8980 G1 X-148.829 Y45.691
N8985 X-149.428 Y45.706
N8990 X-149.673 Y45.702
N8995 X-149.912 Y45.688
N9000 X-150.125 Y45.664
N9005 X-150.302 Y45.633
N9010 X-150.332 Y45.625
N9015 X-150.329 Y45.608
N9020 X-150.294 Y45.48
N9025 X-150.246 Y45.344
N9030 X-150.192 Y45.211
N9035 X-149.998 Y44.801
N9040 X-149.798 Y44.405
N9045 G2 X-149.709 Y44.211 I-2.68 J-1.348
N9050 G1 X-149.637 Y44.038
N9055 G2 X-149.507 Y43.656 I-2.769 J-1.155
N9060 G1 X-149.464 Y43.494
N9065 G2 X-149.376 Y42.996 I-2.899 J-0.772
N9070 G1 X-149.361 Y42.832
N9075 G2 X-149.356 Y42.336 I-2.988 J-0.274
N9080 G1 X-149.37 Y42.148
N9085 G2 X-149.417 Y41.8 I-2.992 J0.222
N9090 G1 X-149.476 Y41.495
N9095 G2 X-149.504 Y41.365 I-2.945 J0.57
N9100 G1 X-149.607 Y40.936
N9105 G2 X-149.629 Y40.847 I-2.917 J0.699
N9110 G1 X-149.936 Y39.719
N9115 G2 X-149.953 Y39.659 I-2.895 J0.787
N9120 G1 X-150.339 Y38.348
N9125 G2 X-150.354 Y38.3 I-2.878 J0.847
N9130 G1 X-150.755 Y37.017
N9135 G2 X-150.772 Y36.963 I-2.863 J0.895
N9140 G1 X-151.123 Y35.911
N9145 G2 X-151.15 Y35.835 I-2.846 J0.95
N9150 G1 X-151.491 Y34.898
N9155 G2 X-151.513 Y34.837 I-2.819 J1.026
N9160 G1 X-151.874 Y33.908
N9165 G2 X-151.895 Y33.857 I-2.797 J1.086
N9170 G1 X-152.273 Y32.934
N9175 G2 X-152.29 Y32.892 I-2.776 J1.137
N9180 G1 X-152.682 Y31.975
N9185 G2 X-152.696 Y31.942 I-2.759 J1.178
N9190 G1 X-153.099 Y31.029
N9195 G2 X-153.109 Y31.008 I-2.745 J1.211
N9200 G1 X-153.519 Y30.097
N9205 G2 X-153.524 Y30.085 I-2.735 J1.232
N9210 G1 X-153.938 Y29.177
N9215 G2 X-153.943 Y29.167 I-2.73 J1.245
N9220 G1 X-154.357 Y28.268
N9225 G2 X-154.366 Y28.249 I-2.725 J1.255
N9230 G1 X-154.774 Y27.379
N9235 G2 X-154.786 Y27.352 I-2.716 J1.273
N9240 G1 X-155.191 Y26.51
N9245 G2 X-155.209 Y26.473 I-2.704 J1.3
N9250 G1 X-155.615 Y25.657
N9255 G2 X-155.636 Y25.616 I-2.686 J1.337
N9260 G1 X-156.045 Y24.825
N9265 G2 X-156.071 Y24.777 I-2.665 J1.378
N9270 G1 X-156.486 Y24.009
N9275 G2 X-156.517 Y23.952 I-2.639 J1.426
N9280 G1 X-156.942 Y23.205
N9285 G2 X-156.978 Y23.144 I-2.608 J1.483
N9290 G1 X-157.415 Y22.416
N9295 G2 X-157.457 Y22.348 I-2.572 J1.544
N9300 G1 X-157.91 Y21.637
N9305 G2 X-157.954 Y21.569 I-2.53 J1.612
N9310 G1 X-158.424 Y20.874
N9315 G2 X-158.479 Y20.796 I-2.486 J1.68
N9320 G1 X-158.972 Y20.114
N9325 G2 X-159.028 Y20.039 I-2.431 J1.757
N9330 G1 X-159.558 Y19.352
N9335 G2 X-159.622 Y19.272 I-2.375 J1.833
N9340 G1 X-160.205 Y18.568
N9345 G2 X-160.28 Y18.48 I-2.311 J1.912
N9350 G1 X-160.922 Y17.762
N9355 G2 X-160.982 Y17.697 I-2.236 J2
N9360 G1 X-161.326 Y17.334
N9365 G2 X-161.367 Y17.293 I-2.176 J2.066
N9370 G1 X-161.726 Y16.929
N9375 G2 X-161.772 Y16.883 I-2.135 J2.107
N9380 G1 X-162.148 Y16.518
N9385 G2 X-162.195 Y16.473 I-2.089 J2.153
N9390 G1 X-162.588 Y16.108
N9395 G2 X-162.636 Y16.065 I-2.042 J2.198
N9400 G1 X-163.046 Y15.7
N9405 G2 X-163.097 Y15.656 I-1.994 J2.241
N9410 G1 X-163.525 Y15.292
N9415 G2 X-163.578 Y15.248 I-1.943 J2.286
N9420 G1 X-164.025 Y14.885
N9425 G2 X-164.077 Y14.844 I-1.89 J2.33
N9430 G1 X-164.542 Y14.484
N9435 G2 X-164.599 Y14.44 I-1.838 J2.371
N9440 G1 X-165.084 Y14.083
N9445 G2 X-165.138 Y14.043 I-1.781 J2.414
N9450 G1 X-165.642 Y13.689
N9455 G2 X-165.702 Y13.648 I-1.727 J2.453
N9460 G1 X-166.227 Y13.297
N9465 G2 X-166.287 Y13.258 I-1.667 J2.494
N9470 G1 X-166.833 Y12.912
N9475 G2 X-166.892 Y12.875 I-1.607 J2.533
N9480 G1 X-167.457 Y12.535
N9485 G2 X-167.518 Y12.499 I-1.548 J2.57
N9490 G1 X-168.093 Y12.171
N9495 G2 X-168.152 Y12.138 I-1.487 J2.605
N9500 G1 X-168.735 Y11.822
N9505 G2 X-168.797 Y11.79 I-1.428 J2.638
N9510 G1 X-169.389 Y11.487
N9515 G2 X-169.448 Y11.458 I-1.366 J2.671
N9520 G1 X-170.047 Y11.168
N9525 G2 X-170.104 Y11.141 I-1.307 J2.7
N9530 G1 X-170.709 Y10.864
N9535 G2 X-170.771 Y10.836 I-1.25 J2.727
N9540 G1 X-171.384 Y10.572
N9545 G2 X-171.44 Y10.548 I-1.188 J2.755
N9550 G1 X-172.058 Y10.297
N9555 G2 X-172.116 Y10.274 I-1.132 J2.778
N9560 G1 X-172.739 Y10.035
N9565 G2 X-172.798 Y10.013 I-1.074 J2.801
N9570 G1 X-173.427 Y9.787
N9575 G2 X-173.483 Y9.767 I-1.015 J2.823
N9580 G1 X-174.116 Y9.554
N9585 G2 X-174.175 Y9.535 I-0.959 J2.843
N9590 G1 X-174.813 Y9.334
N9595 G2 X-174.868 Y9.317 I-0.9 J2.862
N9600 G1 X-175.509 Y9.129
N9605 G2 X-175.566 Y9.113 I-0.845 J2.879
N9610 G1 X-176.21 Y8.938
N9615 G2 X-176.266 Y8.923 I-0.788 J2.895
N9620 G1 X-176.913 Y8.76
N9625 G2 X-176.969 Y8.747 I-0.732 J2.909
N9630 G1 X-177.618 Y8.597
N9635 G2 X-177.674 Y8.584 I-0.676 J2.923
N9640 G1 X-178.325 Y8.447
N9645 G2 X-178.381 Y8.436 I-0.62 J2.935
N9650 G1 X-179.033 Y8.311
N9655 G2 X-179.089 Y8.301 I-0.564 J2.947
N9660 G1 X-179.741 Y8.189
N9665 G2 X-179.797 Y8.18 I-0.508 J2.957
N9670 G1 X-180.451 Y8.08
N9675 G2 X-180.507 Y8.072 I-0.452 J2.966
N9680 G1 X-181.162 Y7.985
N9685 G2 X-181.219 Y7.978 I-0.396 J2.974
N9690 G1 X-181.878 Y7.903
N9695 G2 X-181.935 Y7.897 I-0.339 J2.981
N9700 G1 X-182.394 Y7.854
N9705 Z-2
N9710 X-182.596 Y7.835
N9715 G2 X-182.654 Y7.83 I-0.282 J2.987
N9720 G1 X-183.317 Y7.78
N9725 G2 X-183.375 Y7.776 I-0.224 J2.992
N9730 G1 X-184.039 Y7.739
N9735 G2 X-184.098 Y7.737 I-0.166 J2.995
N9740 G1 X-184.763 Y7.713
N9745 G2 X-184.822 Y7.711 I-0.107 J2.998
N9750 G1 X-185.488 Y7.701
N9755 G2 X-185.549 Y7.7 I-0.048 J3
N9760 G1 X-186.215 Y7.703
N9765 G2 X-186.275 Y7.704 I0.013 J3
N9770 G1 X-186.941 Y7.72
N9775 G2 X-187.004 Y7.722 I0.073 J2.999
N9780 G1 X-187.669 Y7.753
N9785 G2 X-187.732 Y7.756 I0.136 J2.997
N9790 G1 X-188.395 Y7.8
N9795 G2 X-188.458 Y7.805 I0.199 J2.993
N9800 G1 X-189.12 Y7.863
N9805 G2 X-189.185 Y7.869 I0.262 J2.989
N9810 G1 X-189.845 Y7.942
N9815 G2 X-189.911 Y7.95 I0.327 J2.982
N9820 G1 X-190.393 Y8.013
N9825 Z-9 F200
N9830 X-190.568 Y8.037 F800
N9835 G2 X-190.635 Y8.046 I0.393 J2.974
N9840 G1 X-191.289 Y8.148
N9845 G2 X-191.356 Y8.159 I0.46 J2.965
N9850 G1 X-192.007 Y8.275
N9855 G2 X-192.076 Y8.288 I0.527 J2.953
N9860 G1 X-192.723 Y8.419
N9865 G2 X-192.794 Y8.435 I0.596 J2.94
N9870 G1 X-193.436 Y8.581
N9875 G2 X-193.507 Y8.598 I0.667 J2.925
N9880 G1 X-194.145 Y8.76
N9885 G2 X-194.216 Y8.779 I0.738 J2.908
N9890 G1 X-194.85 Y8.957
N9895 G2 X-194.925 Y8.979 I0.809 J2.889
N9900 G1 X-195.553 Y9.172
N9905 G2 X-195.628 Y9.196 I0.884 J2.867
N9910 G1 X-196.25 Y9.406
N9915 G2 X-196.326 Y9.433 I0.959 J2.843
N9920 G1 X-196.942 Y9.659
N9925 G2 X-197.017 Y9.688 I1.035 J2.816
N9930 G1 X-197.627 Y9.931
N9935 G2 X-197.704 Y9.963 I1.11 J2.787
N9940 G1 X-198.307 Y10.223
N9945 G2 X-198.384 Y10.257 I1.187 J2.755
N9950 G1 X-198.98 Y10.534
N9955 G2 X-199.059 Y10.572 I1.264 J2.721
N9960 G1 X-199.647 Y10.867
N9965 G2 X-199.725 Y10.907 I1.343 J2.683
N9970 G1 X-200.305 Y11.219
N9975 G2 X-200.384 Y11.263 I1.421 J2.642
N9980 G1 X-200.955 Y11.593
N9985 G2 X-201.032 Y11.639 I1.5 J2.598
N9990 G1 X-201.595 Y11.987
N9995 G2 X-201.673 Y12.037 I1.577 J2.552
N10000 G1 X-202.224 Y12.401
N10005 G2 X-202.301 Y12.454 I1.655 J2.502
N10010 G1 X-202.837 Y12.833
N10015 G2 X-202.91 Y12.886 I1.732 J2.45
N10020 G1 X-203.432 Y13.279
N10025 G2 X-203.504 Y13.335 I1.805 J2.396
N10030 G1 X-204.012 Y13.743
N10035 G2 X-204.083 Y13.801 I1.877 J2.34
N10040 G1 X-204.577 Y14.222
N10045 G2 X-204.645 Y14.283 I1.948 J2.282
N10050 G1 X-205.125 Y14.718
N10055 G2 X-205.189 Y14.779 I2.016 J2.222
N10060 G1 X-205.656 Y15.228
N10065 G2 X-205.719 Y15.29 I2.08 J2.161
N10070 G1 X-206.173 Y15.753
N10075 G2 X-206.231 Y15.814 I2.143 J2.099
N10080 G1 X-206.673 Y16.291
N10085 G2 X-206.733 Y16.358 I2.201 J2.039
N10090 G1 X-207.161 Y16.849
N10095 G2 X-207.212 Y16.909 I2.261 J1.972
N10100 G1 X-207.629 Y17.413
N10105 G2 X-207.682 Y17.479 I2.312 J1.912
N10110 G1 X-208.086 Y17.997
N10115 G2 X-208.133 Y18.058 I2.365 J1.846
N10120 G1 X-208.526 Y18.589
N10125 G2 X-208.569 Y18.65 I2.412 J1.784
N10130 G1 X-208.951 Y19.194
N10135 G2 X-208.995 Y19.257 I2.455 J1.724
N10140 G1 X-209.363 Y19.811
N10145 G2 X-209.401 Y19.87 I2.499 J1.661
N10150 G1 X-209.756 Y20.432
N10155 G2 X-209.792 Y20.492 I2.537 J1.602
N10160 G1 X-210.134 Y21.062
N10165 G2 X-210.169 Y21.121 I2.573 J1.542
N10170 G1 X-210.498 Y21.7
N10175 G2 X-210.525 Y21.749 I2.608 J1.483
N10180 G1 X-210.844 Y22.335
N10185 G2 X-210.873 Y22.39 I2.635 J1.434
N10190 G1 X-211.18 Y22.984
N10195 G2 X-211.205 Y23.031 I2.664 J1.379
N10200 G1 X-211.502 Y23.631
N10205 G2 X-211.525 Y23.679 I2.689 J1.331
N10210 G1 X-211.812 Y24.286
N10215 G2 X-211.834 Y24.333 I2.712 J1.283
N10220 G1 X-212.111 Y24.946
N10225 G2 X-212.128 Y24.985 I2.734 J1.236
N10230 G1 X-212.397 Y25.604
N10235 G2 X-212.422 Y25.662 I2.751 J1.197
N10240 G1 X-212.936 Y26.915
N10245 G2 X-212.963 Y26.984 I2.776 J1.139
N10250 G1 X-213.448 Y28.256
N10255 G2 X-213.469 Y28.312 I2.803 J1.069
N10260 G1 X-213.931 Y29.601
N10265 G2 X-213.947 Y29.648 I2.824 J1.013
N10270 G1 X-214.4 Y30.981
N10275 G2 X-214.413 Y31.019 I2.84 J0.965
N10280 G1 X-214.917 Y32.569
N10285 G2 X-214.93 Y32.611 I2.853 J0.928
N10290 G1 X-215.452 Y34.302
N10295 G2 X-215.465 Y34.345 I2.866 J0.885
N10300 G1 X-215.716 Y35.203
N10305 G2 X-215.726 Y35.236 I2.879 J0.842
N10310 G1 X-215.963 Y36.082
N10315 G2 X-215.975 Y36.128 I2.889 J0.809
N10320 G1 X-216.19 Y36.946
N10325 G2 X-216.205 Y37.004 I2.901 J0.763
N10330 G1 X-216.392 Y37.778
N10335 G2 X-216.409 Y37.85 I2.916 J0.705
N10340 G1 X-216.563 Y38.564
N10345 G2 X-216.576 Y38.631 I2.933 J0.633
N10350 G1 X-216.689 Y39.219
N10355 G2 X-216.698 Y39.269 I2.946 J0.566
N10360 G1 X-216.827 Y40.008
N10365 G2 X-216.844 Y40.113 I2.955 J0.516
N10370 G1 X-216.911 Y40.598
N10375 X-216.99 Y41.17
N10380 X-217.033 Y41.437
N10385 X-217.078 Y41.667
N10390 X-217.125 Y41.858
N10395 X-217.172 Y42.012
N10400 X-217.218 Y42.129
N10405 X-217.256 Y42.208
N10410 X-217.289 Y42.261
N10415 X-217.324 Y42.307
N10420 X-217.359 Y42.345
N10425 X-217.404 Y42.384
N10430 X-217.469 Y42.431
N10435 X-217.559 Y42.484
N10440 X-217.682 Y42.545
N10445 X-217.828 Y42.605
N10450 X-217.988 Y42.66
N10455 X-218.158 Y42.709
N10460 X-218.328 Y42.751
N10465 X-218.475 Y42.781
N10470 X-218.787 Y42.831
N10475 X-219.062 Y42.861
N10480 X-219.307 Y42.876
N10485 X-219.488 Y42.878
N10490 X-219.689 Y42.868
N10495 G2 X-222.841 Y45.864 I-0.152 J2.996
N10500 G1 Y47.215
N10505 Z-2
N10510 Y55.215
N10515 Z-9 F200
N10520 Y55.695 F800
N10525 G2 X-219.92 Y58.694 I3
N10530 G1 X-219.216 Y58.713
N10535 X-218.521 Y58.746
N10540 X-217.803 Y58.795
N10545 X-217.066 Y58.857
N10550 X-216.311 Y58.933
N10555 X-215.551 Y59.019
N10560 X-213.975 Y59.225
N10565 X-212.388 Y59.463
N10570 X-210.802 Y59.724
N10575 X-207.689 Y60.277
N10580 X-204.696 Y60.825
N10585 G2 X-204.684 Y60.827 I0.54 J-2.951
N10590 G1 X-203.164 Y61.099
N10595 G2 X-203.143 Y61.102 I0.528 J-2.953
N10600 G1 X-201.603 Y61.367
N10605 G2 X-201.574 Y61.372 I0.507 J-2.957
N10610 G1 X-200.009 Y61.624
N10615 G2 X-199.971 Y61.63 I0.478 J-2.962
N10620 G1 X-198.376 Y61.867
N10625 G2 X-198.331 Y61.873 I0.44 J-2.968
N10630 G1 X-196.703 Y62.089
N10635 G2 X-196.651 Y62.096 I0.395 J-2.974
N10640 G1 X-194.985 Y62.287
N10645 G2 X-194.926 Y62.293 I0.343 J-2.98
N10650 G1 X-193.217 Y62.456
N10655 G2 X-193.153 Y62.461 I0.284 J-2.987
N10660 G1 X-191.397 Y62.59
N10665 G2 X-191.346 Y62.594 I0.22 J-2.992
N10670 G1 X-190.449 Y62.644
N10675 G2 X-190.414 Y62.646 I0.169 J-2.995
N10680 G1 X-189.507 Y62.687
N10685 G2 X-189.472 Y62.688 I0.134 J-2.997
N10690 G1 X-188.572 Y62.718
N10695 G2 X-188.538 Y62.719 I0.099 J-2.998
N10700 G1 X-187.649 Y62.738
N10705 G2 X-187.6 Y62.739 I0.065 J-2.999
N10710 G1 X-185.856 Y62.748
N10715 G2 X-185.792 I0.016 J-3
N10720 G1 X-184.099 Y62.721
N10725 G2 X-184.037 Y62.719 I-0.048 J-3
N10730 G1 X-182.401 Y62.659
N10735 G2 X-182.342 Y62.656 I-0.11 J-2.998
N10740 G1 X-180.766 Y62.567
N10745 G2 X-180.708 Y62.563 I-0.169 J-2.995
N10750 G1 X-179.199 Y62.449
N10755 G2 X-179.142 Y62.444 I-0.227 J-2.991
N10760 G1 X-177.705 Y62.307
N10765 G2 X-177.65 Y62.302 I-0.284 J-2.987
N10770 G1 X-176.289 Y62.147
N10775 G2 X-176.233 Y62.14 I-0.339 J-2.981
N10780 G1 X-174.955 Y61.97
N10785 G2 X-174.9 Y61.962 I-0.395 J-2.974
N10790 G1 X-173.708 Y61.781
N10795 G2 X-173.652 Y61.772 I-0.45 J-2.966
N10800 G1 X-172.535 Y61.581
N10805 G2 X-172.477 Y61.57 I-0.506 J-2.957
N10810 G1 X-171.426 Y61.369
N10815 G2 X-171.368 Y61.358 I-0.564 J-2.946
N10820 G1 X-170.379 Y61.148
N10825 G2 X-170.321 Y61.135 I-0.622 J-2.935
N10830 G1 X-169.392 Y60.919
N10835 G2 X-169.334 Y60.905 I-0.68 J-2.922
N10840 G1 X-168.461 Y60.683
N10845 G2 X-168.405 Y60.668 I-0.738 J-2.908
N10850 G1 X-167.585 Y60.443
N10855 G2 X-167.528 Y60.427 I-0.794 J-2.893
N10860 G1 X-166.76 Y60.199
N10865 G2 X-166.708 Y60.184 I-0.851 J-2.877
N10870 G1 X-165.987 Y59.956
N10875 G2 X-165.937 Y59.94 I-0.903 J-2.861
N10880 G1 X-165.26 Y59.713
N10885 G2 X-165.195 Y59.69 I-0.953 J-2.845
N10890 G1 X-163.965 Y59.247
N10895 G2 X-163.9 Y59.222 I-1.018 J-2.822
N10900 G1 X-162.813 Y58.802
N10905 G2 X-162.788 Y58.792 I-1.083 J-2.798
N10910 G1 X-161.83 Y58.411
N10915 X-160.963 Y58.078
N10920 X-160.585 Y57.944
N10925 X-160.217 Y57.823
N10930 X-159.861 Y57.718
N10935 X-159.514 Y57.629
N10940 X-159.166 Y57.555
N10945 X-158.808 Y57.495
N10950 X-158.431 Y57.449
N10955 X-158.044 Y57.418
N10960 X-157.644 Y57.402
N10965 X-157.228 Y57.401
N10970 X-156.794 Y57.412
N10975 X-156.351 Y57.435
N10980 X-155.358 Y57.514
N10985 X-154.286 Y57.621
N10990 X-153.136 Y57.736
N10995 G2 X-153.089 Y57.741 I0.299 J-2.985
N11000 G1 X-151.877 Y57.843
N11005 G2 X-151.815 Y57.847 I0.252 J-2.989
N11010 G1 X-151.607 Y57.861
N11015 Z-2
N11020 X-151.182 Y57.888
N11025 G2 X-151.129 Y57.891 I0.19 J-2.994
N11030 G1 X-150.477 Y57.92
N11035 G2 X-150.415 Y57.923 I0.137 J-2.997
N11040 G1 X-149.74 Y57.939
N11045 G2 X-149.673 Y57.94 I0.075 J-2.999
N11050 G1 X-148.977 Y57.942
N11055 G2 X-148.903 Y57.941 I0.008 J-3
N11060 G1 X-148.181 Y57.926
N11065 G2 X-148.104 Y57.923 I-0.066 J-2.999
N11070 G1 X-147.5 Y57.894
N11075 X-146.896 Y57.923
N11080 G2 X-146.819 Y57.926 I0.143 J-2.997
N11085 G1 X-146.097 Y57.941
N11090 G2 X-146.023 Y57.942 I0.066 J-2.999
N11095 G1 X-145.327 Y57.94
N11100 G2 X-145.26 Y57.939 I-0.008 J-3
N11105 G1 X-144.585 Y57.923
N11110 G2 X-144.523 Y57.92 I-0.075 J-2.999
N11115 G1 X-143.871 Y57.891
N11120 G2 X-143.818 Y57.888 I-0.137 J-2.997
N11125 G1 X-143.602 Y57.874
N11130 Z-9 F200
N11135 X-143.185 Y57.847 F800
N11140 G2 X-143.123 Y57.843 I-0.19 J-2.994
N11145 G1 X-141.911 Y57.741
N11150 G2 X-141.864 Y57.736 I-0.252 J-2.989
N11155 G1 X-140.714 Y57.621
N11160 X-139.642 Y57.514
N11165 X-138.649 Y57.435
N11170 X-138.206 Y57.412
N11175 X-137.772 Y57.401
N11180 X-137.356 Y57.402
N11185 X-136.956 Y57.418
N11190 X-136.569 Y57.449
N11195 X-136.192 Y57.495
N11200 X-135.834 Y57.555
N11205 X-135.486 Y57.629
N11210 X-135.139 Y57.718
N11215 X-134.783 Y57.823
N11220 X-134.415 Y57.944
N11225 X-134.037 Y58.078
N11230 X-133.17 Y58.411
N11235 X-132.212 Y58.792
N11240 G2 X-132.187 Y58.802 I1.108 J-2.788
N11245 G1 X-131.1 Y59.222
N11250 G2 X-131.035 Y59.247 I1.083 J-2.798
N11255 G1 X-129.805 Y59.69
N11260 G2 X-129.74 Y59.713 I1.018 J-2.822
N11265 G1 X-129.063 Y59.94
N11270 G2 X-129.013 Y59.956 I0.953 J-2.845
N11275 G1 X-128.292 Y60.184
N11280 G2 X-128.24 Y60.199 I0.903 J-2.861
N11285 G1 X-127.472 Y60.427
N11290 G2 X-127.415 Y60.443 I0.851 J-2.877
N11295 G1 X-126.595 Y60.668
N11300 G2 X-126.539 Y60.683 I0.794 J-2.893
N11305 G1 X-125.666 Y60.905
N11310 G2 X-125.608 Y60.919 I0.738 J-2.908
N11315 G1 X-124.679 Y61.135
N11320 G2 X-124.621 Y61.148 I0.68 J-2.922
N11325 G1 X-123.632 Y61.358
N11330 G2 X-123.574 Y61.369 I0.622 J-2.935
N11335 G1 X-122.523 Y61.57
N11340 G2 X-122.465 Y61.581 I0.564 J-2.946
N11345 G1 X-121.348 Y61.772
N11350 G2 X-121.292 Y61.781 I0.506 J-2.957
N11355 G1 X-120.1 Y61.962
N11360 G2 X-120.045 Y61.97 I0.45 J-2.966
N11365 G1 X-118.767 Y62.14
N11370 G2 X-118.711 Y62.147 I0.395 J-2.974
N11375 G1 X-117.35 Y62.302
N11380 G2 X-117.295 Y62.307 I0.339 J-2.981
N11385 G1 X-115.858 Y62.444
N11390 G2 X-115.801 Y62.449 I0.284 J-2.987
N11395 G1 X-114.292 Y62.563
N11400 G2 X-114.234 Y62.567 I0.227 J-2.991
N11405 G1 X-112.658 Y62.656
N11410 G2 X-112.599 Y62.659 I0.169 J-2.995
N11415 G1 X-110.963 Y62.719
N11420 G2 X-110.901 Y62.721 I0.11 J-2.998
N11425 G1 X-109.208 Y62.748
N11430 G2 X-109.144 I0.048 J-3
N11435 G1 X-107.4 Y62.739
N11440 G2 X-107.351 Y62.738 I-0.016 J-3
N11445 G1 X-106.462 Y62.719
N11450 G2 X-106.428 Y62.718 I-0.065 J-2.999
N11455 G1 X-105.528 Y62.688
N11460 G2 X-105.493 Y62.687 I-0.099 J-2.998
N11465 G1 X-104.586 Y62.646
N11470 G2 X-104.551 Y62.644 I-0.134 J-2.997
N11475 G1 X-103.654 Y62.594
N11480 G2 X-103.603 Y62.59 I-0.169 J-2.995
N11485 G1 X-101.847 Y62.461
N11490 G2 X-101.783 Y62.456 I-0.22 J-2.992
N11495 G1 X-100.074 Y62.293
N11500 G2 X-100.015 Y62.287 I-0.284 J-2.987
N11505 G1 X-98.349 Y62.096
N11510 G2 X-98.297 Y62.089 I-0.343 J-2.98
N11515 G1 X-96.669 Y61.873
N11520 G2 X-96.623 Y61.867 I-0.395 J-2.974
N11525 G1 X-95.029 Y61.63
N11530 G2 X-94.991 Y61.624 I-0.44 J-2.968
N11535 G1 X-93.426 Y61.372
N11540 G2 X-93.397 Y61.367 I-0.478 J-2.962
N11545 G1 X-91.856 Y61.102
N11550 G2 X-91.836 Y61.099 I-0.507 J-2.957
N11555 G1 X-90.316 Y60.827
N11560 G2 X-90.304 Y60.825 I-0.528 J-2.953
N11565 G1 X-87.312 Y60.277
N11570 X-84.198 Y59.724
N11575 X-82.613 Y59.463
N11580 X-81.025 Y59.225
N11585 X-79.449 Y59.019
N11590 X-78.689 Y58.933
N11595 X-77.934 Y58.857
N11600 X-77.197 Y58.795
N11605 X-76.479 Y58.746
N11610 X-75.785 Y58.713
N11615 X-75.08 Y58.694
N11620 G2 X-72.159 Y55.695 I-0.079 J-2.999
N11625 G1 Y55.303
N11630 Z-2
N11635 Y47.303
N11640 Z-9 F200
N11645 Y45.864 F800
N11650 G2 X-75.31 Y42.868 I-3
N11655 G1 X-75.512 Y42.878
N11660 X-75.693 Y42.876
N11665 X-75.938 Y42.861
N11670 X-76.213 Y42.831
N11675 X-76.525 Y42.781
N11680 X-76.671 Y42.751
N11685 X-76.842 Y42.709
N11690 X-77.012 Y42.66
N11695 X-77.173 Y42.605
N11700 X-77.318 Y42.545
N11705 X-77.44 Y42.485
N11710 X-77.531 Y42.43
N11715 X-77.597 Y42.383
N11720 X-77.642 Y42.343
N11725 X-77.678 Y42.305
N11730 X-77.71 Y42.263
N11735 X-77.743 Y42.209
N11740 X-77.782 Y42.129
N11745 X-77.827 Y42.013
N11750 X-77.875 Y41.86
N11755 X-77.922 Y41.667
N11760 X-77.967 Y41.434
N11765 X-78.01 Y41.17
N11770 X-78.089 Y40.6
N11775 Y40.599
N11780 X-78.156 Y40.114
N11785 G2 X-78.172 Y40.008 I-2.972 J0.41
N11790 G1 X-78.301 Y39.268
N11795 G2 X-78.311 Y39.217 I-2.955 J0.516
N11800 G1 X-78.424 Y38.629
N11805 G2 X-78.437 Y38.566 I-2.946 J0.568
N11810 G1 X-78.591 Y37.852
N11815 G2 X-78.608 Y37.776 I-2.933 J0.631
N11820 G1 X-78.796 Y37.002
N11825 G2 X-78.81 Y36.945 I-2.916 J0.707
N11830 G1 X-79.025 Y36.127
N11835 G2 X-79.037 Y36.083 I-2.901 J0.763
N11840 G1 X-79.274 Y35.237
N11845 G2 X-79.284 Y35.202 I-2.889 J0.808
N11850 G1 X-79.535 Y34.344
N11855 G2 X-79.548 Y34.302 I-2.879 J0.843
N11860 G1 X-80.069 Y32.612
N11865 G2 X-80.083 Y32.568 I-2.867 J0.884
N11870 G1 X-80.587 Y31.018
N11875 G2 X-80.6 Y30.98 I-2.853 J0.928
N11880 G1 X-81.053 Y29.648
N11885 G2 X-81.069 Y29.601 I-2.84 J0.966
N11890 G1 X-81.531 Y28.313
N11895 G2 X-81.552 Y28.256 I-2.824 J1.012
N11900 G1 X-82.037 Y26.983
N11905 G2 X-82.064 Y26.915 I-2.803 J1.07
N11910 G1 X-82.578 Y25.662
N11915 G2 X-82.603 Y25.604 I-2.776 J1.138
N11920 G1 X-82.872 Y24.985
N11925 G2 X-82.89 Y24.944 I-2.751 J1.196
N11930 G1 X-83.168 Y24.331
N11935 G2 X-83.188 Y24.286 I-2.733 J1.238
N11940 G1 X-83.475 Y23.68
N11945 G2 X-83.498 Y23.632 I-2.712 J1.283
N11950 G1 X-83.795 Y23.032
N11955 G2 X-83.82 Y22.983 I-2.689 J1.33
N11960 G1 X-84.127 Y22.39
N11965 G2 X-84.155 Y22.337 I-2.664 J1.379
N11970 G1 X-84.473 Y21.751
N11975 G2 X-84.503 Y21.697 I-2.636 J1.432
N11980 G1 X-84.833 Y21.119
N11985 G2 X-84.866 Y21.062 I-2.606 J1.486
N11990 G1 X-85.209 Y20.491
N11995 G2 X-85.244 Y20.433 I-2.573 J1.543
N12000 G1 X-85.599 Y19.871
N12005 G2 X-85.638 Y19.811 I-2.537 J1.601
N12010 G1 X-86.006 Y19.257
N12015 G2 X-86.048 Y19.196 I-2.499 J1.661
N12020 G1 X-86.429 Y18.652
N12025 G2 X-86.474 Y18.59 I-2.457 J1.722
N12030 G1 X-86.867 Y18.059
N12035 G2 X-86.915 Y17.995 I-2.412 J1.784
N12040 G1 X-87.319 Y17.478
N12045 G2 X-87.37 Y17.414 I-2.364 J1.847
N12050 G1 X-87.787 Y16.91
N12055 G2 X-87.84 Y16.847 I-2.313 J1.911
N12060 G1 X-88.269 Y16.356
N12065 G2 X-88.326 Y16.293 I-2.259 J1.974
N12070 G1 X-88.767 Y15.816
N12075 G2 X-88.827 Y15.753 I-2.203 J2.037
N12080 G1 X-89.281 Y15.29
N12085 G2 X-89.343 Y15.228 I-2.143 J2.099
N12090 G1 X-89.81 Y14.778
N12095 G2 X-89.875 Y14.718 I-2.08 J2.162
N12100 G1 X-90.356 Y14.282
N12105 G2 X-90.423 Y14.223 I-2.015 J2.222
N12110 G1 X-90.917 Y13.801
N12115 G2 X-90.987 Y13.743 I-1.948 J2.282
N12120 G1 X-91.495 Y13.336
N12125 G2 X-91.568 Y13.279 I-1.878 J2.34
N12130 G1 X-92.09 Y12.886
N12135 G2 X-92.163 Y12.832 I-1.805 J2.396
N12140 G1 X-92.7 Y12.453
N12145 G2 X-92.776 Y12.401 I-1.731 J2.45
N12150 G1 X-93.327 Y12.036
N12155 G2 X-93.404 Y11.987 I-1.655 J2.502
N12160 G1 X-93.967 Y11.639
N12165 G2 X-94.045 Y11.592 I-1.578 J2.551
N12170 G1 X-94.617 Y11.262
N12175 G2 X-94.695 Y11.219 I-1.499 J2.599
N12180 G1 X-95.275 Y10.907
N12185 G2 X-95.353 Y10.866 I-1.421 J2.642
N12190 G1 X-95.941 Y10.572
N12195 G2 X-96.02 Y10.534 I-1.343 J2.683
N12200 G1 X-96.615 Y10.257
N12205 G2 X-96.693 Y10.223 I-1.265 J2.72
N12210 G1 X-97.296 Y9.963
N12215 G2 X-97.373 Y9.931 I-1.187 J2.755
N12220 G1 X-97.983 Y9.688
N12225 G2 X-98.059 Y9.659 I-1.11 J2.787
N12230 G1 X-98.675 Y9.433
N12235 G2 X-98.75 Y9.406 I-1.034 J2.816
N12240 G1 X-99.372 Y9.196
N12245 G2 X-99.447 Y9.172 I-0.959 J2.843
N12250 G1 X-100.075 Y8.979
N12255 G2 X-100.15 Y8.957 I-0.884 J2.867
N12260 G1 X-100.784 Y8.779
N12265 G2 X-100.855 Y8.76 I-0.809 J2.889
N12270 G1 X-101.493 Y8.598
N12275 G2 X-101.564 Y8.581 I-0.738 J2.908
N12280 G1 X-102.206 Y8.435
N12285 G2 X-102.277 Y8.419 I-0.667 J2.925
N12290 G1 X-102.924 Y8.288
N12295 G2 X-102.993 Y8.275 I-0.596 J2.94
N12300 G1 X-103.644 Y8.159
N12305 G2 X-103.711 Y8.148 I-0.527 J2.953
N12310 G1 X-104.365 Y8.046
N12315 G2 X-104.432 Y8.037 I-0.46 J2.965
N12320 G1 X-105.089 Y7.95
N12325 G2 X-105.155 Y7.942 I-0.393 J2.974
N12330 G1 X-105.815 Y7.869
N12335 G2 X-105.88 Y7.863 I-0.327 J2.982
N12340 G1 X-106.147 Y7.84
N12345 Z-2
N12350 X-106.542 Y7.805
N12355 G2 X-106.605 Y7.8 I-0.262 J2.989
N12360 G1 X-107.268 Y7.756
N12365 G2 X-107.331 Y7.753 I-0.199 J2.993
N12370 G1 X-107.996 Y7.722
N12375 G2 X-108.059 Y7.72 I-0.136 J2.997
N12380 G1 X-108.725 Y7.704
N12385 G2 X-108.785 Y7.703 I-0.073 J2.999
N12390 G1 X-109.451 Y7.7
N12395 G2 X-109.512 Y7.701 I-0.013 J3
N12400 G1 X-110.178 Y7.711
N12405 G2 X-110.237 Y7.713 I0.048 J3
N12410 G1 X-110.902 Y7.737
N12415 G2 X-110.961 Y7.739 I0.107 J2.998
N12420 G1 X-111.625 Y7.776
N12425 G2 X-111.683 Y7.78 I0.166 J2.995
N12430 G1 X-112.346 Y7.83
N12435 G2 X-112.404 Y7.835 I0.224 J2.992
N12440 G1 X-113.065 Y7.897
N12445 G2 X-113.122 Y7.903 I0.282 J2.987
N12450 G1 X-113.781 Y7.978
N12455 G2 X-113.838 Y7.985 I0.339 J2.981
N12460 G1 X-114.146 Y8.026
N12465 Z-9 F200
N12470 X-114.493 Y8.072 F800
N12475 G2 X-114.549 Y8.08 I0.396 J2.974
N12480 G1 X-115.203 Y8.18
N12485 G2 X-115.259 Y8.189 I0.452 J2.966
N12490 G1 X-115.911 Y8.301
N12495 G2 X-115.967 Y8.311 I0.508 J2.957
N12500 G1 X-116.619 Y8.436
N12505 G2 X-116.675 Y8.447 I0.564 J2.947
N12510 G1 X-117.326 Y8.584
N12515 G2 X-117.382 Y8.597 I0.62 J2.935
N12520 G1 X-118.031 Y8.747
N12525 G2 X-118.087 Y8.76 I0.676 J2.923
N12530 G1 X-118.734 Y8.923
N12535 G2 X-118.79 Y8.938 I0.732 J2.909
N12540 G1 X-119.434 Y9.113
N12545 G2 X-119.491 Y9.129 I0.788 J2.895
N12550 G1 X-120.132 Y9.317
N12555 G2 X-120.187 Y9.334 I0.845 J2.879
N12560 G1 X-120.825 Y9.535
N12565 G2 X-120.884 Y9.554 I0.9 J2.862
N12570 G1 X-121.517 Y9.767
N12575 G2 X-121.573 Y9.787 I0.959 J2.843
N12580 G1 X-122.202 Y10.013
N12585 G2 X-122.261 Y10.035 I1.015 J2.823
N12590 G1 X-122.884 Y10.274
N12595 G2 X-122.942 Y10.297 I1.074 J2.801
N12600 G1 X-123.56 Y10.548
N12605 G2 X-123.616 Y10.572 I1.132 J2.778
N12610 G1 X-124.229 Y10.836
N12615 G2 X-124.291 Y10.864 I1.188 J2.755
N12620 G1 X-124.896 Y11.141
N12625 G2 X-124.953 Y11.168 I1.25 J2.727
N12630 G1 X-125.552 Y11.458
N12635 G2 X-125.611 Y11.487 I1.307 J2.7
N12640 G1 X-126.203 Y11.79
N12645 G2 X-126.265 Y11.822 I1.366 J2.671
N12650 G1 X-126.848 Y12.138
N12655 G2 X-126.907 Y12.171 I1.428 J2.638
N12660 G1 X-127.482 Y12.499
N12665 G2 X-127.543 Y12.535 I1.487 J2.605
N12670 G1 X-128.108 Y12.875
N12675 G2 X-128.167 Y12.912 I1.548 J2.57
N12680 G1 X-128.713 Y13.258
N12685 G2 X-128.773 Y13.297 I1.607 J2.533
N12690 G1 X-129.298 Y13.648
N12695 G2 X-129.358 Y13.689 I1.667 J2.494
N12700 G1 X-129.862 Y14.043
N12705 G2 X-129.916 Y14.083 I1.727 J2.453
N12710 G1 X-130.401 Y14.44
N12715 G2 X-130.458 Y14.484 I1.781 J2.414
N12720 G1 X-130.923 Y14.844
N12725 G2 X-130.975 Y14.885 I1.838 J2.371
N12730 G1 X-131.422 Y15.248
N12735 G2 X-131.475 Y15.292 I1.89 J2.33
N12740 G1 X-131.903 Y15.656
N12745 G2 X-131.954 Y15.7 I1.943 J2.286
N12750 G1 X-132.364 Y16.065
N12755 G2 X-132.412 Y16.108 I1.994 J2.241
N12760 G1 X-132.805 Y16.473
N12765 G2 X-132.852 Y16.518 I2.042 J2.198
N12770 G1 X-133.228 Y16.883
N12775 G2 X-133.274 Y16.929 I2.089 J2.153
N12780 G1 X-133.633 Y17.293
N12785 G2 X-133.674 Y17.334 I2.135 J2.107
N12790 G1 X-134.018 Y17.697
N12795 G2 X-134.078 Y17.762 I2.176 J2.066
N12800 G1 X-134.72 Y18.48
N12805 G2 X-134.795 Y18.568 I2.236 J2
N12810 G1 X-135.378 Y19.272
N12815 G2 X-135.442 Y19.352 I2.311 J1.912
N12820 G1 X-135.972 Y20.039
N12825 G2 X-136.028 Y20.114 I2.375 J1.833
N12830 G1 X-136.521 Y20.796
N12835 G2 X-136.576 Y20.874 I2.431 J1.757
N12840 G1 X-137.046 Y21.569
N12845 G2 X-137.09 Y21.637 I2.486 J1.68
N12850 G1 X-137.543 Y22.348
N12855 G2 X-137.585 Y22.416 I2.53 J1.612
N12860 G1 X-138.022 Y23.144
N12865 G2 X-138.058 Y23.205 I2.572 J1.544
N12870 G1 X-138.483 Y23.952
N12875 G2 X-138.514 Y24.009 I2.608 J1.483
N12880 G1 X-138.929 Y24.777
N12885 G2 X-138.955 Y24.825 I2.639 J1.426
N12890 G1 X-139.364 Y25.616
N12895 G2 X-139.385 Y25.657 I2.665 J1.378
N12900 G1 X-139.791 Y26.473
N12905 G2 X-139.809 Y26.51 I2.686 J1.337
N12910 G1 X-140.214 Y27.352
N12915 G2 X-140.226 Y27.379 I2.704 J1.3
N12920 G1 X-140.634 Y28.249
N12925 G2 X-140.643 Y28.268 I2.716 J1.273
N12930 G1 X-141.057 Y29.167
N12935 G2 X-141.062 Y29.177 I2.725 J1.255
N12940 G1 X-141.476 Y30.085
N12945 G2 X-141.481 Y30.097 I2.73 J1.245
N12950 G1 X-141.891 Y31.008
N12955 G2 X-141.901 Y31.029 I2.735 J1.232
N12960 G1 X-142.304 Y31.942
N12965 G2 X-142.318 Y31.975 I2.745 J1.211
N12970 G1 X-142.71 Y32.892
N12975 G2 X-142.727 Y32.934 I2.759 J1.178
N12980 G1 X-143.105 Y33.857
N12985 G2 X-143.126 Y33.908 I2.776 J1.137
N12990 G1 X-143.487 Y34.837
N12995 G2 X-143.509 Y34.898 I2.797 J1.086
N13000 G1 X-143.85 Y35.835
N13005 G2 X-143.877 Y35.911 I2.819 J1.026
N13010 G1 X-144.228 Y36.963
N13015 G2 X-144.245 Y37.017 I2.846 J0.95
N13020 G1 X-144.646 Y38.3
N13025 G2 X-144.661 Y38.348 I2.863 J0.895
N13030 G1 X-145.047 Y39.659
N13035 G2 X-145.064 Y39.719 I2.878 J0.847
N13040 G1 X-145.371 Y40.847
N13045 G2 X-145.393 Y40.936 I2.895 J0.787
N13050 G1 X-145.496 Y41.365
N13055 G2 X-145.524 Y41.495 I2.917 J0.699
N13060 G1 X-145.583 Y41.8
N13065 G2 X-145.63 Y42.148 I2.945 J0.57
N13070 G1 X-145.644 Y42.336
N13075 G2 X-145.639 Y42.832 I2.992 J0.222
N13080 G1 X-145.624 Y42.996
N13085 G2 X-145.581 Y43.3 I2.988 J-0.274
N13090 G3 X-146.054 Y44.004 I-0.589 J0.116
N13095 G1 X-146.643 Y44.119
N13100 X-146.735 Y44.137 Z-8.993
N13105 X-146.825 Y44.155 Z-8.971
N13110 X-146.91 Y44.172 Z-8.935
N13115 X-146.989 Y44.187 Z-8.885
N13120 X-147.059 Y44.201 Z-8.824
N13125 X-147.119 Y44.213 Z-8.753
N13130 X-147.168 Y44.222 Z-8.672
N13135 X-147.203 Y44.229 Z-8.585
N13140 X-147.224 Y44.233 Z-8.494
N13145 X-147.232 Y44.235 Z-8.4
N13150 G0 Z5
N13155 X-147.463 Y43.057
N13160 G1 Z-5 F200
N13165 Z-9.4
N13170 X-147.455 Y43.056 Z-9.494
N13175 X-147.434 Y43.052 Z-9.585
N13180 X-147.399 Y43.045 Z-9.672
N13185 X-147.35 Y43.035 Z-9.753
N13190 X-147.29 Y43.024 Z-9.824
N13195 X-147.22 Y43.01 Z-9.885
N13200 X-147.141 Y42.994 Z-9.935
N13205 X-147.056 Y42.978 Z-9.971
N13210 X-146.966 Y42.96 Z-9.993
N13215 X-146.874 Y42.942 Z-10
N13220 X-146.285 Y42.826 F800
N13225 G3 X-145.581 Y43.3 I0.116 J0.589
N13230 G2 X-145.536 Y43.494 I2.944 J-0.578
N13235 G1 X-145.493 Y43.656
N13240 G2 X-145.363 Y44.038 I2.899 J-0.772
N13245 G1 X-145.291 Y44.211
N13250 G2 X-145.202 Y44.405 I2.769 J-1.155
N13255 G1 X-145.002 Y44.801
N13260 X-144.808 Y45.211
N13265 X-144.754 Y45.344
N13270 X-144.706 Y45.48
N13275 X-144.671 Y45.608
N13280 X-144.668 Y45.625
N13285 X-144.698 Y45.633
N13290 X-144.875 Y45.664
N13295 X-145.088 Y45.688
N13300 X-145.327 Y45.702
N13305 X-145.572 Y45.706
N13310 X-146.171 Y45.691
N13315 X-146.773 Y45.658
N13320 G2 X-146.819 Y45.656 I-0.162 J2.996
N13325 G1 X-147.384 Y45.634
N13330 G2 X-147.616 I-0.116 J2.998
N13335 G1 X-148.181 Y45.656
N13340 G2 X-148.227 Y45.658 I0.116 J2.998
N13345 G1 X-148.829 Y45.691
N13350 X-149.428 Y45.706
N13355 X-149.673 Y45.702
N13360 X-149.912 Y45.688
N13365 X-150.125 Y45.664
N13370 X-150.302 Y45.633
N13375 X-150.332 Y45.625
N13380 X-150.329 Y45.608
N13385 X-150.294 Y45.48
N13390 X-150.246 Y45.344
N13395 X-150.192 Y45.211
N13400 X-149.998 Y44.801
N13405 X-149.798 Y44.405
N13410 G2 X-149.709 Y44.211 I-2.68 J-1.348
N13415 G1 X-149.637 Y44.038
N13420 G2 X-149.507 Y43.656 I-2.769 J-1.155
N13425 G1 X-149.464 Y43.494
N13430 G2 X-149.376 Y42.996 I-2.899 J-0.772
N13435 G1 X-149.361 Y42.832
N13440 G2 X-149.356 Y42.336 I-2.988 J-0.274
N13445 G1 X-149.37 Y42.148
N13450 G2 X-149.417 Y41.8 I-2.992 J0.222
N13455 G1 X-149.476 Y41.495
N13460 G2 X-149.504 Y41.365 I-2.945 J0.57
N13465 G1 X-149.607 Y40.936
N13470 G2 X-149.629 Y40.847 I-2.917 J0.699
N13475 G1 X-149.936 Y39.719
N13480 G2 X-149.953 Y39.659 I-2.895 J0.787
N13485 G1 X-150.339 Y38.348
N13490 G2 X-150.354 Y38.3 I-2.878 J0.847
N13495 G1 X-150.755 Y37.017
N13500 G2 X-150.772 Y36.963 I-2.863 J0.895
N13505 G1 X-151.123 Y35.911
N13510 G2 X-151.15 Y35.835 I-2.846 J0.95
N13515 G1 X-151.491 Y34.898
N13520 G2 X-151.513 Y34.837 I-2.819 J1.026
N13525 G1 X-151.874 Y33.908
N13530 G2 X-151.895 Y33.857 I-2.797 J1.086
N13535 G1 X-152.273 Y32.934
N13540 G2 X-152.29 Y32.892 I-2.776 J1.137
N13545 G1 X-152.682 Y31.975
N13550 G2 X-152.696 Y31.942 I-2.759 J1.178
N13555 G1 X-153.099 Y31.029
N13560 G2 X-153.109 Y31.008 I-2.745 J1.211
N13565 G1 X-153.519 Y30.097
N13570 G2 X-153.524 Y30.085 I-2.735 J1.232
N13575 G1 X-153.938 Y29.177
N13580 G2 X-153.943 Y29.167 I-2.73 J1.245
N13585 G1 X-154.357 Y28.268
N13590 G2 X-154.366 Y28.249 I-2.725 J1.255
N13595 G1 X-154.774 Y27.379
N13600 G2 X-154.786 Y27.352 I-2.716 J1.273
N13605 G1 X-155.191 Y26.51
N13610 G2 X-155.209 Y26.473 I-2.704 J1.3
N13615 G1 X-155.615 Y25.657
N13620 G2 X-155.636 Y25.616 I-2.686 J1.337
N13625 G1 X-156.045 Y24.825
N13630 G2 X-156.071 Y24.777 I-2.665 J1.378
N13635 G1 X-156.486 Y24.009
N13640 G2 X-156.517 Y23.952 I-2.639 J1.426
N13645 G1 X-156.942 Y23.205
N13650 G2 X-156.978 Y23.144 I-2.608 J1.483
N13655 G1 X-157.415 Y22.416
N13660 G2 X-157.457 Y22.348 I-2.572 J1.544
N13665 G1 X-157.91 Y21.637
N13670 G2 X-157.954 Y21.569 I-2.53 J1.612
N13675 G1 X-158.424 Y20.874
N13680 G2 X-158.479 Y20.796 I-2.486 J1.68
N13685 G1 X-158.972 Y20.114
N13690 G2 X-159.028 Y20.039 I-2.431 J1.757
N13695 G1 X-159.558 Y19.352
N13700 G2 X-159.622 Y19.272 I-2.375 J1.833
N13705 G1 X-160.205 Y18.568
N13710 G2 X-160.28 Y18.48 I-2.311 J1.912
N13715 G1 X-160.922 Y17.762
N13720 G2 X-160.982 Y17.697 I-2.236 J2
N13725 G1 X-161.326 Y17.334
N13730 G2 X-161.367 Y17.293 I-2.176 J2.066
N13735 G1 X-161.726 Y16.929
N13740 G2 X-161.772 Y16.883 I-2.135 J2.107
N13745 G1 X-162.148 Y16.518
N13750 G2 X-162.195 Y16.473 I-2.089 J2.153
N13755 G1 X-162.588 Y16.108
N13760 G2 X-162.636 Y16.065 I-2.042 J2.198
N13765 G1 X-163.046 Y15.7
N13770 G2 X-163.097 Y15.656 I-1.994 J2.241
N13775 G1 X-163.525 Y15.292
N13780 G2 X-163.578 Y15.248 I-1.943 J2.286
N13785 G1 X-164.025 Y14.885
N13790 G2 X-164.077 Y14.844 I-1.89 J2.33
N13795 G1 X-164.542 Y14.484
N13800 G2 X-164.599 Y14.44 I-1.838 J2.371
N13805 G1 X-165.084 Y14.083
N13810 G2 X-165.138 Y14.043 I-1.781 J2.414
N13815 G1 X-165.642 Y13.689
N13820 G2 X-165.702 Y13.648 I-1.727 J2.453
N13825 G1 X-166.227 Y13.297
N13830 G2 X-166.287 Y13.258 I-1.667 J2.494
N13835 G1 X-166.833 Y12.912
N13840 G2 X-166.892 Y12.875 I-1.607 J2.533
N13845 G1 X-167.457 Y12.535
N13850 G2 X-167.518 Y12.499 I-1.548 J2.57
N13855 G1 X-168.093 Y12.171
N13860 G2 X-168.152 Y12.138 I-1.487 J2.605
N13865 G1 X-168.735 Y11.822
N13870 G2 X-168.797 Y11.79 I-1.428 J2.638
N13875 G1 X-169.389 Y11.487
N13880 G2 X-169.448 Y11.458 I-1.366 J2.671
N13885 G1 X-170.047 Y11.168
N13890 G2 X-170.104 Y11.141 I-1.307 J2.7
N13895 G1 X-170.709 Y10.864
N13900 G2 X-170.771 Y10.836 I-1.25 J2.727
N13905 G1 X-171.384 Y10.572
N13910 G2 X-171.44 Y10.548 I-1.188 J2.755
N13915 G1 X-172.058 Y10.297
N13920 G2 X-172.116 Y10.274 I-1.132 J2.778
N13925 G1 X-172.739 Y10.035
N13930 G2 X-172.798 Y10.013 I-1.074 J2.801
N13935 G1 X-173.427 Y9.787
N13940 G2 X-173.483 Y9.767 I-1.015 J2.823
N13945 G1 X-174.116 Y9.554
N13950 G2 X-174.175 Y9.535 I-0.959 J2.843
N13955 G1 X-174.813 Y9.334
N13960 G2 X-174.868 Y9.317 I-0.9 J2.862
N13965 G1 X-175.509 Y9.129
N13970 G2 X-175.566 Y9.113 I-0.845 J2.879
N13975 G1 X-176.21 Y8.938
N13980 G2 X-176.266 Y8.923 I-0.788 J2.895
N13985 G1 X-176.913 Y8.76
N13990 G2 X-176.969 Y8.747 I-0.732 J2.909
N13995 G1 X-177.618 Y8.597
N14000 G2 X-177.674 Y8.584 I-0.676 J2.923
N14005 G1 X-178.325 Y8.447
N14010 G2 X-178.381 Y8.436 I-0.62 J2.935
N14015 G1 X-179.033 Y8.311
N14020 G2 X-179.089 Y8.301 I-0.564 J2.947
N14025 G1 X-179.741 Y8.189
N14030 G2 X-179.797 Y8.18 I-0.508 J2.957
N14035 G1 X-180.451 Y8.08
N14040 G2 X-180.507 Y8.072 I-0.452 J2.966
N14045 G1 X-181.162 Y7.985
N14050 G2 X-181.219 Y7.978 I-0.396 J2.974
N14055 G1 X-181.878 Y7.903
N14060 G2 X-181.935 Y7.897 I-0.339 J2.981
N14065 G1 X-182.394 Y7.854
N14070 Z-2
N14075 X-182.596 Y7.835
N14080 G2 X-182.654 Y7.83 I-0.282 J2.987
N14085 G1 X-183.317 Y7.78
N14090 G2 X-183.375 Y7.776 I-0.224 J2.992
N14095 G1 X-184.039 Y7.739
N14100 G2 X-184.098 Y7.737 I-0.166 J2.995
N14105 G1 X-184.763 Y7.713
N14110 G2 X-184.822 Y7.711 I-0.107 J2.998
N14115 G1 X-185.488 Y7.701
N14120 G2 X-185.549 Y7.7 I-0.048 J3
N14125 G1 X-186.215 Y7.703
N14130 G2 X-186.275 Y7.704 I0.013 J3
N14135 G1 X-186.941 Y7.72
N14140 G2 X-187.004 Y7.722 I0.073 J2.999
N14145 G1 X-187.669 Y7.753
N14150 G2 X-187.732 Y7.756 I0.136 J2.997
N14155 G1 X-188.395 Y7.8
N14160 G2 X-188.458 Y7.805 I0.199 J2.993
N14165 G1 X-189.12 Y7.863
N14170 G2 X-189.185 Y7.869 I0.262 J2.989
N14175 G1 X-189.845 Y7.942
N14180 G2 X-189.911 Y7.95 I0.327 J2.982
N14185 G1 X-190.393 Y8.013
N14190 Z-10 F200
N14195 X-190.568 Y8.037 F800
N14200 G2 X-190.635 Y8.046 I0.393 J2.974
N14205 G1 X-191.289 Y8.148
N14210 G2 X-191.356 Y8.159 I0.46 J2.965
N14215 G1 X-192.007 Y8.275
N14220 G2 X-192.076 Y8.288 I0.527 J2.953
N14225 G1 X-192.723 Y8.419
N14230 G2 X-192.794 Y8.435 I0.596 J2.94
N14235 G1 X-193.436 Y8.581
N14240 G2 X-193.507 Y8.598 I0.667 J2.925
N14245 G1 X-194.145 Y8.76
N14250 G2 X-194.216 Y8.779 I0.738 J2.908
N14255 G1 X-194.85 Y8.957
N14260 G2 X-194.925 Y8.979 I0.809 J2.889
N14265 G1 X-195.553 Y9.172
N14270 G2 X-195.628 Y9.196 I0.884 J2.867
N14275 G1 X-196.25 Y9.406
N14280 G2 X-196.326 Y9.433 I0.959 J2.843
N14285 G1 X-196.942 Y9.659
N14290 G2 X-197.017 Y9.688 I1.035 J2.816
N14295 G1 X-197.627 Y9.931
N14300 G2 X-197.704 Y9.963 I1.11 J2.787
N14305 G1 X-198.307 Y10.223
N14310 G2 X-198.384 Y10.257 I1.187 J2.755
N14315 G1 X-198.98 Y10.534
N14320 G2 X-199.059 Y10.572 I1.264 J2.721
N14325 G1 X-199.647 Y10.867
N14330 G2 X-199.725 Y10.907 I1.343 J2.683
N14335 G1 X-200.305 Y11.219
N14340 G2 X-200.384 Y11.263 I1.421 J2.642
N14345 G1 X-200.955 Y11.593
N14350 G2 X-201.032 Y11.639 I1.5 J2.598
N14355 G1 X-201.595 Y11.987
N14360 G2 X-201.673 Y12.037 I1.577 J2.552
N14365 G1 X-202.224 Y12.401
N14370 G2 X-202.301 Y12.454 I1.655 J2.502
N14375 G1 X-202.837 Y12.833
N14380 G2 X-202.91 Y12.886 I1.732 J2.45
N14385 G1 X-203.432 Y13.279
N14390 G2 X-203.504 Y13.335 I1.805 J2.396
N14395 G1 X-204.012 Y13.743
N14400 G2 X-204.083 Y13.801 I1.877 J2.34
N14405 G1 X-204.577 Y14.222
N14410 G2 X-204.645 Y14.283 I1.948 J2.282
N14415 G1 X-205.125 Y14.718
N14420 G2 X-205.189 Y14.779 I2.016 J2.222
N14425 G1 X-205.656 Y15.228
N14430 G2 X-205.719 Y15.29 I2.08 J2.161
N14435 G1 X-206.173 Y15.753
N14440 G2 X-206.231 Y15.814 I2.143 J2.099
N14445 G1 X-206.673 Y16.291
N14450 G2 X-206.733 Y16.358 I2.201 J2.039
N14455 G1 X-207.161 Y16.849
N14460 G2 X-207.212 Y16.909 I2.261 J1.972
N14465 G1 X-207.629 Y17.413
N14470 G2 X-207.682 Y17.479 I2.312 J1.912
N14475 G1 X-208.086 Y17.997
N14480 G2 X-208.133 Y18.058 I2.365 J1.846
N14485 G1 X-208.526 Y18.589
N14490 G2 X-208.569 Y18.65 I2.412 J1.784
N14495 G1 X-208.951 Y19.194
N14500 G2 X-208.995 Y19.257 I2.455 J1.724
N14505 G1 X-209.363 Y19.811
N14510 G2 X-209.401 Y19.87 I2.499 J1.661
N14515 G1 X-209.756 Y20.432
N14520 G2 X-209.792 Y20.492 I2.537 J1.602
N14525 G1 X-210.134 Y21.062
N14530 G2 X-210.169 Y21.121 I2.573 J1.542
N14535 G1 X-210.498 Y21.7
N14540 G2 X-210.525 Y21.749 I2.608 J1.483
N14545 G1 X-210.844 Y22.335
N14550 G2 X-210.873 Y22.39 I2.635 J1.434
N14555 G1 X-211.18 Y22.984
N14560 G2 X-211.205 Y23.031 I2.664 J1.379
N14565 G1 X-211.502 Y23.631
N14570 G2 X-211.525 Y23.679 I2.689 J1.331
N14575 G1 X-211.812 Y24.286
N14580 G2 X-211.834 Y24.333 I2.712 J1.283
N14585 G1 X-212.111 Y24.946
N14590 G2 X-212.128 Y24.985 I2.734 J1.236
N14595 G1 X-212.397 Y25.604
N14600 G2 X-212.422 Y25.662 I2.751 J1.197
N14605 G1 X-212.936 Y26.915
N14610 G2 X-212.963 Y26.984 I2.776 J1.139
N14615 G1 X-213.448 Y28.256
N14620 G2 X-213.469 Y28.312 I2.803 J1.069
N14625 G1 X-213.931 Y29.601
N14630 G2 X-213.947 Y29.648 I2.824 J1.013
N14635 G1 X-214.4 Y30.981
N14640 G2 X-214.413 Y31.019 I2.84 J0.965
N14645 G1 X-214.917 Y32.569
N14650 G2 X-214.93 Y32.611 I2.853 J0.928
N14655 G1 X-215.452 Y34.302
N14660 G2 X-215.465 Y34.345 I2.866 J0.885
N14665 G1 X-215.716 Y35.203
N14670 G2 X-215.726 Y35.236 I2.879 J0.842
N14675 G1 X-215.963 Y36.082
N14680 G2 X-215.975 Y36.128 I2.889 J0.809
N14685 G1 X-216.19 Y36.946
N14690 G2 X-216.205 Y37.004 I2.901 J0.763
N14695 G1 X-216.392 Y37.778
N14700 G2 X-216.409 Y37.85 I2.916 J0.705
N14705 G1 X-216.563 Y38.564
N14710 G2 X-216.576 Y38.631 I2.933 J0.633
N14715 G1 X-216.689 Y39.219
N14720 G2 X-216.698 Y39.269 I2.946 J0.566
N14725 G1 X-216.827 Y40.008
N14730 G2 X-216.844 Y40.113 I2.955 J0.516
N14735 G1 X-216.911 Y40.598
N14740 X-216.99 Y41.17
N14745 X-217.033 Y41.437
N14750 X-217.078 Y41.667
N14755 X-217.125 Y41.858
N14760 X-217.172 Y42.012
N14765 X-217.218 Y42.129
N14770 X-217.256 Y42.208
N14775 X-217.289 Y42.261
N14780 X-217.324 Y42.307
N14785 X-217.359 Y42.345
N14790 X-217.404 Y42.384
N14795 X-217.469 Y42.431
N14800 X-217.559 Y42.484
N14805 X-217.682 Y42.545
N14810 X-217.828 Y42.605
N14815 X-217.988 Y42.66
N14820 X-218.158 Y42.709
N14825 X-218.328 Y42.751
N14830 X-218.475 Y42.781
N14835 X-218.787 Y42.831
N14840 X-219.062 Y42.861
N14845 X-219.307 Y42.876
N14850 X-219.488 Y42.878
N14855 X-219.689 Y42.868
N14860 G2 X-222.841 Y45.864 I-0.152 J2.996
N14865 G1 Y47.215
N14870 Z-2
N14875 Y55.215
N14880 Z-10 F200
N14885 Y55.695 F800
N14890 G2 X-219.92 Y58.694 I3
N14895 G1 X-219.216 Y58.713
N14900 X-218.521 Y58.746
N14905 X-217.803 Y58.795
N14910 X-217.066 Y58.857
N14915 X-216.311 Y58.933
N14920 X-215.551 Y59.019
N14925 X-213.975 Y59.225
N14930 X-212.388 Y59.463
N14935 X-210.802 Y59.724
N14940 X-207.689 Y60.277
N14945 X-204.696 Y60.825
N14950 G2 X-204.684 Y60.827 I0.54 J-2.951
N14955 G1 X-203.164 Y61.099
N14960 G2 X-203.143 Y61.102 I0.528 J-2.953
N14965 G1 X-201.603 Y61.367
N14970 G2 X-201.574 Y61.372 I0.507 J-2.957
N14975 G1 X-200.009 Y61.624
N14980 G2 X-199.971 Y61.63 I0.478 J-2.962
N14985 G1 X-198.376 Y61.867
N14990 G2 X-198.331 Y61.873 I0.44 J-2.968
N14995 G1 X-196.703 Y62.089
N15000 G2 X-196.651 Y62.096 I0.395 J-2.974
N15005 G1 X-194.985 Y62.287
N15010 G2 X-194.926 Y62.293 I0.343 J-2.98
N15015 G1 X-193.217 Y62.456
N15020 G2 X-193.153 Y62.461 I0.284 J-2.987
N15025 G1 X-191.397 Y62.59
N15030 G2 X-191.346 Y62.594 I0.22 J-2.992
N15035 G1 X-190.449 Y62.644
N15040 G2 X-190.414 Y62.646 I0.169 J-2.995
N15045 G1 X-189.507 Y62.687
N15050 G2 X-189.472 Y62.688 I0.134 J-2.997
N15055 G1 X-188.572 Y62.718
N15060 G2 X-188.538 Y62.719 I0.099 J-2.998
N15065 G1 X-187.649 Y62.738
N15070 G2 X-187.6 Y62.739 I0.065 J-2.999
N15075 G1 X-185.856 Y62.748
N15080 G2 X-185.792 I0.016 J-3
N15085 G1 X-184.099 Y62.721
N15090 G2 X-184.037 Y62.719 I-0.048 J-3
N15095 G1 X-182.401 Y62.659
N15100 G2 X-182.342 Y62.656 I-0.11 J-2.998
N15105 G1 X-180.766 Y62.567
N15110 G2 X-180.708 Y62.563 I-0.169 J-2.995
N15115 G1 X-179.199 Y62.449
N15120 G2 X-179.142 Y62.444 I-0.227 J-2.991
N15125 G1 X-177.705 Y62.307
N15130 G2 X-177.65 Y62.302 I-0.284 J-2.987
N15135 G1 X-176.289 Y62.147
N15140 G2 X-176.233 Y62.14 I-0.339 J-2.981
N15145 G1 X-174.955 Y61.97
N15150 G2 X-174.9 Y61.962 I-0.395 J-2.974
N15155 G1 X-173.708 Y61.781
N15160 G2 X-173.652 Y61.772 I-0.45 J-2.966
N15165 G1 X-172.535 Y61.581
N15170 G2 X-172.477 Y61.57 I-0.506 J-2.957
N15175 G1 X-171.426 Y61.369
N15180 G2 X-171.368 Y61.358 I-0.564 J-2.946
N15185 G1 X-170.379 Y61.148
N15190 G2 X-170.321 Y61.135 I-0.622 J-2.935
N15195 G1 X-169.392 Y60.919
N15200 G2 X-169.334 Y60.905 I-0.68 J-2.922
N15205 G1 X-168.461 Y60.683
N15210 G2 X-168.405 Y60.668 I-0.738 J-2.908
