%
(front)
(everything)
(T1 D=6 CR=0 - ZMIN=-19 - flat end mill)
(T2 D=6 CR=0 - ZMIN=-10 - flat end mill)
N10 G90 G94
N15 G17
N20 G21
N25 M9
N30 G28

(pin holes)
N35 T1 M6
N40 T2
N45 S15000 M3
N50 G54
N55 G0 X-60.865 Y34.5
N60 G43 Z12
N65 Z5
N70 G98 G81 X-60.865 Y34.5 Z-19 R5 F200
N75 X-234.135
N80 G80
N85 G0 Z12

(frame front)
N90 X-88.524 Y29.696
N95 Z12
N100 Z-1.047
N105 G1 Z-2.465 F1000
N110 X-88.521 Y29.703 Z-2.557
N115 X-88.513 Y29.723 Z-2.647
N120 X-88.5 Y29.755 Z-2.733
N125 X-88.482 Y29.799 Z-2.812
N130 X-88.459 Y29.853 Z-2.883
N135 X-88.432 Y29.917 Z-2.944
N140 X-88.402 Y29.989 Z-2.994
N145 X-88.37 Y30.067 Z-3.031
N150 X-88.335 Y30.15 Z-3.055
N155 X-88.3 Y30.235 Z-3.065
N160 X-87.877 Y31.252 Z-3.096
N165 X-87.44 Y32.412 Z-3.129
N170 X-87.14 Y33.302 Z-3.154
N175 X-86.993 Y33.769 Z-3.167
N180 X-86.688 Y34.809 Z-3.194
N185 X-86.386 Y36.006 Z-3.224
N190 X-86.135 Y37.194 Z-3.252
N195 X-85.947 Y38.305 Z-3.277
N200 X-85.82 Y39.319 Z-3.298
N205 X-85.785 Y39.634 Z-3.304
N210 X-85.705 Y40.731 Z-3.324
N215 X-85.692 Y41.266 Z-3.334
N220 X-85.68 Y41.968 Z-3.345
N225 X-85.695 Y42.381 Z-3.352
N230 X-85.741 Y43.297 Z-3.365
N235 X-85.803 Y43.913 Z-3.373
N240 X-85.886 Y44.498 Z-3.374
N245 X-85.94 Y44.797 Z-3.369
N250 X-86.162 Y45.806 Z-3.347
N255 X-86.24 Y46.084 Z-3.339
N260 X-86.411 Y46.634 Z-3.323
N265 X-86.578 Y47.079 Z-3.308
N270 X-86.726 Y47.448 Z-3.294
N275 X-86.919 Y47.87 Z-3.277
N280 X-87.082 Y48.191 Z-3.262
N285 X-87.451 Y48.826 Z-3.231
N290 X-87.672 Y49.16 Z-3.213
N295 X-88.058 Y49.684 Z-3.182
N300 X-88.343 Y50.028 Z-3.16
N305 X-88.649 Y50.363 Z-3.137
N310 X-89.113 Y50.825 Z-3.103
N315 X-89.522 Y51.186 Z-3.073
N320 X-89.786 Y51.4 Z-3.055
N325 X-90.245 Y51.749 Z-3.023
N330 X-90.544 Y51.957 Z-3.002
N335 X-91.098 Y52.296 Z-2.965
N340 X-91.738 Y52.683 Z-2.923
N345 X-92.155 Y52.903 Z-2.896
N350 X-92.527 Y53.088 Z-2.872
N355 X-93.14 Y53.373 Z-2.833
N360 X-94.289 Y53.844 Z-2.761
N365 X-95.252 Y54.186 Z-2.702
N370 X-95.634 Y54.315 Z-2.679
N375 X-96.748 Y54.655 Z-2.612
N380 X-97.943 Y54.972 Z-2.543
N385 X-99.146 Y55.255 Z-2.474
N390 X-100.068 Y55.451 Z-2.421
N395 X-101.423 Y55.703 Z-2.346
N400 X-102.629 Y55.897 Z-2.281
N405 X-103.764 Y56.056 Z-2.22
N410 X-104.901 Y56.188 Z-2.16
N415 X-106.071 Y56.293 Z-2.099
N420 X-107.223 Y56.366 Z-2.04
N425 X-108.404 Y56.402 Z-1.981
N430 X-109.589 Y56.401 Z-1.922
N435 X-110.768 Y56.36 Z-1.865
N440 X-111.942 Y56.283 Z-1.809
N445 X-113.142 Y56.168 Z-1.752
N450 X-114.302 Y56.025 Z-1.699
N455 X-115.461 Y55.855 Z-1.647
N460 X-116.649 Y55.651 Z-1.595
N465 X-117.8 Y55.429 Z-1.546
N470 X-118.982 Y55.176 Z-1.496
N475 X-120.133 Y54.908 Z-1.45
N480 X-121.247 Y54.627 Z-1.407
N485 X-122.522 Y54.279 Z-1.359
N490 X-123.547 Y53.977 Z-1.322
N495 X-124.622 Y53.639 Z-1.283
N500 X-125.925 Y53.194 Z-1.237
N505 X-126.942 Y52.82 Z-1.202
N510 X-128.113 Y52.354 Z-1.163
N515 X-129.154 Y51.902 Z-1.128
N520 X-129.598 Y51.689 Z-1.114
N525 X-130.473 Y51.258 Z-1.086
N530 X-131.24 Y50.831 Z-1.062
N535 X-131.535 Y50.658 Z-1.053
N540 X-131.872 Y50.445 Z-1.043
N545 X-132.473 Y50.035 Z-1.024
N550 X-132.86 Y49.74 Z-1.013
N555 X-133.191 Y49.465 Z-1.003
N560 X-133.48 Y49.197 Z-0.994
N565 X-133.76 Y48.92 Z-0.985
N570 X-134.036 Y48.615 Z-0.975
N575 X-134.136 Y48.497 Z-0.972
N580 X-134.325 Y48.253 Z-0.966
N585 X-134.457 Y48.071 Z-0.962
N590 X-134.601 Y47.854 Z-0.958
N595 X-134.687 Y47.717 Z-0.955
N600 X-138.413 Y50.038 Z-0.947
N605 X-138.5 Y49.992 Z-0.945
N610 X-139.108 Y50.311 Z-0.944
N615 X-139.699 Y50.587 Z-0.942
N620 X-140.281 Y50.836
N625 X-140.924 Y51.074 Z-0.941
N630 X-141.533 Y51.268 Z-0.94
N635 X-142.122 Y51.425 Z-0.939
N640 X-142.815 Y51.575 Z-0.938
N645 X-143.423 Y51.675 Z-0.937
N650 X-144.03 Y51.747 Z-0.936
N655 X-144.96 Y51.81 Z-0.934
N660 X-145.855 Y51.822 Z-0.932
N665 X-147.171 Y51.783 Z-0.93
N670 X-147.634 Y51.78
N675 X-149.001 Y51.819 Z-0.932
N680 X-149.849 Y51.815 Z-0.933
N685 X-150.196 Y51.801 Z-0.934
N690 X-151.026 Y51.742 Z-0.936
N695 X-151.727 Y51.652 Z-0.937
N700 X-152.293 Y51.554 Z-0.938
N705 X-152.932 Y51.412 Z-0.939
N710 X-153.58 Y51.234 Z-0.94
N715 X-154.195 Y51.033 Z-0.941
N720 X-154.812 Y50.798 Z-0.942
N725 X-155.532 Y50.483 Z-0.943
N730 X-156.132 Y50.189 Z-0.944
N735 X-156.5 Y49.992 Z-0.945
N740 X-156.587 Y50.038 Z-0.947
N745 X-160.313 Y47.717 Z-0.955
N750 X-160.451 Y47.934 Z-0.959
N755 X-160.598 Y48.148 Z-0.964
N760 X-160.755 Y48.36 Z-0.969
N765 X-160.914 Y48.556 Z-0.973
N770 X-161.211 Y48.889 Z-0.984
N775 X-161.494 Y49.171 Z-0.993
N780 X-161.781 Y49.44 Z-1.002
N785 X-162.164 Y49.759 Z-1.013
N790 X-162.566 Y50.063 Z-1.026
N795 X-163.175 Y50.477 Z-1.044
N800 X-163.648 Y50.768 Z-1.059
N805 X-164.497 Y51.242 Z-1.085
N810 X-165.285 Y51.632 Z-1.11
N815 X-165.79 Y51.876 Z-1.127
N820 X-166.782 Y52.309 Z-1.159
N825 X-167.333 Y52.532 Z-1.178
N830 X-168.208 Y52.876 Z-1.207
N835 X-169.244 Y53.254 Z-1.243
N840 X-170.432 Y53.656 Z-1.285
N845 X-171.581 Y54.017 Z-1.326
N850 X-172.764 Y54.359 Z-1.37
N855 X-173.947 Y54.678 Z-1.415
N860 X-175.124 Y54.97 Z-1.46
N865 X-176.264 Y55.231 Z-1.507
N870 X-177.412 Y55.471 Z-1.555
N875 X-178.532 Y55.684 Z-1.603
N880 X-179.688 Y55.878 Z-1.654
N885 X-180.847 Y56.044 Z-1.706
N890 X-181.985 Y56.181 Z-1.758
N895 X-183.159 Y56.29 Z-1.813
N900 X-184.31 Y56.364 Z-1.868
N905 X-185.495 Y56.402 Z-1.926
N910 X-186.675 Y56.401 Z-1.985
N915 X-187.856 Y56.362 Z-2.044
N920 X-189.064 Y56.283 Z-2.106
N925 X-190.24 Y56.173 Z-2.167
N930 X-191.401 Y56.035 Z-2.229
N935 X-192.6 Y55.862 Z-2.293
N940 X-193.731 Y55.676 Z-2.355
N945 X-195.088 Y55.42 Z-2.43
N950 X-196.097 Y55.2 Z-2.487
N955 X-197.173 Y54.943 Z-2.549
N960 X-198.338 Y54.63 Z-2.617
N965 X-199.527 Y54.264 Z-2.688
N970 X-200.683 Y53.855 Z-2.759
N975 X-201.61 Y53.476 Z-2.817
N980 X-201.991 Y53.315 Z-2.841
N985 X-202.672 Y52.992 Z-2.884
N990 X-203.219 Y52.707 Z-2.92
N995 X-203.667 Y52.438 Z-2.95
N1000 X-204.427 Y51.976 Z-3
N1005 X-204.723 Y51.772 Z-3.02
N1010 X-205.153 Y51.447 Z-3.05
N1015 X-205.438 Y51.221 Z-3.07
N1020 X-205.852 Y50.856 Z-3.1
N1025 X-206.123 Y50.593 Z-3.12
N1030 X-206.455 Y50.254 Z-3.145
N1035 X-206.767 Y49.898 Z-3.169
N1040 X-206.998 Y49.612 Z-3.187
N1045 X-207.394 Y49.065 Z-3.218
N1050 X-207.602 Y48.74 Z-3.236
N1055 X-207.933 Y48.162 Z-3.264
N1060 X-208.119 Y47.79 Z-3.28
N1065 X-208.305 Y47.376 Z-3.297
N1070 X-208.55 Y46.746 Z-3.319
N1075 X-208.682 Y46.338 Z-3.332
N1080 X-208.823 Y45.868 Z-3.345
N1085 X-208.993 Y45.104 Z-3.363
N1090 X-209.087 Y44.66 Z-3.371
N1095 X-209.158 Y44.194 Z-3.376
N1100 X-209.209 Y43.79 Z-3.371
N1105 X-209.264 Y43.229 Z-3.364
N1110 X-209.317 Y42.132 Z-3.348
N1115 X-209.315 Y41.69 Z-3.341
N1120 X-209.298 Y40.801 Z-3.326
N1125 X-209.233 Y39.878 Z-3.309
N1130 X-209.203 Y39.51 Z-3.301
N1135 X-209.06 Y38.359 Z-3.278
N1140 X-208.875 Y37.247 Z-3.253
N1145 X-208.646 Y36.153 Z-3.227
N1150 X-208.564 Y35.801 Z-3.219
N1155 X-208.287 Y34.72 Z-3.192
N1160 X-207.94 Y33.546 Z-3.161
N1165 X-207.598 Y32.521 Z-3.132
N1170 X-207.387 Y31.952 Z-3.116
N1175 X-207.091 Y31.171 Z-3.093
N1180 X-206.595 Y29.988 Z-3.057
N1185 X-206.16 Y29.042 Z-3.027
N1190 X-205.981 Y28.674 Z-3.015
N1195 X-205.437 Y27.611 Z-2.978
N1200 X-205.074 Y26.96 Z-2.954
N1205 X-204.773 Y26.432 Z-2.935
N1210 X-204.081 Y25.316 Z-2.891
N1215 X-203.275 Y24.137 Z-2.84
N1220 X-202.872 Y23.591 Z-2.816
N1225 X-202.278 Y22.836 Z-2.779
N1230 X-201.642 Y22.09 Z-2.741
N1235 X-201.208 Y21.61 Z-2.714
N1240 X-200.439 Y20.824 Z-2.668
N1245 X-199.956 Y20.37 Z-2.64
N1250 X-199.193 Y19.711 Z-2.595
N1255 X-198.493 Y19.157 Z-2.554
N1260 X-197.886 Y18.717 Z-2.518
N1265 X-196.694 Y17.95 Z-2.45
N1270 X-196.358 Y17.764 Z-2.431
N1275 X-195.398 Y17.252 Z-2.377
N1280 X-194.188 Y16.714 Z-2.31
N1285 X-193.83 Y16.577 Z-2.29
N1290 X-192.843 Y16.224 Z-2.237
N1295 X-191.648 Y15.871 Z-2.174
N1300 X-190.45 Y15.584 Z-2.112
N1305 X-189.565 Y15.412 Z-2.067
N1310 X-189.057 Y15.329 Z-2.041
N1315 X-187.949 Y15.175 Z-1.985
N1320 X-186.769 Y15.056 Z-1.927
N1325 X-185.556 Y14.986 Z-1.868
N1330 X-184.36 Y14.958 Z-1.81
N1335 X-183.173 Y14.975 Z-1.755
N1340 X-181.981 Y15.034 Z-1.7
N1345 X-180.809 Y15.134 Z-1.646
N1350 X-179.605 Y15.283 Z-1.593
N1355 X-178.667 Y15.432 Z-1.551
N1360 X-178.184 Y15.524 Z-1.53
N1365 X-177.2 Y15.727 Z-1.488
N1370 X-176.036 Y16.024 Z-1.438
N1375 X-175.011 Y16.335 Z-1.395
N1380 X-174.656 Y16.45 Z-1.381
N1385 X-174.058 Y16.662 Z-1.356
N1390 X-173.487 Y16.884 Z-1.332
N1395 X-172.349 Y17.381 Z-1.286
N1400 X-171.922 Y17.595 Z-1.269
N1405 X-171.339 Y17.896 Z-1.246
N1410 X-170.962 Y18.108 Z-1.231
N1415 X-169.785 Y18.843 Z-1.185
N1420 X-169.299 Y19.183 Z-1.167
N1425 X-168.555 Y19.757 Z-1.138
N1430 X-168.121 Y20.127 Z-1.12
N1435 X-167.843 Y20.367 Z-1.11
N1440 X-167.587 Y20.607 Z-1.101
N1445 X-167.261 Y20.916 Z-1.09
N1450 X-166.996 Y21.188 Z-1.08
N1455 X-166.498 Y21.71 Z-1.061
N1460 X-165.963 Y22.325 Z-1.041
N1465 X-165.476 Y22.936 Z-1.022
N1470 X-164.731 Y23.952 Z-0.992
N1475 X-164.521 Y24.261 Z-0.984
N1480 X-163.856 Y25.309 Z-0.961
N1485 X-163.496 Y25.921 Z-0.95
N1490 X-163.157 Y26.529 Z-0.939
N1495 X-162.844 Y27.136 Z-0.929
N1500 X-162.526 Y27.758 Z-0.919
N1505 X-162.23 Y28.384 Z-0.909
N1510 X-161.939 Y29.03 Z-0.9
N1515 X-161.472 Y30.153 Z-0.885
N1520 X-161.123 Y31.078 Z-0.875
N1525 X-160.893 Y31.745 Z-0.87
N1530 X-160.633 Y32.518 Z-0.865
N1535 X-160.279 Y33.714 Z-0.859
N1540 X-159.95 Y34.965 Z-0.855
N1545 X-159.701 Y36.094 Z-0.853
N1550 X-159.483 Y37.27
N1555 X-159.315 Y38.469 Z-0.855
N1560 X-159.197 Y39.676 Z-0.859
N1565 X-159.136 Y40.774 Z-0.864
N1570 X-159.122 Y41.686 Z-0.87
N1575 X-159.12 Y42.094 Z-0.872
N1580 X-159.157 Y43.191 Z-0.883
N1585 X-159.201 Y43.712 Z-0.889
N1590 X-159.275 Y44.496 Z-0.899
N1595 X-159.348 Y44.97 Z-0.906
N1600 X-159.413 Y45.332 Z-0.912
N1605 X-159.544 Y45.88 Z-0.921
N1610 X-159.653 Y46.248 Z-0.927
N1615 X-159.769 Y46.58 Z-0.933
N1620 X-159.842 Y46.771 Z-0.936
N1625 X-159.977 Y47.083 Z-0.942
N1630 X-160.099 Y47.335 Z-0.947
N1635 X-160.213 Y47.547 Z-0.951
N1640 X-160.313 Y47.717 Z-0.955
N1645 X-156.587 Y50.038 Z-0.947
N1650 X-156.5 Y49.992 Z-0.945
N1655 X-155.949 Y50.283 Z-0.944
N1660 X-155.344 Y50.569 Z-0.943
N1665 X-154.719 Y50.836 Z-0.942
N1670 X-154.076 Y51.074 Z-0.941
N1675 X-153.461 Y51.27 Z-0.94
N1680 X-152.842 Y51.434 Z-0.939
N1685 X-152.13 Y51.585 Z-0.938
N1690 X-151.493 Y51.686 Z-0.937
N1695 X-150.9 Y51.753 Z-0.935
N1700 X-150.005 Y51.811 Z-0.934
N1705 X-149.145 Y51.822 Z-0.932
N1710 X-147.829 Y51.783 Z-0.93
N1715 X-147.232 Y51.782
N1720 X-145.855 Y51.822 Z-0.932
N1725 X-144.928 Y51.808 Z-0.934
N1730 X-143.974 Y51.742 Z-0.936
N1735 X-143.339 Y51.662 Z-0.937
N1740 X-142.736 Y51.559 Z-0.938
N1745 X-142.068 Y51.412 Z-0.939
N1750 X-141.42 Y51.234 Z-0.94
N1755 X-140.797 Y51.03 Z-0.941
N1760 X-140.162 Y50.787 Z-0.942
N1765 X-139.468 Y50.483 Z-0.943
N1770 X-138.868 Y50.189 Z-0.944
N1775 X-138.5 Y49.992 Z-0.945
N1780 X-138.413 Y50.038 Z-0.947
N1785 X-134.687 Y47.717 Z-0.955
N1790 X-134.835 Y47.459 Z-0.949
N1795 X-134.994 Y47.147 Z-0.943
N1800 X-135.138 Y46.816 Z-0.937
N1805 X-135.202 Y46.659 Z-0.934
N1810 X-135.327 Y46.311 Z-0.928
N1815 X-135.43 Y45.974 Z-0.922
N1820 X-135.54 Y45.529 Z-0.915
N1825 X-135.605 Y45.241 Z-0.91
N1830 X-135.67 Y44.859 Z-0.905
N1835 X-135.726 Y44.492 Z-0.899
N1840 X-135.834 Y43.337 Z-0.885
N1845 X-135.857 Y42.794 Z-0.879
N1850 X-135.88 Y42.094 Z-0.872
N1855 X-135.875 Y41.442 Z-0.868
N1860 X-135.864 Y40.774 Z-0.864
N1865 X-135.797 Y39.594 Z-0.859
N1870 X-135.674 Y38.381 Z-0.855
N1875 X-135.499 Y37.159 Z-0.853
N1880 X-135.276 Y35.981
N1885 X-135.024 Y34.861 Z-0.855
N1890 X-134.689 Y33.6 Z-0.859
N1895 X-134.339 Y32.43 Z-0.865
N1900 X-133.916 Y31.187 Z-0.874
N1905 X-133.528 Y30.153 Z-0.885
N1910 X-133.039 Y28.977 Z-0.9
N1915 X-132.654 Y28.132 Z-0.913
N1920 X-132.446 Y27.701 Z-0.92
N1925 X-131.863 Y26.566 Z-0.939
N1930 X-131.476 Y25.872 Z-0.951
N1935 X-131.144 Y25.309 Z-0.961
N1940 X-130.447 Y24.211 Z-0.985
N1945 X-130.202 Y23.859 Z-0.995
N1950 X-129.495 Y22.898 Z-1.023
N1955 X-129 Y22.28 Z-1.042
N1960 X-128.424 Y21.625 Z-1.064
N1965 X-127.795 Y20.972 Z-1.088
N1970 X-127.502 Y20.691 Z-1.098
N1975 X-127.244 Y20.446 Z-1.107
N1980 X-127.003 Y20.235 Z-1.115
N1985 X-126.484 Y19.789 Z-1.136
N1990 X-125.701 Y19.183 Z-1.167
N1995 X-125.215 Y18.843 Z-1.185
N2000 X-124.038 Y18.108 Z-1.231
N2005 X-123.581 Y17.853 Z-1.249
N2010 X-122.729 Y17.417 Z-1.283
N2015 X-122.02 Y17.105 Z-1.312
N2020 X-121.411 Y16.843 Z-1.337
N2025 X-120.734 Y16.586 Z-1.364
N2030 X-120.111 Y16.372 Z-1.39
N2035 X-118.979 Y16.028 Z-1.438
N2040 X-117.8 Y15.727 Z-1.488
N2045 X-116.553 Y15.471 Z-1.542
N2050 X-115.791 Y15.345 Z-1.575
N2055 X-115.225 Y15.261 Z-1.6
N2060 X-114.12 Y15.127 Z-1.65
N2065 X-112.928 Y15.028 Z-1.704
N2070 X-111.741 Y14.973 Z-1.759
N2075 X-110.545 Y14.959 Z-1.815
N2080 X-109.359 Y14.99 Z-1.872
N2085 X-108.177 Y15.061 Z-1.929
N2090 X-106.957 Y15.186 Z-1.99
N2095 X-105.777 Y15.353 Z-2.049
N2100 X-105.049 Y15.487 Z-2.086
N2105 X-104.521 Y15.591 Z-2.113
N2110 X-103.337 Y15.875 Z-2.175
N2115 X-102.157 Y16.224 Z-2.237
N2120 X-101.043 Y16.623 Z-2.297
N2125 X-100.716 Y16.757 Z-2.315
N2130 X-99.602 Y17.252 Z-2.377
N2135 X-98.436 Y17.875 Z-2.442
N2140 X-98.154 Y18.047 Z-2.459
N2145 X-97.114 Y18.717 Z-2.518
N2150 X-96.484 Y19.174 Z-2.555
N2155 X-95.781 Y19.731 Z-2.596
N2160 X-95.001 Y20.408 Z-2.642
N2165 X-94.509 Y20.876 Z-2.671
N2170 X-93.736 Y21.668 Z-2.718
N2175 X-93.225 Y22.244 Z-2.749
N2180 X-92.662 Y22.911 Z-2.783
N2185 X-92.065 Y23.675 Z-2.819
N2190 X-91.704 Y24.168 Z-2.842
N2195 X-90.919 Y25.316 Z-2.891
N2200 X-90.227 Y26.432 Z-2.935
N2205 X-89.696 Y27.367 Z-2.969
N2210 X-89.43 Y27.868 Z-2.987
N2215 X-88.914 Y28.885 Z-3.022
N2220 X-88.436 Y29.919 Z-3.055
N2225 X-88.3 Y30.235 Z-3.065
N2230 X-87.874 Y31.252 Z-3.096
N2235 X-87.435 Y32.412 Z-3.129
N2240 X-87.145 Y33.269 Z-3.153
N2245 X-86.91 Y34.025 Z-3.173
N2250 X-86.669 Y34.874 Z-3.196
N2255 X-86.451 Y35.725 Z-3.217
N2260 X-86.249 Y36.609 Z-3.238
N2265 X-86.074 Y37.486 Z-3.259
N2270 X-85.946 Y38.219 Z-3.275
N2275 X-85.855 Y38.883 Z-3.289
N2280 X-85.767 Y39.615 Z-3.304
N2285 X-85.707 Y40.44 Z-3.319
N2290 X-85.668 Y41.313 Z-3.335
N2295 X-85.654 Y41.992 Z-3.346
N2300 X-85.669 Y42.445 Z-3.353
N2305 X-85.706 Y43.231 Z-3.364
N2310 X-85.744 Y43.674 Z-3.37
N2315 X-85.822 Y44.304 Z-3.377
N2320 X-85.921 Y44.908 Z-3.367
N2325 X-86.106 Y45.828 Z-3.347
N2330 X-86.196 Y46.182 Z-3.337
N2335 X-86.377 Y46.777 Z-3.32
N2340 X-86.554 Y47.291 Z-3.302
N2345 X-86.709 Y47.675 Z-3.287
N2350 X-86.888 Y48.056 Z-3.271
N2355 X-87.092 Y48.434 Z-3.254
N2360 X-87.337 Y48.838 Z-3.234
N2365 X-87.593 Y49.218 Z-3.214
N2370 X-87.919 Y49.657 Z-3.188
N2375 X-88.202 Y49.992 Z-3.167
N2380 X-88.554 Y50.375 Z-3.14
N2385 X-89 Y50.822 Z-3.108
N2390 X-89.386 Y51.165 Z-3.08
N2395 X-89.777 Y51.482 Z-3.053
N2400 X-90.192 Y51.79 Z-3.024
N2405 X-90.623 Y52.081 Z-2.995
N2410 X-91.235 Y52.455 Z-2.954
N2415 X-91.814 Y52.783 Z-2.916
N2420 X-92.397 Y53.085 Z-2.879
N2425 X-92.993 Y53.368 Z-2.841
N2430 X-93.604 Y53.631 Z-2.802
N2435 X-94.305 Y53.914 Z-2.759
N2440 X-95.05 Y54.177 Z-2.713
N2445 X-95.955 Y54.471 Z-2.659
N2450 X-96.849 Y54.738 Z-2.606
N2455 X-97.757 Y54.984 Z-2.553
N2460 X-98.757 Y55.228 Z-2.495
N2465 X-99.763 Y55.451 Z-2.438
N2470 X-100.616 Y55.617 Z-2.39
N2475 X-101.861 Y55.834 Z-2.322
N2480 X-103.115 Y56.029 Z-2.254
N2485 X-103.887 Y56.135 Z-2.213
N2490 X-105.016 Y56.262 Z-2.154
N2495 X-106.079 Y56.356 Z-2.099
N2500 X-107.029 Y56.416 Z-2.05
N2505 X-107.962 Y56.452 Z-2.003
N2510 X-108.907 Y56.466 Z-1.956
N2515 X-109.865 Y56.457 Z-1.909
N2520 X-110.805 Y56.424 Z-1.863
N2525 X-111.719 Y56.371 Z-1.819
N2530 X-112.688 Y56.289 Z-1.774
N2535 X-113.496 Y56.204 Z-1.737
N2540 X-114.66 Y56.053 Z-1.684
N2545 X-115.785 Y55.886 Z-1.634
N2550 X-116.705 Y55.731 Z-1.593
N2555 X-118.004 Y55.481 Z-1.538
N2560 X-119.176 Y55.232 Z-1.49
N2565 X-120.302 Y54.972 Z-1.445
N2570 X-121.397 Y54.698 Z-1.403
N2575 X-122.993 Y54.26 Z-1.343
N2580 X-124.139 Y53.916 Z-1.301
N2585 X-124.896 Y53.674 Z-1.275
N2590 X-126.436 Y53.143 Z-1.221
N2595 X-127.428 Y52.767 Z-1.187
N2600 X-128.398 Y52.376 Z-1.155
N2605 X-129.231 Y52.018 Z-1.128
N2610 X-130 Y51.65 Z-1.104
N2615 X-130.65 Y51.323 Z-1.083
N2620 X-131.31 Y50.964 Z-1.063
N2625 X-131.84 Y50.65 Z-1.047
N2630 X-132.353 Y50.319 Z-1.032
N2635 X-132.762 Y50.025 Z-1.019
N2640 X-133.143 Y49.719 Z-1.008
N2645 X-133.396 Y49.501 Z-1.001
N2650 X-133.712 Y49.199 Z-0.99
N2655 X-134.034 Y48.858 Z-0.979
N2660 X-134.238 Y48.623 Z-0.972
N2665 X-134.438 Y48.368 Z-0.966
N2670 X-134.616 Y48.116 Z-0.961
N2675 X-134.671 Y48.06 Z-0.959
N2680 X-134.737 Y48.028 Z-0.958
N2685 X-134.79 Y48.019 Z-0.957
N2690 X-134.833 Y48.022
N2695 X-134.875 Y48.033 Z-0.956
N2700 X-134.914 Y48.053
N2705 X-137.877 Y49.915 Z-0.95
N2710 X-138.213 Y50.113
N2715 X-138.385 Y50.176 Z-0.949
N2720 X-138.456 Y50.175 Z-0.948
N2725 X-138.517 Y50.173
N2730 X-138.575 Y50.195 Z-0.947
N2735 X-138.887 Y50.374
N2740 X-139.189 Y50.52 Z-0.946
N2745 X-140.401 Y51.031 Z-0.944
N2750 X-141.522 Y51.399 Z-0.942
N2755 X-142.612 Y51.661 Z-0.941
N2760 X-143.582 Y51.819 Z-0.939
N2765 X-144.116 Y51.875 Z-0.938
N2770 X-144.921 Y51.93 Z-0.936
N2775 X-145.892 Y51.945 Z-0.934
N2780 X-147.224 Y51.91 Z-0.932
N2785 X-148.044 Y51.915
N2790 X-149.098 Y51.949 Z-0.934
N2795 X-150.098 Y51.937 Z-0.936
N2800 X-150.88 Y51.885 Z-0.938
N2805 X-151.419 Y51.83 Z-0.939
N2810 X-152.52 Y51.65 Z-0.941
N2815 X-153.756 Y51.339 Z-0.943
N2820 X-155.024 Y50.896 Z-0.945
N2825 X-155.811 Y50.56 Z-0.947
N2830 X-156.188 Y50.375 Z-0.948
N2835 X-156.458 Y50.216
N2840 X-156.497 Y50.205
N2845 X-156.551 Y50.21 Z-0.949
N2850 X-156.614 Y50.215 Z-0.95
N2855 X-156.783 Y50.161 Z-0.951
N2860 X-156.861 Y50.123
N2865 X-157.379 Y49.812
N2870 X-160.02 Y48.169 Z-0.957
N2875 X-160.097 Y48.136
N2880 X-160.18 Y48.128 Z-0.958
N2885 X-160.246 Y48.138 Z-0.959
N2890 X-160.313 Y48.168 Z-0.961
N2895 X-160.374 Y48.217 Z-0.962
N2900 X-160.527 Y48.427 Z-0.967
N2905 X-160.746 Y48.708 Z-0.973
N2910 X-161.045 Y49.05 Z-0.984
N2915 X-161.344 Y49.357 Z-0.994
N2920 X-161.593 Y49.593 Z-1.002
N2925 X-162.037 Y49.975 Z-1.015
N2930 X-162.258 Y50.154 Z-1.022
N2935 X-162.511 Y50.333 Z-1.03
N2940 X-163.121 Y50.725 Z-1.048
N2945 X-163.648 Y51.037 Z-1.063
N2950 X-164.297 Y51.392 Z-1.083
N2955 X-164.973 Y51.734 Z-1.104
N2960 X-165.716 Y52.093 Z-1.128
N2965 X-166.532 Y52.447 Z-1.154
N2970 X-167.526 Y52.853 Z-1.187
N2975 X-168.509 Y53.23 Z-1.221
N2980 X-169.115 Y53.446 Z-1.242
N2985 X-170.306 Y53.851 Z-1.283
N2990 X-171.432 Y54.204 Z-1.324
N2995 X-172.287 Y54.453 Z-1.355
N3000 X-173.548 Y54.799 Z-1.402
N3005 X-174.724 Y55.097 Z-1.447
N3010 X-175.883 Y55.365 Z-1.493
N3015 X-177.095 Y55.621 Z-1.544
N3020 X-178.368 Y55.866 Z-1.598
N3025 X-179.53 Y56.057 Z-1.649
N3030 X-180.689 Y56.225 Z-1.701
N3035 X-181.771 Y56.359 Z-1.75
N3040 X-182.829 Y56.462 Z-1.799
N3045 X-183.767 Y56.53 Z-1.843
N3050 X-184.516 Y56.571 Z-1.879
N3055 X-185.536 Y56.597 Z-1.929
N3060 X-186.529 Y56.598 Z-1.978
N3065 X-187.508 Y56.576 Z-2.027
N3070 X-188.5 Y56.529 Z-2.077
N3075 X-189.478 Y56.458 Z-2.127
N3080 X-190.467 Y56.365 Z-2.179
N3085 X-191.605 Y56.23 Z-2.239
N3090 X-192.767 Y56.067 Z-2.301
N3095 X-193.934 Y55.879 Z-2.364
N3100 X-195.028 Y55.68 Z-2.425
N3105 X-196.062 Y55.467 Z-2.483
N3110 X-197.09 Y55.232 Z-2.542
N3115 X-198.049 Y54.987 Z-2.597
N3120 X-198.994 Y54.721 Z-2.653
N3125 X-199.926 Y54.434 Z-2.708
N3130 X-200.743 Y54.161 Z-2.758
N3135 X-201.342 Y53.933 Z-2.794
N3140 X-202.067 Y53.631 Z-2.839
N3145 X-202.768 Y53.314 Z-2.883
N3150 X-203.445 Y52.981 Z-2.926
N3155 X-204.116 Y52.625 Z-2.969
N3160 X-204.645 Y52.324 Z-3.003
N3165 X-205.075 Y52.053 Z-3.031
N3170 X-205.606 Y51.682 Z-3.066
N3175 X-206.02 Y51.367 Z-3.094
N3180 X-206.415 Y51.039 Z-3.12
N3185 X-206.787 Y50.706 Z-3.146
N3190 X-207.007 Y50.515 Z-3.16
N3195 X-207.237 Y50.311 Z-3.175
N3200 X-207.432 Y50.129 Z-3.188
N3205 X-207.593 Y49.99 Z-3.198
N3210 X-207.941 Y49.616 Z-3.221
N3215 X-208.104 Y49.453 Z-3.231
N3220 X-208.292 Y49.236 Z-3.244
N3225 X-208.424 Y49.077 Z-3.252
N3230 X-208.736 Y48.647 Z-3.273
N3235 X-208.845 Y48.509 Z-3.279
N3240 X-208.935 Y48.357 Z-3.286
N3245 X-209.033 Y48.129 Z-3.294
N3250 X-209.093 Y47.944 Z-3.3
N3255 X-209.132 Y47.772 Z-3.305
N3260 X-209.152 Y47.582 Z-3.309
N3265 X-209.26 Y47.025 Z-3.325
N3270 X-209.3 Y46.725 Z-3.332
N3275 X-209.378 Y46.257 Z-3.343
N3280 X-209.395 Y46.023 Z-3.348
N3285 X-209.4 Y45.81 Z-3.353
N3290 X-209.478 Y45.108 Z-3.366
N3295 X-209.526 Y44.719 Z-3.373
N3300 X-209.58 Y44.147 Z-3.376
N3305 X-209.631 Y43.418 Z-3.367
N3310 X-209.672 Y42.229 Z-3.35
N3315 Y41.884 Z-3.345
N3320 X-209.645 Y40.975 Z-3.33
N3325 X-209.598 Y40.202 Z-3.316
N3330 X-209.527 Y39.441 Z-3.301
N3335 X-209.422 Y38.586 Z-3.284
N3340 X-209.316 Y37.901 Z-3.27
N3345 X-209.158 Y37.053 Z-3.251
N3350 X-208.971 Y36.177 Z-3.23
N3355 X-208.769 Y35.338 Z-3.21
N3360 X-208.537 Y34.473 Z-3.188
N3365 X-208.258 Y33.529 Z-3.163
N3370 X-207.992 Y32.723 Z-3.141
N3375 X-207.812 Y32.2 Z-3.127
N3380 X-207.375 Y31.064 Z-3.094
N3385 X-206.924 Y29.96 Z-3.061
N3390 X-206.511 Y29.049 Z-3.032
N3395 X-206.135 Y28.275 Z-3.007
N3400 X-205.714 Y27.464 Z-2.979
N3405 X-205.29 Y26.696 Z-2.951
N3410 X-204.837 Y25.924 Z-2.922
N3415 X-204.375 Y25.182 Z-2.893
N3420 X-203.884 Y24.436 Z-2.863
N3425 X-203.434 Y23.789 Z-2.835
N3430 X-203.089 Y23.324 Z-2.814
N3435 X-202.553 Y22.647 Z-2.782
N3440 X-202.043 Y22.04 Z-2.751
N3445 X-201.508 Y21.442 Z-2.719
N3450 X-200.967 Y20.871 Z-2.687
N3455 X-200.607 Y20.51 Z-2.666
N3460 X-200.033 Y19.983 Z-2.633
N3465 X-199.408 Y19.44 Z-2.596
N3470 X-198.868 Y19.014 Z-2.565
N3475 X-198.305 Y18.599 Z-2.533
N3480 X-197.74 Y18.21 Z-2.501
N3485 X-196.871 Y17.65 Z-2.452
N3490 X-196.515 Y17.453 Z-2.432
N3495 X-195.853 Y17.113 Z-2.396
N3500 X-195.159 Y16.784 Z-2.358
N3505 X-194.459 Y16.479 Z-2.32
N3510 X-193.753 Y16.197 Z-2.282
N3515 X-193.032 Y15.935 Z-2.244
N3520 X-192.303 Y15.696 Z-2.205
N3525 X-191.694 Y15.516 Z-2.174
N3530 X-190.661 Y15.271 Z-2.121
N3535 X-189.79 Y15.089 Z-2.077
N3540 X-189.218 Y14.989 Z-2.048
N3545 X-188.261 Y14.854 Z-2
N3550 X-187.382 Y14.752 Z-1.957
N3555 X-186.748 Y14.691 Z-1.926
N3560 X-185.594 Y14.625 Z-1.871
N3565 X-184.724 Y14.603 Z-1.829
N3570 X-183.815 Y14.602 Z-1.787
N3575 X-182.926 Y14.624 Z-1.745
N3580 X-182.059 Y14.667 Z-1.706
N3585 X-181.236 Y14.733 Z-1.669
N3590 X-180.343 Y14.827 Z-1.629
N3595 X-179.439 Y14.946 Z-1.589
N3600 X-178.674 Y15.066 Z-1.556
N3605 X-178.006 Y15.193 Z-1.527
N3610 X-177.167 Y15.374 Z-1.492
N3615 X-176.401 Y15.562 Z-1.459
N3620 X-175.626 Y15.776 Z-1.427
N3625 X-174.925 Y15.991 Z-1.398
N3630 X-174.243 Y16.223 Z-1.37
N3635 X-173.555 Y16.484 Z-1.342
N3640 X-172.897 Y16.758 Z-1.316
N3645 X-172.271 Y17.041 Z-1.291
N3650 X-171.648 Y17.347 Z-1.266
N3655 X-171.006 Y17.688 Z-1.241
N3660 X-170.394 Y18.039 Z-1.217
N3665 X-169.643 Y18.501 Z-1.189
N3670 X-169.188 Y18.814 Z-1.172
N3675 X-168.694 Y19.183 Z-1.153
N3680 X-168.177 Y19.598 Z-1.132
N3685 X-167.69 Y20.015 Z-1.112
N3690 X-167.185 Y20.476 Z-1.094
N3695 X-166.685 Y20.966 Z-1.077
N3700 X-166.238 Y21.432 Z-1.061
N3705 X-165.804 Y21.917 Z-1.044
N3710 X-165.361 Y22.444 Z-1.028
N3715 X-164.95 Y22.967 Z-1.011
N3720 X-164.445 Y23.653 Z-0.991
N3725 X-164.092 Y24.167 Z-0.976
N3730 X-163.714 Y24.755 Z-0.964
N3735 X-163.338 Y25.37 Z-0.952
N3740 X-162.903 Y26.121 Z-0.939
N3745 X-162.511 Y26.84 Z-0.926
N3750 X-162.145 Y27.552 Z-0.915
N3755 X-161.756 Y28.359 Z-0.902
N3760 X-161.423 Y29.096 Z-0.891
N3765 X-161.076 Y29.915 Z-0.88
N3770 X-160.816 Y30.572 Z-0.872
N3775 X-160.407 Y31.675 Z-0.864
N3780 X-160.059 Y32.708 Z-0.857
N3785 X-159.785 Y33.588 Z-0.853
N3790 X-159.561 Y34.361 Z-0.85
N3795 X-159.284 Y35.398 Z-0.847
N3800 X-159.118 Y36.087 Z-0.846
N3805 X-158.93 Y37.012
N3810 X-158.789 Y37.804 Z-0.847
N3815 X-158.637 Y38.82 Z-0.849
N3820 X-158.533 Y39.664 Z-0.852
N3825 X-158.443 Y40.586 Z-0.856
N3830 X-158.404 Y41.172 Z-0.859
N3835 X-158.356 Y41.975 Z-0.864
N3840 X-158.346 Y42.15 Z-0.865
N3845 X-158.357 Y42.333 Z-0.866
N3850 X-158.436 Y43.207 Z-0.874
N3855 X-158.485 Y43.656 Z-0.879
N3860 X-158.571 Y44.434 Z-0.89
N3865 X-158.635 Y44.796 Z-0.895
N3870 X-158.733 Y45.184 Z-0.902
N3875 X-158.827 Y45.537 Z-0.907
N3880 X-158.886 Y45.761 Z-0.911
N3885 X-158.975 Y46.109 Z-0.917
N3890 X-159.099 Y46.498 Z-0.923
N3895 X-159.233 Y46.854 Z-0.93
N3900 X-159.341 Y47.11 Z-0.934
N3905 X-159.363 Y47.192 Z-0.936
N3910 X-159.37 Y47.314 Z-0.937
N3915 X-159.355 Y47.415 Z-0.939
N3920 X-159.322 Y47.509
N3925 X-159.272 Y47.594 Z-0.94
N3930 X-159.182 Y47.691
N3935 X-159.118 Y47.737
N3940 X-155.436 Y49.963 Z-0.933
N3945 X-154.927 Y50.226
N3950 X-153.95 Y50.656 Z-0.932
N3955 X-153.398 Y50.839 Z-0.931
N3960 X-152.898 Y51.001
N3965 X-152.15 Y51.18 Z-0.932
N3970 X-151.756 Y51.252
N3975 X-150.995 Y51.358 Z-0.931
N3980 X-150.146 Y51.419 Z-0.929
N3985 X-149.797 Y51.433 Z-0.928
N3990 X-148.835 Y51.429 Z-0.927
N3995 X-147.759 Y51.394
N4000 X-146.974 Y51.398
N4005 X-145.827 Y51.432
N4010 X-145.069 Y51.422 Z-0.929
N4015 X-144.455 Y51.382 Z-0.93
N4020 X-143.923 Y51.338 Z-0.931
N4025 X-143.202 Y51.232 Z-0.932
N4030 X-142.785 Y51.149
N4035 X-142.099 Y50.982 Z-0.931
N4040 X-141.094 Y50.649
N4045 X-140.364 Y50.324 Z-0.932
N4050 X-140.057 Y50.186
N4055 X-139.647 Y49.961
N4060 X-138.873 Y49.518 Z-0.933
N4065 X-138.615 Y49.398 Z-0.935
N4070 X-138.446 Y49.3
N4075 X-136.015 Y47.715 Z-0.938
N4080 X-135.912 Y47.63
N4085 X-135.83 Y47.524
N4090 X-135.774 Y47.403 Z-0.937
N4095 X-135.757 Y47.338 Z-0.936
N4100 X-135.744 Y47.211 Z-0.935
N4105 X-135.756 Y47.091 Z-0.933
N4110 X-135.793 Y46.976 Z-0.931
N4115 X-135.958 Y46.559 Z-0.923
N4120 X-136.086 Y46.182 Z-0.917
N4125 X-136.181 Y45.827 Z-0.911
N4130 X-136.244 Y45.585 Z-0.907
N4135 X-136.288 Y45.447 Z-0.905
N4140 X-136.395 Y45.049 Z-0.898
N4145 X-136.483 Y44.65 Z-0.892
N4150 X-136.559 Y44.181 Z-0.885
N4155 X-136.653 Y43.395 Z-0.875
N4160 X-136.675 Y43.209 Z-0.873
N4165 X-136.778 Y42.221 Z-0.864
N4170 X-136.776 Y42.047 Z-0.863
N4175 X-136.734 Y41.449 Z-0.859
N4180 X-136.691 Y40.712 Z-0.855
N4185 X-136.614 Y39.856 Z-0.851
N4190 X-136.505 Y38.923 Z-0.848
N4195 X-136.37 Y37.994 Z-0.846
N4200 X-136.209 Y37.069 Z-0.844
N4205 X-136.025 Y36.154
N4210 X-135.864 Y35.473 Z-0.845
N4215 X-135.59 Y34.436 Z-0.848
N4220 X-135.368 Y33.662 Z-0.851
N4225 X-135.132 Y32.893 Z-0.855
N4230 X-134.818 Y31.937 Z-0.86
N4235 X-134.586 Y31.285 Z-0.865
N4240 X-134.294 Y30.497 Z-0.871
N4245 X-133.949 Y29.64 Z-0.881
N4250 X-133.579 Y28.777 Z-0.893
N4255 X-133.214 Y27.98 Z-0.905
N4260 X-132.922 Y27.383 Z-0.915
N4265 X-132.593 Y26.742 Z-0.925
N4270 X-132.172 Y25.971 Z-0.939
N4275 X-131.766 Y25.269 Z-0.951
N4280 X-131.424 Y24.707 Z-0.962
N4285 X-131.095 Y24.19 Z-0.972
N4290 X-130.802 Y23.753 Z-0.984
N4295 X-130.391 Y23.181 Z-1.001
N4300 X-129.943 Y22.583 Z-1.019
N4305 X-129.599 Y22.154 Z-1.033
N4310 X-129.245 Y21.738 Z-1.046
N4315 X-128.92 Y21.375 Z-1.058
N4320 X-128.541 Y20.973 Z-1.072
N4325 X-128.052 Y20.486 Z-1.089
N4330 X-127.655 Y20.113 Z-1.103
N4335 X-127.309 Y19.805 Z-1.116
N4340 X-126.908 Y19.464 Z-1.133
N4345 X-126.356 Y19.025 Z-1.155
N4350 X-125.855 Y18.653 Z-1.175
N4355 X-125.412 Y18.349 Z-1.191
N4360 X-124.39 Y17.714 Z-1.23
N4365 X-123.885 Y17.424 Z-1.25
N4370 X-123.033 Y16.988 Z-1.283
N4375 X-122.508 Y16.745 Z-1.304
N4380 X-121.744 Y16.417 Z-1.334
N4385 X-121.056 Y16.147 Z-1.362
N4390 X-120.341 Y15.892 Z-1.391
N4395 X-119.612 Y15.657 Z-1.421
N4400 X-118.911 Y15.452 Z-1.45
N4405 X-118.096 Y15.242 Z-1.484
N4410 X-117.284 Y15.056 Z-1.518
N4415 X-116.515 Y14.9 Z-1.551
N4420 X-115.774 Y14.774 Z-1.583
N4425 X-114.895 Y14.649 Z-1.621
N4430 X-113.997 Y14.546 Z-1.661
N4435 X-113.11 Y14.467 Z-1.701
N4440 X-112.205 Y14.412 Z-1.742
N4445 X-111.315 Y14.381 Z-1.783
N4450 X-110.408 Y14.374 Z-1.825
N4455 X-109.511 Y14.39 Z-1.867
N4460 X-108.65 Y14.432 Z-1.909
N4465 X-108.025 Y14.472 Z-1.939
N4470 X-106.861 Y14.589 Z-1.995
N4475 X-105.677 Y14.755 Z-2.054
N4480 X-105.087 Y14.859 Z-2.083
N4485 X-104.193 Y15.045 Z-2.128
N4490 X-103.274 Y15.26 Z-2.175
N4495 X-102.754 Y15.408 Z-2.201
N4500 X-102.014 Y15.645 Z-2.24
N4505 X-101.282 Y15.905 Z-2.278
N4510 X-100.534 Y16.196 Z-2.318
N4515 X-99.812 Y16.504 Z-2.356
N4520 X-99.12 Y16.824 Z-2.394
N4525 X-98.433 Y17.168 Z-2.431
N4530 X-98.035 Y17.381 Z-2.453
N4535 X-97.372 Y17.799 Z-2.489
N4540 X-96.796 Y18.175 Z-2.521
N4545 X-96.247 Y18.563 Z-2.552
N4550 X-95.727 Y18.959 Z-2.581
N4555 X-95.328 Y19.278 Z-2.604
N4560 X-94.619 Y19.895 Z-2.644
N4565 X-94.097 Y20.377 Z-2.674
N4570 X-93.516 Y20.968 Z-2.708
N4575 X-92.978 Y21.549 Z-2.739
N4580 X-92.461 Y22.143 Z-2.769
N4585 X-91.957 Y22.757 Z-2.799
N4590 X-91.467 Y23.39 Z-2.828
N4595 X-91.066 Y23.946 Z-2.852
N4600 X-90.516 Y24.759 Z-2.886
N4605 X-90.041 Y25.502 Z-2.915
N4610 X-89.592 Y26.246 Z-2.943
N4615 X-89.152 Y27.023 Z-2.971
N4620 X-88.74 Y27.796 Z-2.998
N4625 X-88.333 Y28.609 Z-3.025
N4630 X-87.957 Y29.412 Z-3.05
N4635 X-87.723 Y29.937 Z-3.066
N4640 X-87.265 Y31.032 Z-3.099
N4645 X-86.832 Y32.179 Z-3.131
N4650 X-86.527 Y33.052 Z-3.155
N4655 X-86.284 Y33.815 Z-3.176
N4660 X-86.021 Y34.697 Z-3.198
N4665 X-85.761 Y35.671 Z-3.222
N4670 X-85.557 Y36.527 Z-3.242
N4675 X-85.389 Y37.323 Z-3.26
N4680 X-85.247 Y38.102 Z-3.277
N4685 X-85.126 Y38.894 Z-3.293
N4690 X-85.023 Y39.72 Z-3.309
N4695 X-84.946 Y40.525 Z-3.324
N4700 X-84.892 Y41.315 Z-3.338
N4705 X-84.858 Y42.152 Z-3.351
N4710 Y43.575 Z-3.37
N4715 X-84.866 Y44.124 Z-3.376
N4720 X-84.872 Y44.38 Z-3.379
N4725 X-84.878 Y44.952 Z-3.375
N4730 X-84.882 Y45.401 Z-3.368
N4735 X-84.856 Y45.972 Z-3.36
N4740 X-84.838 Y46.089 Z-3.359
N4745 X-84.802 Y46.274 Z-3.357
N4750 X-84.769 Y46.57 Z-3.353
N4755 X-84.754 Y46.881 Z-3.348
N4760 X-84.742 Y47.146 Z-3.345
N4765 X-84.705 Y47.529 Z-3.34
N4770 X-84.699 Y47.894 Z-3.336
N4775 X-84.693 Y48.194 Z-3.333
N4780 X-84.701 Y48.395 Z-3.331
N4785 X-84.727 Y48.57 Z-3.328
N4790 X-84.775 Y48.75 Z-3.325
N4795 X-84.854 Y48.951 Z-3.32
N4800 X-84.958 Y49.141 Z-3.314
N4805 X-85.085 Y49.314 Z-3.307
N4810 X-85.257 Y49.498 Z-3.298
N4815 X-85.556 Y49.796 Z-3.282
N4820 X-85.82 Y50.024 Z-3.267
N4825 X-86.395 Y50.482 Z-3.235
N4830 X-86.634 Y50.641 Z-3.221
N4835 X-86.931 Y50.837 Z-3.204
N4840 X-87.107 Y50.956 Z-3.194
N4845 X-87.263 Y51.046 Z-3.185
N4850 X-87.525 Y51.233 Z-3.169
N4855 X-87.742 Y51.383 Z-3.156
N4860 X-88.121 Y51.679 Z-3.132
N4865 X-88.49 Y51.944 Z-3.109
N4870 X-88.851 Y52.188 Z-3.087
N4875 X-89.449 Y52.567 Z-3.049
N4880 X-89.86 Y52.805 Z-3.024
N4885 X-90.908 Y53.349 Z-2.958
N4890 X-91.55 Y53.658 Z-2.919
N4895 X-92.22 Y53.954 Z-2.877
N4900 X-92.783 Y54.182 Z-2.843
N4905 X-93.9 Y54.591 Z-2.775
N4910 X-94.597 Y54.819 Z-2.734
N4915 X-95.567 Y55.111 Z-2.676
N4920 X-96.55 Y55.382 Z-2.619
N4925 X-97.521 Y55.626 Z-2.563
N4930 X-98.536 Y55.857 Z-2.505
N4935 X-99.392 Y56.034 Z-2.457
N4940 X-100.799 Y56.29 Z-2.379
N4945 X-101.966 Y56.476 Z-2.316
N4950 X-103.131 Y56.638 Z-2.254
N4955 X-104.224 Y56.767 Z-2.196
N4960 X-105.304 Y56.871 Z-2.14
N4965 X-106.303 Y56.946 Z-2.089
N4970 X-107.269 Y56.996 Z-2.041
N4975 X-108.248 Y57.025 Z-1.992
N4980 X-109.241 Y57.03 Z-1.944
N4985 X-110.217 Y57.013 Z-1.897
N4990 X-111.175 Y56.974 Z-1.851
N4995 X-112.149 Y56.912 Z-1.805
N5000 X-113.168 Y56.824 Z-1.759
N5005 X-114.225 Y56.71 Z-1.711
N5010 X-115.321 Y56.569 Z-1.662
N5015 X-116.49 Y56.395 Z-1.612
N5020 X-117.583 Y56.208 Z-1.565
N5025 X-118.724 Y55.993 Z-1.518
N5030 X-121.063 Y55.483 Z-1.426
N5035 X-121.923 Y55.27 Z-1.394
N5040 X-123.224 Y54.928 Z-1.347
N5045 X-124.364 Y54.598 Z-1.305
N5050 X-125.17 Y54.348 Z-1.277
N5055 X-126.674 Y53.84 Z-1.227
N5060 X-127.261 Y53.63 Z-1.207
N5065 X-128.282 Y53.237 Z-1.173
N5070 X-129.159 Y52.877 Z-1.145
N5075 X-129.753 Y52.619 Z-1.127
N5080 X-130.592 Y52.225 Z-1.102
N5085 X-131.454 Y51.798 Z-1.077
N5090 X-132.054 Y51.486 Z-1.06
N5095 X-132.42 Y51.285 Z-1.05
N5100 X-133.086 Y50.896 Z-1.033
N5105 X-133.261 Y50.768 Z-1.028
N5110 X-133.372 Y50.675 Z-1.025
N5115 X-133.517 Y50.522 Z-1.02
N5120 X-133.75 Y50.312 Z-1.012
N5125 X-133.877 Y50.193 Z-1.008
N5130 X-134.029 Y50.064 Z-1.003
N5135 X-134.382 Y49.702 Z-0.99
N5140 X-134.548 Y49.522 Z-0.984
N5145 X-134.637 Y49.447 Z-0.981
N5150 X-134.739 Y49.386 Z-0.978
N5155 X-134.866 Y49.335 Z-0.975
N5160 X-134.987 Y49.308 Z-0.972
N5165 X-135.118 Y49.301 Z-0.971
N5170 X-135.265 Y49.319 Z-0.969
N5175 X-135.407 Y49.364 Z-0.968
N5180 X-135.542 Y49.437
N5185 X-136.66 Y50.131 Z-0.966
N5190 X-137.1 Y50.423
N5195 X-137.334 Y50.554 Z-0.965
N5200 X-137.578 Y50.664
N5205 X-137.831 Y50.752 Z-0.964
N5210 X-138.23 Y50.869 Z-0.962
N5215 X-138.474 Y50.972 Z-0.961
N5220 X-138.696 Y51.088
N5225 X-138.979 Y51.2 Z-0.96
N5230 X-139.494 Y51.382 Z-0.958
N5235 X-140.708 Y51.777 Z-0.956
N5240 X-142.095 Y52.117 Z-0.953
N5245 X-142.808 Y52.248 Z-0.951
N5250 X-143.454 Y52.338 Z-0.95
N5255 X-143.988 Y52.393 Z-0.949
N5260 X-144.902 Y52.454 Z-0.947
N5265 X-145.896 Y52.468 Z-0.945
N5270 X-147.246 Y52.435 Z-0.943
N5275 X-148.022 Y52.44
N5280 X-149.102 Y52.473 Z-0.945
N5285 X-150.1 Y52.461 Z-0.947
N5290 X-151.511 Y52.354 Z-0.95
N5295 X-152.168 Y52.266 Z-0.951
N5300 X-152.59 Y52.189 Z-0.952
N5305 X-153.834 Y51.923 Z-0.955
N5310 X-154.307 Y51.796 Z-0.956
N5315 X-155.691 Y51.353 Z-0.96
N5320 X-156.293 Y51.134 Z-0.961
N5325 X-156.587 Y51.011 Z-0.962
N5330 X-156.886 Y50.919 Z-0.964
N5335 X-157.154 Y50.848 Z-0.965
N5340 X-157.343 Y50.78 Z-0.966
N5345 X-157.587 Y50.668
N5350 X-157.901 Y50.482 Z-0.967
N5355 X-158.369 Y50.175
N5360 X-159.495 Y49.488 Z-0.969
N5365 X-159.617 Y49.432 Z-0.97
N5370 X-159.714 Y49.405
N5375 X-159.847 Y49.387 Z-0.972
N5380 X-159.981 Y49.392 Z-0.973
N5385 X-160.115 Y49.419 Z-0.976
N5390 X-160.235 Y49.465 Z-0.979
N5395 X-160.333 Y49.521 Z-0.982
N5400 X-160.428 Y49.594 Z-0.985
N5405 X-160.546 Y49.72 Z-0.989
N5410 X-160.937 Y50.128 Z-1.004
N5415 X-161.096 Y50.267 Z-1.009
N5420 X-161.231 Y50.391 Z-1.014
N5425 X-161.401 Y50.547 Z-1.019
N5430 X-161.526 Y50.677 Z-1.024
N5435 X-161.622 Y50.774 Z-1.027
N5440 X-161.822 Y50.93 Z-1.033
N5445 X-162.064 Y51.077 Z-1.039
N5450 X-162.678 Y51.43 Z-1.055
N5455 X-163.141 Y51.68 Z-1.067
N5460 X-164.096 Y52.164 Z-1.094
N5465 X-164.794 Y52.5 Z-1.115
N5470 X-165.446 Y52.802 Z-1.135
N5475 X-166.446 Y53.224 Z-1.167
N5480 X-167.473 Y53.63 Z-1.2
N5485 X-168.18 Y53.892 Z-1.224
N5490 X-169.439 Y54.326 Z-1.266
N5495 X-170.343 Y54.615 Z-1.297
N5500 X-171.476 Y54.953 Z-1.338
N5505 X-172.25 Y55.164 Z-1.366
N5510 X-173.535 Y55.499 Z-1.413
N5515 X-174.183 Y55.649 Z-1.437
N5520 X-176.262 Y56.106 Z-1.52
N5525 X-177.541 Y56.347 Z-1.573
N5530 X-178.587 Y56.525 Z-1.617
N5535 X-179.775 Y56.701 Z-1.669
N5540 X-180.886 Y56.843 Z-1.718
N5545 X-181.954 Y56.957 Z-1.766
N5550 X-183.035 Y57.049 Z-1.816
N5555 X-184.122 Y57.115 Z-1.867
N5560 X-184.872 Y57.142 Z-1.903
N5565 X-186.133 Y57.163 Z-1.964
N5570 X-187.158 Y57.15 Z-2.014
N5575 X-188.192 Y57.114 Z-2.065
N5580 X-189.237 Y57.052 Z-2.118
N5585 X-190.352 Y56.96 Z-2.176
N5590 X-191.467 Y56.845 Z-2.234
N5595 X-192.646 Y56.698 Z-2.296
N5600 X-193.858 Y56.521 Z-2.361
N5605 X-194.737 Y56.374 Z-2.409
N5610 X-195.878 Y56.17 Z-2.473
N5615 X-197.019 Y55.935 Z-2.537
N5620 X-198.059 Y55.696 Z-2.597
N5625 X-199.085 Y55.436 Z-2.656
N5630 X-200.12 Y55.148 Z-2.717
N5635 X-201.027 Y54.874 Z-2.771
N5640 X-201.777 Y54.618 Z-2.816
N5645 X-202.563 Y54.328 Z-2.864
N5650 X-203.344 Y54.014 Z-2.911
N5655 X-204.121 Y53.674 Z-2.959
N5660 X-204.899 Y53.305 Z-3.007
N5665 X-205.45 Y53.033 Z-3.041
N5670 X-205.852 Y52.811 Z-3.066
N5675 X-206.501 Y52.427 Z-3.105
N5680 X-206.84 Y52.213 Z-3.126
N5685 X-207.248 Y51.944 Z-3.151
N5690 X-207.627 Y51.684 Z-3.174
N5695 X-208.066 Y51.415 Z-3.2
N5700 X-208.243 Y51.319 Z-3.211
N5705 X-208.422 Y51.225 Z-3.221
N5710 X-208.634 Y51.111 Z-3.233
N5715 X-208.892 Y50.988 Z-3.249
N5720 X-209.081 Y50.874 Z-3.26
N5725 X-209.421 Y50.65 Z-3.28
N5730 X-209.645 Y50.516 Z-3.293
N5735 X-209.886 Y50.339 Z-3.308
N5740 X-210.071 Y50.204 Z-3.32
N5745 X-210.625 Y49.73 Z-3.356
N5750 X-210.742 Y49.629 Z-3.363
N5755 X-210.854 Y49.504 Z-3.37
N5760 X-210.926 Y49.401 Z-3.374
N5765 X-210.981 Y49.3 Z-3.376
N5770 X-211.045 Y49.137 Z-3.378
N5775 X-211.085 Y48.963
N5780 X-211.096 Y48.83 Z-3.377
N5785 X-211.092 Y48.693 Z-3.374
N5790 X-211.068 Y48.541 Z-3.369
N5795 X-211.021 Y48.321 Z-3.362
N5800 X-210.968 Y47.933 Z-3.359
N5805 X-210.916 Y47.547
N5810 X-210.849 Y47.17 Z-3.36
N5815 X-210.788 Y46.707 Z-3.363
N5820 X-210.732 Y46.478 Z-3.364
N5825 X-210.7 Y46.33 Z-3.365
N5830 X-210.642 Y46.138 Z-3.366
N5835 X-210.6 Y45.879 Z-3.369
N5840 X-210.544 Y45.405 Z-3.374
N5845 X-210.526 Y45.006 Z-3.378
N5850 X-210.508 Y44.581 Z-3.382
N5855 X-210.499 Y43.816 Z-3.374
N5860 X-210.485 Y42.842 Z-3.362
N5865 X-210.47 Y42.026 Z-3.351
N5870 X-210.417 Y40.974 Z-3.334
N5875 X-210.35 Y40.135 Z-3.32
N5880 X-210.275 Y39.433 Z-3.307
N5885 X-210.156 Y38.601 Z-3.291
N5890 X-210.009 Y37.74 Z-3.273
N5895 X-209.841 Y36.894 Z-3.254
N5900 X-209.652 Y36.058 Z-3.235
N5905 X-209.43 Y35.186 Z-3.215
N5910 X-209.19 Y34.325 Z-3.193
N5915 X-208.89 Y33.337 Z-3.168
N5920 X-208.676 Y32.701 Z-3.151
N5925 X-208.367 Y31.817 Z-3.127
N5930 X-207.978 Y30.797 Z-3.098
N5935 X-207.481 Y29.608 Z-3.063
N5940 X-207.079 Y28.727 Z-3.036
N5945 X-206.65 Y27.844 Z-3.007
N5950 X-206.239 Y27.047 Z-2.981
N5955 X-205.814 Y26.275 Z-2.954
N5960 X-205.369 Y25.517 Z-2.926
N5965 X-204.899 Y24.762 Z-2.897
N5970 X-204.404 Y24.014 Z-2.867
N5975 X-203.963 Y23.38 Z-2.841
N5980 X-203.595 Y22.886 Z-2.819
N5985 X-203.082 Y22.23 Z-2.789
N5990 X-202.503 Y21.544 Z-2.756
N5995 X-201.975 Y20.955 Z-2.726
N6000 X-201.437 Y20.391 Z-2.695
N6005 X-201.028 Y19.986 Z-2.672
N6010 X-200.464 Y19.47 Z-2.64
N6015 X-199.814 Y18.908 Z-2.604
N6020 X-199.162 Y18.395 Z-2.568
N6025 X-198.587 Y17.972 Z-2.537
N6030 X-198.229 Y17.733 Z-2.517
N6035 X-197.193 Y17.071 Z-2.461
N6040 X-196.698 Y16.801 Z-2.434
N6045 X-195.96 Y16.408 Z-2.395
N6050 X-195.553 Y16.214 Z-2.374
N6055 X-194.573 Y15.784 Z-2.322
N6060 X-194.1 Y15.601 Z-2.297
N6065 X-193.283 Y15.317 Z-2.255
N6070 X-192.446 Y15.051 Z-2.213
N6075 X-191.844 Y14.875 Z-2.182
N6080 X-190.797 Y14.627 Z-2.13
N6085 X-189.934 Y14.448 Z-2.087
N6090 X-189.351 Y14.345 Z-2.058
N6095 X-188.239 Y14.186 Z-2.004
N6100 X-187.57 Y14.114 Z-1.972
N6105 X-186.808 Y14.041 Z-1.936
N6110 X-184.983 Y13.957 Z-1.849
N6115 X-184.126 Y13.95 Z-1.81
N6120 X-183.237 Y13.968 Z-1.769
N6125 X-182.359 Y14.008 Z-1.729
N6130 X-181.502 Y14.069 Z-1.691
N6135 X-180.674 Y14.149 Z-1.654
N6140 X-179.781 Y14.263 Z-1.615
N6145 X-178.962 Y14.389 Z-1.58
N6150 X-178.134 Y14.539 Z-1.545
N6155 X-177.541 Y14.66 Z-1.52
N6160 X-176.909 Y14.804 Z-1.493
N6165 X-176.269 Y14.963 Z-1.467
N6170 X-175.551 Y15.162 Z-1.437
N6175 X-174.774 Y15.404 Z-1.406
N6180 X-174.002 Y15.669 Z-1.375
N6185 X-173.263 Y15.945 Z-1.346
N6190 X-172.681 Y16.193 Z-1.323
N6195 X-172.057 Y16.467 Z-1.297
N6200 X-171.724 Y16.626 Z-1.284
N6205 X-170.907 Y17.042 Z-1.254
N6210 X-170.329 Y17.372 Z-1.233
N6215 X-169.657 Y17.784 Z-1.207
N6220 X-169.299 Y18.007 Z-1.193
N6225 X-168.931 Y18.259 Z-1.179
N6230 X-168.494 Y18.573 Z-1.161
N6235 X-168.066 Y18.899 Z-1.143
N6240 X-167.646 Y19.235 Z-1.126
N6245 X-167.258 Y19.561 Z-1.11
N6250 X-166.962 Y19.823 Z-1.1
N6255 X-166.514 Y20.244 Z-1.084
N6260 X-166.019 Y20.737 Z-1.066
N6265 X-165.539 Y21.249 Z-1.049
N6270 X-165.071 Y21.782 Z-1.031
N6275 X-164.664 Y22.274 Z-1.015
N6280 X-164.317 Y22.728 Z-1.002
N6285 X-163.816 Y23.421 Z-0.981
N6290 X-163.431 Y23.982 Z-0.967
N6295 X-162.986 Y24.668 Z-0.953
N6300 X-162.555 Y25.373 Z-0.939
N6305 X-162.149 Y26.079 Z-0.927
N6310 X-161.808 Y26.708 Z-0.916
N6315 X-161.395 Y27.507 Z-0.903
N6320 X-161.027 Y28.273 Z-0.891
N6325 X-160.641 Y29.131 Z-0.878
N6330 X-160.277 Y29.983 Z-0.868
N6335 X-160.112 Y30.384 Z-0.864
N6340 X-159.653 Y31.576 Z-0.855
N6345 X-159.296 Y32.57 Z-0.848
N6350 X-158.956 Y33.587 Z-0.843
N6355 X-158.6 Y34.726 Z-0.838
N6360 X-158.289 Y35.844 Z-0.836
N6365 X-158.045 Y36.854 Z-0.835
N6370 X-157.82 Y37.92 Z-0.836
N6375 X-157.672 Y38.728 Z-0.838
N6380 X-157.524 Y39.655 Z-0.841
N6385 X-157.397 Y40.602 Z-0.845
N6390 X-157.333 Y41.186 Z-0.848
N6395 X-157.263 Y41.776 Z-0.852
N6400 X-157.245 Y42.077 Z-0.854
N6405 X-157.253 Y42.378 Z-0.856
N6410 X-157.288 Y42.678 Z-0.859
N6415 X-157.344 Y42.994 Z-0.862
N6420 X-157.426 Y43.531 Z-0.867
N6425 X-157.57 Y44.607 Z-0.879
N6430 X-157.62 Y44.842 Z-0.883
N6435 X-157.692 Y45.057 Z-0.887
N6440 X-157.842 Y45.422 Z-0.893
N6445 X-157.929 Y45.685 Z-0.898
N6450 X-157.997 Y45.879 Z-0.901
N6455 X-158.069 Y46.17 Z-0.906
N6460 X-158.126 Y46.366 Z-0.909
N6465 X-158.176 Y46.532 Z-0.912
N6470 X-158.192 Y46.618 Z-0.914
N6475 X-158.199 Y46.705 Z-0.915
N6480 X-158.198 Y46.792 Z-0.916
N6485 X-158.187 Y46.892 Z-0.917
N6490 X-158.165 Y46.991 Z-0.918
N6495 X-158.122 Y47.113 Z-0.92
N6500 X-158.062 Y47.228 Z-0.921
N6505 X-157.962 Y47.362
N6510 X-157.83 Y47.482 Z-0.922
N6515 X-157.109 Y47.959 Z-0.921
N6520 X-156.196 Y48.56 Z-0.92
N6525 X-155.504 Y49.053 Z-0.919
N6530 X-155.051 Y49.368
N6535 X-154.566 Y49.668
N6540 X-154.122 Y49.907 Z-0.92
N6545 X-153.703 Y50.105 Z-0.921
N6550 X-153.573 Y50.161 Z-0.922
N6555 X-152.83 Y50.434 Z-0.924
N6560 X-152.549 Y50.513 Z-0.925
N6565 X-151.865 Y50.686 Z-0.928
N6570 X-151.022 Y50.824 Z-0.929
N6575 X-150.601 Y50.861 Z-0.928
N6580 X-150.027 Y50.902 Z-0.927
N6585 X-149.378 Y50.913
N6590 X-149.134 Y50.914
N6595 X-147.787 Y50.868
N6600 X-147.25 Y50.867
N6605 X-145.867 Y50.909
N6610 X-145.144 Y50.902
N6615 X-144.574 Y50.866 Z-0.928
N6620 X-144.123 Y50.83 Z-0.929
N6625 X-143.759 Y50.78 Z-0.93
N6630 X-143.123 Y50.67 Z-0.928
N6635 X-142.325 Y50.464 Z-0.925
N6640 X-142.175 Y50.417 Z-0.924
N6645 X-141.418 Y50.134 Z-0.921
N6650 X-140.993 Y49.936 Z-0.92
N6655 X-140.728 Y49.802 Z-0.919
N6660 X-140.282 Y49.545
N6665 X-139.806 Y49.232 Z-0.918
N6670 X-138.869 Y48.549 Z-0.919
N6675 X-137.221 Y47.442 Z-0.92
N6680 X-137.096 Y47.331
N6685 X-137.013 Y47.226
N6690 X-136.947 Y47.109 Z-0.919
N6695 X-136.9 Y46.984 Z-0.918
N6700 X-136.873 Y46.852 Z-0.916
N6705 X-136.866 Y46.73 Z-0.915
N6710 X-136.875 Y46.619 Z-0.913
N6715 X-136.897 Y46.514 Z-0.911
N6720 X-136.992 Y46.213 Z-0.906
N6725 X-137.057 Y45.945 Z-0.902
N6730 X-137.117 Y45.77 Z-0.898
N6735 X-137.196 Y45.537 Z-0.894
N6740 X-137.268 Y45.353 Z-0.891
N6745 X-137.406 Y45.029 Z-0.885
N6750 X-137.462 Y44.863 Z-0.882
N6755 X-137.505 Y44.685 Z-0.879
N6760 X-137.528 Y44.545 Z-0.877
N6765 X-137.67 Y43.542 Z-0.866
N6770 X-137.761 Y42.987 Z-0.861
N6775 X-137.833 Y42.599 Z-0.857
N6780 X-137.864 Y42.296 Z-0.854
N6785 X-137.869 Y42.095 Z-0.853
N6790 X-137.855 Y41.811 Z-0.851
N6795 X-137.777 Y41.147 Z-0.847
N6800 X-137.73 Y40.703 Z-0.844
N6805 X-137.598 Y39.694 Z-0.84
N6810 X-137.453 Y38.772 Z-0.837
N6815 X-137.284 Y37.848 Z-0.834
N6820 X-137.12 Y37.06
N6825 X-136.87 Y35.995
N6830 X-136.614 Y35.052 Z-0.836
N6835 X-136.493 Y34.626 Z-0.837
N6840 X-136.064 Y33.258 Z-0.843
N6845 X-135.651 Y32.061 Z-0.85
N6850 X-135.43 Y31.455 Z-0.854
N6855 X-135.002 Y30.344 Z-0.863
N6860 X-134.695 Y29.601 Z-0.87
N6865 X-134.38 Y28.87 Z-0.879
N6870 X-134.155 Y28.368 Z-0.887
N6875 X-133.811 Y27.643 Z-0.898
N6880 X-133.484 Y26.986 Z-0.909
N6885 X-133.115 Y26.288 Z-0.921
N6890 X-132.705 Y25.554 Z-0.933
N6895 X-132.295 Y24.864 Z-0.946
N6900 X-131.96 Y24.329 Z-0.957
N6905 X-131.621 Y23.812 Z-0.968
N6910 X-131.314 Y23.364 Z-0.979
N6915 X-130.913 Y22.803 Z-0.996
N6920 X-130.514 Y22.271 Z-1.012
N6925 X-130.099 Y21.762 Z-1.028
N6930 X-129.768 Y21.376 Z-1.041
N6935 X-129.247 Y20.806 Z-1.06
N6940 X-128.866 Y20.413 Z-1.074
N6945 X-128.353 Y19.915 Z-1.092
N6950 X-128.003 Y19.593 Z-1.104
N6955 X-127.656 Y19.294 Z-1.117
N6960 X-127.241 Y18.952 Z-1.134
N6965 X-126.817 Y18.62 Z-1.152
N6970 X-126.386 Y18.299 Z-1.17
N6975 X-125.948 Y17.99 Z-1.187
N6980 X-125.625 Y17.777 Z-1.2
N6985 X-124.786 Y17.259 Z-1.232
N6990 X-124.239 Y16.943 Z-1.253
N6995 X-123.95 Y16.791 Z-1.263
N7000 X-123.301 Y16.459 Z-1.287
N7005 X-122.912 Y16.275 Z-1.303
N7010 X-121.973 Y15.861 Z-1.342
N7015 X-121.434 Y15.649 Z-1.363
N7020 X-120.635 Y15.36 Z-1.395
N7025 X-119.831 Y15.093 Z-1.427
N7030 X-119.134 Y14.885 Z-1.455
N7035 X-118.337 Y14.674 Z-1.488
N7040 X-117.78 Y14.541 Z-1.511
N7045 X-117.082 Y14.388 Z-1.541
N7050 X-116.241 Y14.226 Z-1.576
N7055 X-115.38 Y14.085 Z-1.613
N7060 X-114.455 Y13.959 Z-1.654
N7065 X-113.663 Y13.876 Z-1.688
N7070 X-112.771 Y13.805 Z-1.728
N7075 X-111.862 Y13.756 Z-1.769
N7080 X-110.939 Y13.73 Z-1.811
N7085 X-110.118 Y13.731 Z-1.849
N7090 X-108.903 Y13.768 Z-1.906
N7095 X-108.008 Y13.826 Z-1.948
N7100 X-107.056 Y13.914 Z-1.994
N7105 X-106.605 Y13.967 Z-2.016
N7110 X-105.579 Y14.11 Z-2.065
N7115 X-104.869 Y14.236 Z-2.1
N7120 X-104.009 Y14.416 Z-2.142
N7125 X-103.106 Y14.629 Z-2.187
N7130 X-102.459 Y14.814 Z-2.22
N7135 X-101.621 Y15.077 Z-2.262
N7140 X-100.793 Y15.362 Z-2.304
N7145 X-100.297 Y15.553 Z-2.33
N7150 X-99.245 Y16.011 Z-2.384
N7155 X-98.794 Y16.231 Z-2.408
N7160 X-97.704 Y16.813 Z-2.465
N7165 X-97.162 Y17.153 Z-2.494
N7170 X-96.362 Y17.663 Z-2.537
N7175 X-95.818 Y18.053 Z-2.566
N7180 X-95.101 Y18.605 Z-2.605
N7185 X-94.721 Y18.925 Z-2.626
N7190 X-94.137 Y19.448 Z-2.658
N7195 X-93.558 Y19.999 Z-2.69
N7200 X-93.007 Y20.557 Z-2.72
N7205 X-92.459 Y21.144 Z-2.751
N7210 X-91.933 Y21.744 Z-2.781
N7215 X-91.434 Y22.349 Z-2.809
N7220 X-91.015 Y22.885 Z-2.833
N7225 X-90.224 Y24 Z-2.879
N7230 X-89.37 Y25.331 Z-2.93
N7235 X-88.909 Y26.111 Z-2.958
N7240 X-88.492 Y26.858 Z-2.984
N7245 X-87.835 Y28.171 Z-3.027
N7250 X-87.553 Y28.736 Z-3.045
N7255 X-86.694 Y30.715 Z-3.103
N7260 X-86.264 Y31.864 Z-3.135
N7265 X-85.964 Y32.675 Z-3.157
N7270 X-85.661 Y33.596 Z-3.181
N7275 X-85.371 Y34.548 Z-3.205
N7280 X-85.101 Y35.519 Z-3.229
N7285 X-84.882 Y36.387 Z-3.249
N7290 X-84.678 Y37.294 Z-3.269
N7295 X-84.515 Y38.119 Z-3.286
N7300 X-84.379 Y38.927 Z-3.302
N7305 X-84.269 Y39.716 Z-3.317
N7310 X-84.179 Y40.525 Z-3.331
N7315 X-84.113 Y41.328 Z-3.344
N7320 X-84.06 Y42.191 Z-3.357
N7325 X-84.023 Y43.098 Z-3.369
N7330 X-83.966 Y44.103 Z-3.381
N7335 X-83.91 Y44.833 Z-3.386
N7340 X-83.856 Y45.282 Z-3.383
N7345 X-83.81 Y45.546 Z-3.382
N7350 X-83.738 Y45.858 Z-3.381
N7355 X-83.659 Y46.146 Z-3.38
N7360 X-83.553 Y46.441 Z-3.381
N7365 X-83.47 Y46.656 Z-3.383
N7370 X-83.368 Y46.932 Z-3.388
N7375 X-83.279 Y47.232 Z-3.4
N7380 X-83.156 Y47.645 Z-3.417
N7385 X-83.017 Y48.082 Z-3.437
N7390 X-82.931 Y48.391 Z-3.45
N7395 X-82.831 Y48.768 Z-3.465
N7400 X-82.745 Y49.057 Z-3.477
N7405 X-82.719 Y49.191 Z-3.482
N7410 X-82.707 Y49.344 Z-3.486
N7415 X-82.715 Y49.528 Z-3.489
N7420 X-82.747 Y49.701 Z-3.49
N7425 X-82.786 Y49.829 Z-3.489
N7430 X-82.853 Y49.983 Z-3.487
N7435 X-82.934 Y50.12 Z-3.483
N7440 X-83.024 Y50.239 Z-3.478
N7445 X-83.146 Y50.364 Z-3.47
N7450 X-83.262 Y50.458 Z-3.463
N7455 X-83.683 Y50.757 Z-3.434
N7460 X-84.01 Y50.965 Z-3.412
N7465 X-84.367 Y51.174 Z-3.388
N7470 X-84.695 Y51.341 Z-3.365
N7475 X-85.069 Y51.526 Z-3.339
N7480 X-85.34 Y51.643 Z-3.319
N7485 X-85.709 Y51.781 Z-3.293
N7490 X-86.009 Y51.902 Z-3.272
N7495 X-86.223 Y51.986 Z-3.256
N7500 X-86.471 Y52.103 Z-3.239
N7505 X-86.69 Y52.215 Z-3.225
N7510 X-86.914 Y52.342 Z-3.21
N7515 X-87.267 Y52.56 Z-3.188
N7520 X-87.762 Y52.849 Z-3.157
N7525 X-88.187 Y53.085 Z-3.13
N7530 X-88.842 Y53.43 Z-3.09
N7535 X-89.326 Y53.665 Z-3.06
N7540 X-90.403 Y54.14 Z-2.993
N7545 X-91.208 Y54.471 Z-2.943
N7550 X-92.023 Y54.78 Z-2.894
N7555 X-92.849 Y55.068 Z-2.844
N7560 X-93.735 Y55.353 Z-2.79
N7565 X-94.632 Y55.612 Z-2.737
N7570 X-95.708 Y55.898 Z-2.673
N7575 X-96.774 Y56.156 Z-2.612
N7580 X-97.829 Y56.389 Z-2.551
N7585 X-98.42 Y56.507 Z-2.518
N7590 X-100.583 Y56.893 Z-2.398
N7595 X-101.729 Y57.063 Z-2.335
N7600 X-103.216 Y57.253 Z-2.256
N7605 X-104.367 Y57.373 Z-2.196
N7610 X-105.467 Y57.465 Z-2.14
N7615 X-106.517 Y57.531 Z-2.087
N7620 X-107.525 Y57.573 Z-2.037
N7625 X-108.55 Y57.594 Z-1.987
N7630 X-109.56 Y57.592 Z-1.939
N7635 X-110.6 Y57.567 Z-1.889
N7640 X-111.613 Y57.52 Z-1.842
N7645 X-112.656 Y57.45 Z-1.794
N7650 X-113.408 Y57.387 Z-1.76
N7655 X-114.355 Y57.291 Z-1.718
N7660 X-115.521 Y57.152 Z-1.668
N7665 X-116.214 Y57.055 Z-1.638
N7670 X-118.721 Y56.651 Z-1.534
N7675 X-121.298 Y56.125 Z-1.434
N7680 X-122.125 Y55.93 Z-1.404
N7685 X-123.346 Y55.625 Z-1.36
N7690 X-124.175 Y55.398 Z-1.331
N7695 X-124.954 Y55.172 Z-1.302
N7700 X-125.583 Y54.98 Z-1.28
N7705 X-126.205 Y54.78 Z-1.26
N7710 X-126.901 Y54.549 Z-1.237
N7715 X-127.623 Y54.29 Z-1.214
N7720 X-128.38 Y54.006 Z-1.19
N7725 X-129.279 Y53.648 Z-1.162
N7730 X-130.043 Y53.327 Z-1.139
N7735 X-130.909 Y52.936 Z-1.111
N7740 X-131.591 Y52.617 Z-1.093
N7745 X-132.424 Y52.217 Z-1.071
N7750 X-132.855 Y52.002 Z-1.06
N7755 X-133.253 Y51.793 Z-1.049
N7760 X-133.508 Y51.637 Z-1.042
N7765 X-133.709 Y51.493 Z-1.036
N7770 X-133.926 Y51.311 Z-1.029
N7775 X-134.282 Y50.972 Z-1.017
N7780 X-134.536 Y50.747 Z-1.008
N7785 X-134.653 Y50.634 Z-1.004
N7790 X-134.759 Y50.553 Z-1.001
N7795 X-134.873 Y50.49 Z-0.998
N7800 X-134.995 Y50.446 Z-0.995
N7805 X-135.128 Y50.419 Z-0.992
N7810 X-135.274 Y50.413 Z-0.99
N7815 X-135.433 Y50.435 Z-0.988
N7820 X-135.55 Y50.471 Z-0.987
N7825 X-135.668 Y50.527 Z-0.986
N7830 X-136.177 Y50.816 Z-0.984
N7835 X-136.379 Y50.947
N7840 X-136.502 Y51.034
N7845 X-136.743 Y51.171
N7850 X-137.149 Y51.367 Z-0.983
N7855 X-137.493 Y51.5 Z-0.981
N7860 X-137.753 Y51.581 Z-0.98
N7865 X-138.349 Y51.738 Z-0.976
N7870 X-139.001 Y51.925 Z-0.972
N7875 X-140.513 Y52.345 Z-0.968
N7880 X-142.163 Y52.691 Z-0.964
N7885 X-143.636 Y52.892 Z-0.96
N7890 X-144.882 Y52.977 Z-0.958
N7895 X-145.892 Y52.991 Z-0.956
N7900 X-147.256 Y52.962 Z-0.954
N7905 X-148.011 Y52.966
N7910 X-149.107 Y52.996 Z-0.956
N7915 X-150.12 Y52.985 Z-0.958
N7920 X-150.922 Y52.938 Z-0.959
N7925 X-151.457 Y52.893 Z-0.961
N7930 X-151.877 Y52.848 Z-0.962
N7935 X-153.464 Y52.593 Z-0.966
N7940 X-154.506 Y52.364 Z-0.968
N7945 X-156.346 Y51.864 Z-0.975
N7950 X-156.75 Y51.737 Z-0.977
N7955 X-157.131 Y51.633 Z-0.979
N7960 X-157.41 Y51.57 Z-0.981
N7965 X-157.667 Y51.493 Z-0.983
N7970 X-157.905 Y51.399 Z-0.984
N7975 X-158.31 Y51.201 Z-0.985
N7980 X-158.428 Y51.138 Z-0.986
N7985 X-158.645 Y50.995
N7990 X-158.856 Y50.859
N7995 X-159.352 Y50.585 Z-0.988
N8000 X-159.474 Y50.53
N8005 X-159.603 Y50.494 Z-0.989
N8010 X-159.719 Y50.48 Z-0.991
N8015 X-159.836 Y50.482 Z-0.993
N8020 X-159.912 Y50.492 Z-0.994
N8025 X-160.049 Y50.528 Z-0.997
N8030 X-160.162 Y50.577 Z-1
N8035 X-160.259 Y50.637 Z-1.003
N8040 X-160.316 Y50.681 Z-1.004
N8045 X-160.522 Y50.857 Z-1.011
N8050 X-160.672 Y51.016 Z-1.017
N8055 X-160.737 Y51.076 Z-1.019
N8060 X-160.921 Y51.264 Z-1.026
N8065 X-160.999 Y51.364 Z-1.029
N8070 X-161.08 Y51.447 Z-1.032
N8075 X-161.15 Y51.504 Z-1.034
N8080 X-161.433 Y51.703 Z-1.043
N8085 X-161.605 Y51.806 Z-1.047
N8090 X-162.208 Y52.116 Z-1.063
N8095 X-162.647 Y52.334 Z-1.075
N8100 X-163.738 Y52.858 Z-1.103
N8105 X-164.25 Y53.094 Z-1.117
N8110 X-165.047 Y53.454 Z-1.144
N8115 X-165.737 Y53.745 Z-1.166
N8120 X-166.449 Y54.031 Z-1.187
N8125 X-167.424 Y54.402 Z-1.218
N8130 X-168.232 Y54.691 Z-1.244
N8135 X-169.146 Y54.994 Z-1.274
N8140 X-169.824 Y55.206 Z-1.296
N8145 X-170.652 Y55.452 Z-1.327
N8150 X-171.469 Y55.681 Z-1.357
N8155 X-172.147 Y55.856 Z-1.381
N8160 X-173.215 Y56.121 Z-1.42
N8165 X-173.789 Y56.252 Z-1.44
N8170 X-174.996 Y56.513 Z-1.486
N8175 X-175.812 Y56.674 Z-1.519
N8180 X-176.615 Y56.822 Z-1.551
N8185 X-178.915 Y57.19 Z-1.647
N8190 X-180.034 Y57.336 Z-1.695
N8195 X-180.819 Y57.426 Z-1.729
N8200 X-181.704 Y57.514 Z-1.768
N8205 X-182.541 Y57.583 Z-1.806
N8210 X-183.606 Y57.652 Z-1.855
N8215 X-184.68 Y57.698 Z-1.905
N8220 X-185.711 Y57.72 Z-1.954
N8225 X-186.788 Y57.718 Z-2.006
N8230 X-187.86 Y57.693 Z-2.059
N8235 X-188.987 Y57.641 Z-2.115
N8240 X-190.098 Y57.564 Z-2.172
N8245 X-191.272 Y57.459 Z-2.233
N8250 X-192.305 Y57.347 Z-2.287
N8255 X-193.658 Y57.175 Z-2.359
N8260 X-194.493 Y57.053 Z-2.405
N8265 X-196.92 Y56.635 Z-2.541
N8270 X-198.42 Y56.322 Z-2.627
N8275 X-199.442 Y56.084 Z-2.687
N8280 X-200.397 Y55.84 Z-2.743
N8285 X-201.413 Y55.558 Z-2.804
N8290 X-202.305 Y55.283 Z-2.858
N8295 X-203.222 Y54.976 Z-2.914
N8300 X-204.14 Y54.642 Z-2.971
N8305 X-204.829 Y54.375 Z-3.014
N8310 X-205.547 Y54.08 Z-3.06
N8315 X-206 Y53.885 Z-3.089
N8320 X-206.478 Y53.664 Z-3.119
N8325 X-207.195 Y53.312 Z-3.164
N8330 X-207.65 Y53.073 Z-3.193
N8335 X-208.157 Y52.795 Z-3.227
N8340 X-208.516 Y52.595 Z-3.251
N8345 X-208.761 Y52.475 Z-3.268
N8350 X-209.021 Y52.364 Z-3.286
N8355 X-209.233 Y52.284 Z-3.301
N8360 X-209.806 Y52.099 Z-3.342
N8365 X-210.141 Y51.992 Z-3.367
N8370 X-210.418 Y51.893 Z-3.387
N8375 X-210.722 Y51.77 Z-3.408
N8380 X-211.08 Y51.61 Z-3.434
N8385 X-211.402 Y51.453 Z-3.457
N8390 X-211.736 Y51.276 Z-3.48
N8395 X-212.062 Y51.089 Z-3.503
N8400 X-212.639 Y50.735 Z-3.543
N8405 X-212.761 Y50.656 Z-3.551
N8410 X-212.871 Y50.563 Z-3.558
N8415 X-212.957 Y50.464 Z-3.563
N8420 X-213.029 Y50.353 Z-3.567
N8425 X-213.084 Y50.232 Z-3.569
N8430 X-213.12 Y50.103 Z-3.57
N8435 X-213.137 Y49.97 Z-3.568
N8440 X-213.133 Y49.823 Z-3.565
N8445 X-213.107 Y49.687 Z-3.56
N8450 X-213.042 Y49.489 Z-3.551
N8455 X-212.632 Y48.3 Z-3.495
N8460 X-212.41 Y47.694 Z-3.466
N8465 X-212.181 Y47.084 Z-3.436
N8470 X-212.003 Y46.668 Z-3.414
N8475 X-211.88 Y46.39 Z-3.4
N8480 X-211.788 Y46.154 Z-3.391
N8485 X-211.694 Y45.876 Z-3.389
N8490 X-211.589 Y45.488 Z-3.388
N8495 X-211.535 Y45.225 Z-3.389
N8500 X-211.474 Y44.803 Z-3.39
N8505 X-211.4 Y44.066 Z-3.383
N8510 X-211.311 Y42.886 Z-3.37
N8515 X-211.269 Y42.063 Z-3.359
N8520 X-211.192 Y40.98 Z-3.343
N8525 X-211.107 Y40.116 Z-3.328
N8530 X-210.996 Y39.257 Z-3.313
N8535 X-210.863 Y38.42 Z-3.297
N8540 X-210.715 Y37.63 Z-3.281
N8545 X-210.522 Y36.733 Z-3.262
N8550 X-210.304 Y35.83 Z-3.242
N8555 X-210.048 Y34.881 Z-3.22
N8560 X-209.769 Y33.929 Z-3.196
N8565 X-209.457 Y32.95 Z-3.172
N8570 X-209.148 Y32.05 Z-3.148
N8575 X-208.597 Y30.589 Z-3.108
N8580 X-207.742 Y28.599 Z-3.05
N8585 X-206.817 Y26.725 Z-2.991
N8590 X-206.423 Y26.009 Z-2.967
N8595 X-205.964 Y25.22 Z-2.939
N8600 X-205.329 Y24.213 Z-2.902
N8605 X-205.054 Y23.781 Z-2.885
N8610 X-204.188 Y22.559 Z-2.836
N8615 X-203.63 Y21.842 Z-2.805
N8620 X-203.01 Y21.101 Z-2.77
N8625 X-202.539 Y20.571 Z-2.744
N8630 X-201.997 Y20.001 Z-2.715
N8635 X-201.503 Y19.513 Z-2.688
N8640 X-200.959 Y19.014 Z-2.659
N8645 X-200.25 Y18.401 Z-2.621
N8650 X-199.629 Y17.913 Z-2.588
N8655 X-199.092 Y17.514 Z-2.56
N8660 X-198.775 Y17.293 Z-2.544
N8665 X-197.845 Y16.697 Z-2.495
N8670 X-197.462 Y16.461 Z-2.475
N8675 X-196.433 Y15.908 Z-2.422
N8680 X-195.935 Y15.662 Z-2.397
N8685 X-195.1 Y15.293 Z-2.354
N8690 X-194.619 Y15.092 Z-2.33
N8695 X-193.735 Y14.771 Z-2.286
N8700 X-193.313 Y14.624 Z-2.265
N8705 X-192.032 Y14.245 Z-2.201
N8710 X-191.05 Y14.009 Z-2.153
N8715 X-190.199 Y13.829 Z-2.112
N8720 X-189.489 Y13.701 Z-2.078
N8725 X-189.056 Y13.637 Z-2.056
N8730 X-188.218 Y13.521 Z-2.017
N8735 X-186.353 Y13.356 Z-1.929
N8740 X-184.791 Y13.303 Z-1.856
N8745 X-184.273 Y13.3 Z-1.833
N8750 X-183.565 Y13.313 Z-1.8
N8755 X-182.913 Y13.337 Z-1.77
N8760 X-182.197 Y13.377 Z-1.738
N8765 X-181.501 Y13.43 Z-1.707
N8770 X-180.857 Y13.49 Z-1.679
N8775 X-180.227 Y13.565 Z-1.652
N8780 X-179.537 Y13.662 Z-1.622
N8785 X-178.886 Y13.767 Z-1.595
N8790 X-178.186 Y13.895 Z-1.565
N8795 X-177.532 Y14.029 Z-1.537
N8800 X-176.945 Y14.162 Z-1.51
N8805 X-176.322 Y14.316 Z-1.485
N8810 X-175.61 Y14.508 Z-1.457
N8815 X-174.894 Y14.728 Z-1.429
N8820 X-174.137 Y14.982 Z-1.399
N8825 X-173.568 Y15.187 Z-1.376
N8830 X-173.021 Y15.395 Z-1.354
N8835 X-172.693 Y15.533 Z-1.34
N8840 X-171.88 Y15.89 Z-1.305
N8845 X-171.499 Y16.07 Z-1.289
N8850 X-170.886 Y16.378 Z-1.267
N8855 X-170.538 Y16.563 Z-1.254
N8860 X-170.104 Y16.809 Z-1.238
N8865 X-169.601 Y17.111 Z-1.219
N8870 X-169.101 Y17.419 Z-1.2
N8875 X-168.752 Y17.65 Z-1.186
N8880 X-168.221 Y18.024 Z-1.165
N8885 X-167.789 Y18.345 Z-1.147
N8890 X-167.365 Y18.676 Z-1.13
N8895 X-166.939 Y19.026 Z-1.112
N8900 X-166.586 Y19.329 Z-1.1
N8905 X-165.991 Y19.881 Z-1.079
N8910 X-165.498 Y20.371 Z-1.062
N8915 X-165.046 Y20.848 Z-1.045
N8920 X-164.616 Y21.328 Z-1.029
N8925 X-164.18 Y21.849 Z-1.012
N8930 X-163.775 Y22.363 Z-0.996
N8935 X-163.353 Y22.928 Z-0.979
N8940 X-162.952 Y23.497 Z-0.964
N8945 X-162.506 Y24.167 Z-0.95
N8950 X-162.058 Y24.877 Z-0.935
N8955 X-161.666 Y25.548 Z-0.923
N8960 X-161.274 Y26.262 Z-0.911
N8965 X-160.856 Y27.063 Z-0.898
N8970 X-160.476 Y27.827 Z-0.885
N8975 X-160.169 Y28.472 Z-0.875
N8980 X-159.86 Y29.151 Z-0.867
N8985 X-159.464 Y30.063 Z-0.858
N8990 X-158.919 Y31.41 Z-0.846
N8995 X-158.473 Y32.59 Z-0.838
N9000 X-158.08 Y33.698 Z-0.832
N9005 X-157.662 Y34.962 Z-0.827
N9010 X-157.429 Y35.732 Z-0.825
N9015 X-157.142 Y36.766 Z-0.824
N9020 X-156.896 Y37.758 Z-0.825
N9025 X-156.697 Y38.665 Z-0.827
N9030 X-156.517 Y39.604 Z-0.83
N9035 X-156.355 Y40.567 Z-0.834
N9040 X-156.189 Y41.56 Z-0.839
N9045 X-156.1 Y42.039 Z-0.842
N9050 X-156.088 Y42.173 Z-0.843
N9055 X-156.092 Y42.307 Z-0.844
N9060 X-156.122 Y42.493 Z-0.846
N9065 X-156.274 Y43.046 Z-0.852
N9070 X-156.351 Y43.412 Z-0.856
N9075 X-156.502 Y44.289 Z-0.865
N9080 X-156.568 Y44.72 Z-0.87
N9085 X-156.622 Y44.935 Z-0.872
N9090 X-156.699 Y45.144 Z-0.876
N9095 X-156.797 Y45.345 Z-0.879
N9100 X-156.913 Y45.563 Z-0.884
N9105 X-156.976 Y45.718 Z-0.887
N9110 X-157.065 Y46.005 Z-0.892
N9115 X-157.089 Y46.121 Z-0.894
N9120 X-157.099 Y46.205 Z-0.895
N9125 X-157.101 Y46.289 Z-0.896
N9130 X-157.096 Y46.383 Z-0.898
N9135 X-157.083 Y46.476 Z-0.899
N9140 X-157.058 Y46.584 Z-0.9
N9145 X-156.997 Y46.743 Z-0.902
N9150 X-156.909 Y46.895 Z-0.903
N9155 X-156.803 Y47.024
N9160 X-156.669 Y47.143 Z-0.904
N9165 X-155.852 Y47.757
N9170 X-155.507 Y48.067
N9175 X-155.002 Y48.517 Z-0.905
N9180 X-154.719 Y48.752 Z-0.906
N9185 X-154.41 Y48.984 Z-0.907
N9190 X-154.166 Y49.152 Z-0.908
N9195 X-153.896 Y49.32 Z-0.91
N9200 X-153.615 Y49.478 Z-0.912
N9205 X-153.246 Y49.66 Z-0.914
N9210 X-153 Y49.763 Z-0.916
N9215 X-152.618 Y49.912 Z-0.918
N9220 X-151.68 Y50.174 Z-0.924
N9225 X-150.976 Y50.296 Z-0.928
N9230 X-150.712 Y50.326 Z-0.927
N9235 X-149.911 Y50.383
N9240 X-149.232 Y50.384
N9245 X-148.583 Y50.371
N9250 X-147.51 Y50.353
N9255 X-146.438 Y50.368
N9260 X-145.881 Y50.378
N9265 X-145.156 Y50.379
N9270 X-144.624 Y50.343
N9275 X-144.11 Y50.298 Z-0.928
N9280 X-143.754 Y50.232 Z-0.927
N9285 X-143.037 Y50.093 Z-0.922
N9290 X-142.385 Y49.896 Z-0.918
N9295 X-141.88 Y49.696 Z-0.915
N9300 X-141.52 Y49.522 Z-0.912
N9305 X-141.288 Y49.4 Z-0.911
N9310 X-140.998 Y49.228 Z-0.909
N9315 X-140.708 Y49.036 Z-0.907
N9320 X-140.401 Y48.809 Z-0.906
N9325 X-140.14 Y48.598 Z-0.904
N9330 X-139.56 Y48.078 Z-0.903
N9335 X-139.182 Y47.729
N9340 X-138.491 Y47.194
N9345 X-138.342 Y47.059 Z-0.902
N9350 X-138.255 Y46.957
N9355 X-138.18 Y46.846 Z-0.901
N9360 X-138.103 Y46.697 Z-0.9
N9365 X-138.038 Y46.507 Z-0.898
N9370 X-138.007 Y46.342 Z-0.896
N9375 X-137.999 Y46.166 Z-0.893
N9380 X-138.016 Y45.985 Z-0.891
N9385 X-138.042 Y45.867 Z-0.889
N9390 X-138.095 Y45.708 Z-0.886
N9395 X-138.18 Y45.526 Z-0.882
N9400 X-138.326 Y45.261 Z-0.877
N9405 X-138.394 Y45.108 Z-0.874
N9410 X-138.47 Y44.888 Z-0.871
N9415 X-138.514 Y44.703 Z-0.869
N9420 X-138.639 Y43.938 Z-0.861
N9425 X-138.782 Y43.204 Z-0.853
N9430 X-138.886 Y42.805 Z-0.849
N9435 X-138.96 Y42.542 Z-0.846
N9440 X-138.994 Y42.322 Z-0.844
N9445 X-139 Y42.142 Z-0.842
N9450 X-138.992 Y42.008 Z-0.841
N9455 X-138.965 Y41.836 Z-0.84
N9460 X-138.865 Y41.308 Z-0.837
N9465 X-138.659 Y40.009 Z-0.83
N9470 X-138.494 Y39.085 Z-0.827
N9475 X-138.293 Y38.106 Z-0.824
N9480 X-138.079 Y37.199
N9485 X-137.8 Y36.14
N9490 X-137.498 Y35.11 Z-0.826
N9495 X-137.181 Y34.14 Z-0.829
N9500 X-136.918 Y33.355 Z-0.832
N9505 X-136.491 Y32.17 Z-0.839
N9510 X-136.129 Y31.224 Z-0.846
N9515 X-135.613 Y29.95 Z-0.858
N9520 X-135.145 Y28.874 Z-0.869
N9525 X-134.838 Y28.203 Z-0.877
N9530 X-134.511 Y27.514 Z-0.888
N9535 X-134.184 Y26.864 Z-0.898
N9540 X-133.732 Y26.009 Z-0.912
N9545 X-133.362 Y25.343 Z-0.924
N9550 X-133.016 Y24.754 Z-0.935
N9555 X-132.578 Y24.058 Z-0.949
N9560 X-132.29 Y23.619 Z-0.959
N9565 X-131.951 Y23.125 Z-0.97
N9570 X-131.588 Y22.621 Z-0.984
N9575 X-131.207 Y22.118 Z-1
N9580 X-130.851 Y21.672 Z-1.014
N9585 X-130.487 Y21.238 Z-1.028
N9590 X-130.043 Y20.74 Z-1.045
N9595 X-129.646 Y20.319 Z-1.06
N9600 X-129.245 Y19.915 Z-1.074
N9605 X-128.822 Y19.511 Z-1.089
N9610 X-128.424 Y19.148 Z-1.102
N9615 X-128.131 Y18.897 Z-1.112
N9620 X-127.743 Y18.578 Z-1.129
N9625 X-127.32 Y18.246 Z-1.147
N9630 X-126.889 Y17.923 Z-1.164
N9635 X-126.451 Y17.611 Z-1.182
N9640 X-126.059 Y17.346 Z-1.197
N9645 X-125.719 Y17.131 Z-1.21
N9650 X-125.099 Y16.753 Z-1.234
N9655 X-124.636 Y16.485 Z-1.251
N9660 X-124.249 Y16.275 Z-1.266
N9665 X-123.772 Y16.031 Z-1.283
N9670 X-123.348 Y15.823 Z-1.3
N9675 X-122.955 Y15.642 Z-1.316
N9680 X-122.145 Y15.288 Z-1.351
N9685 X-121.718 Y15.119 Z-1.369
N9690 X-121.088 Y14.885 Z-1.395
N9695 X-120.458 Y14.666 Z-1.42
N9700 X-119.808 Y14.454 Z-1.446
N9705 X-119.17 Y14.265 Z-1.471
N9710 X-118.278 Y14.031 Z-1.506
N9715 X-117.672 Y13.887 Z-1.533
N9720 X-117.03 Y13.748 Z-1.562
N9725 X-116.389 Y13.623 Z-1.589
N9730 X-115.535 Y13.477 Z-1.625
N9735 X-114.604 Y13.344 Z-1.665
N9740 X-114.066 Y13.281 Z-1.688
N9745 X-113.361 Y13.214 Z-1.719
N9750 X-112.641 Y13.16 Z-1.75
N9755 X-112.052 Y13.126 Z-1.777
N9760 X-111.323 Y13.097 Z-1.812
N9765 X-110.654 Y13.082 Z-1.843
N9770 X-110.287 Y13.083 Z-1.86
N9775 X-108.633 Y13.131 Z-1.936
N9780 X-106.896 Y13.275 Z-2.017
N9785 X-106.607 Y13.309 Z-2.031
N9790 X-105.263 Y13.501 Z-2.097
N9795 X-104.769 Y13.59 Z-2.12
N9800 X-104.116 Y13.724 Z-2.152
N9805 X-103.471 Y13.869 Z-2.183
N9810 X-102.909 Y14.006 Z-2.211
N9815 X-101.994 Y14.267 Z-2.255
N9820 X-101.391 Y14.455 Z-2.285
N9825 X-100.395 Y14.812 Z-2.335
N9830 X-99.921 Y15.002 Z-2.358
N9835 X-99.002 Y15.402 Z-2.404
N9840 X-98.476 Y15.657 Z-2.431
N9845 X-97.507 Y16.171 Z-2.48
N9850 X-97.283 Y16.298 Z-2.491
N9855 X-96.327 Y16.897 Z-2.54
N9860 X-95.843 Y17.216 Z-2.565
N9865 X-95.358 Y17.571 Z-2.59
N9870 X-94.817 Y17.988 Z-2.618
N9875 X-94.233 Y18.47 Z-2.648
N9880 X-93.653 Y18.98 Z-2.679
N9885 X-93.102 Y19.497 Z-2.708
N9890 X-92.556 Y20.045 Z-2.737
N9895 X-92.051 Y20.584 Z-2.764
N9900 X-91.553 Y21.151 Z-2.791
N9905 X-91.051 Y21.756 Z-2.818
N9910 X-90.708 Y22.2 Z-2.837
N9915 X-90.067 Y23.054 Z-2.872
N9920 X-89.179 Y24.381 Z-2.923
N9925 X-88.627 Y25.289 Z-2.955
N9930 X-88.2 Y26.032 Z-2.98
N9935 X-87.804 Y26.765 Z-3.004
N9940 X-87.505 Y27.36 Z-3.023
N9945 X-86.959 Y28.473 Z-3.057
N9950 X-86.096 Y30.467 Z-3.115
N9955 X-85.543 Y31.909 Z-3.154
N9960 X-85.186 Y32.933 Z-3.18
N9965 X-84.86 Y33.942 Z-3.206
N9970 X-84.558 Y34.951 Z-3.23
N9975 X-84.304 Y35.872 Z-3.252
N9980 X-84.129 Y36.579 Z-3.267
N9985 X-83.935 Y37.402 Z-3.285
N9990 X-83.761 Y38.263 Z-3.302
N9995 X-83.611 Y39.121 Z-3.318
N10000 X-83.487 Y39.966 Z-3.333
N10005 X-83.389 Y40.79 Z-3.347
N10010 X-83.314 Y41.59 Z-3.359
N10015 X-83.205 Y42.97 Z-3.377
N10020 X-83.091 Y44.002 Z-3.388
N10025 X-82.985 Y44.729 Z-3.395
N10030 X-82.92 Y45.105 Z-3.397
N10035 X-82.864 Y45.357 Z-3.406
N10040 X-82.795 Y45.584 Z-3.415
N10045 X-82.73 Y45.756 Z-3.423
N10050 X-82.625 Y45.981 Z-3.435
N10055 X-82.468 Y46.263 Z-3.452
N10060 X-82.246 Y46.629 Z-3.477
N10065 X-82.069 Y46.947 Z-3.497
N10070 X-81.917 Y47.245 Z-3.515
N10075 X-81.716 Y47.671 Z-3.539
N10080 X-81.534 Y48.104 Z-3.561
N10085 X-81.468 Y48.254 Z-3.569
N10090 X-81.331 Y48.578 Z-3.586
N10095 X-81.264 Y48.724 Z-3.595
N10100 X-81.187 Y48.911 Z-3.605
N10105 X-81.127 Y49.033 Z-3.612
N10110 X-81.035 Y49.188 Z-3.622
N10115 X-80.925 Y49.338 Z-3.634
N10120 X-80.811 Y49.48 Z-3.646
N10125 X-80.727 Y49.615 Z-3.656
N10130 X-80.671 Y49.732 Z-3.663
N10135 X-80.624 Y49.862 Z-3.67
N10140 X-80.584 Y50.031 Z-3.677
N10145 X-80.568 Y50.189 Z-3.681
N10150 X-80.569 Y50.327 Z-3.684
N10155 X-80.592 Y50.511 Z-3.686
N10160 X-80.647 Y50.704 Z-3.685
N10165 X-80.714 Y50.858 Z-3.683
N10170 X-80.793 Y50.991 Z-3.679
N10175 X-80.875 Y51.1 Z-3.674
N10180 X-80.993 Y51.224 Z-3.666
N10185 X-81.124 Y51.331 Z-3.657
N10190 X-81.214 Y51.39 Z-3.651
N10195 X-81.689 Y51.67 Z-3.618
N10200 X-82.111 Y51.904 Z-3.588
N10205 X-82.551 Y52.131 Z-3.558
N10210 X-82.985 Y52.345 Z-3.527
N10215 X-83.29 Y52.477 Z-3.505
N10220 X-83.559 Y52.581 Z-3.486
N10225 X-83.841 Y52.674 Z-3.465
N10230 X-84.121 Y52.754 Z-3.445
N10235 X-84.399 Y52.819 Z-3.424
N10240 X-84.718 Y52.88 Z-3.4
N10245 X-85.149 Y52.95 Z-3.367
N10250 X-85.321 Y52.988 Z-3.354
N10255 X-85.52 Y53.046 Z-3.339
N10260 X-85.744 Y53.126 Z-3.323
N10265 X-85.965 Y53.221 Z-3.308
N10270 X-86.396 Y53.432 Z-3.278
N10275 X-87.987 Y54.181 Z-3.172
N10280 X-88.538 Y54.416 Z-3.137
N10285 X-89.085 Y54.636 Z-3.102
N10290 X-89.974 Y54.97 Z-3.045
N10295 X-90.666 Y55.217 Z-3.002
N10300 X-91.323 Y55.439 Z-2.961
N10305 X-91.982 Y55.649 Z-2.92
N10310 X-92.679 Y55.857 Z-2.876
N10315 X-93.505 Y56.088 Z-2.825
N10320 X-94.252 Y56.285 Z-2.779
N10325 X-95.042 Y56.48 Z-2.731
N10330 X-95.852 Y56.668 Z-2.683
N10335 X-96.636 Y56.837 Z-2.638
N10340 X-99.023 Y57.287 Z-2.501
N10345 X-101.108 Y57.605 Z-2.385
N10350 X-102.702 Y57.8 Z-2.299
N10355 X-103.589 Y57.892 Z-2.252
N10360 X-104.53 Y57.975 Z-2.203
N10365 X-105.458 Y58.044 Z-2.156
N10370 X-106.317 Y58.094 Z-2.113
N10375 X-107.204 Y58.13 Z-2.068
N10380 X-107.85 Y58.147 Z-2.037
N10385 X-109.135 Y58.159 Z-1.975
N10390 X-109.875 Y58.151 Z-1.94
N10395 X-110.781 Y58.126 Z-1.898
N10400 X-111.648 Y58.09 Z-1.858
N10405 X-112.42 Y58.045 Z-1.823
N10410 X-113.324 Y57.978 Z-1.781
N10415 X-114.07 Y57.913 Z-1.748
N10420 X-114.973 Y57.822 Z-1.709
N10425 X-115.789 Y57.73 Z-1.675
N10430 X-117.073 Y57.55 Z-1.621
N10435 X-118.136 Y57.401 Z-1.579
N10440 X-119.572 Y57.156 Z-1.519
N10445 X-120.33 Y57.013 Z-1.489
N10450 X-121.243 Y56.829 Z-1.456
N10455 X-122.223 Y56.616 Z-1.421
N10460 X-123.088 Y56.414 Z-1.391
N10465 X-123.645 Y56.276 Z-1.371
N10470 X-124.447 Y56.063 Z-1.341
N10475 X-125.236 Y55.841 Z-1.312
N10480 X-125.863 Y55.655 Z-1.289
N10485 X-126.66 Y55.407 Z-1.264
N10490 X-127.391 Y55.162 Z-1.242
N10495 X-128.25 Y54.855 Z-1.216
N10500 X-128.978 Y54.582 Z-1.193
N10505 X-129.432 Y54.403 Z-1.178
N10510 X-131.371 Y53.583 Z-1.116
N10515 X-132.115 Y53.247 Z-1.097
N10520 X-132.808 Y52.937 Z-1.079
N10525 X-133.653 Y52.551 Z-1.058
N10530 X-133.926 Y52.424 Z-1.051
N10535 X-134.144 Y52.297 Z-1.045
N10540 X-134.333 Y52.164 Z-1.04
N10545 X-134.515 Y52.01 Z-1.034
N10550 X-134.683 Y51.844 Z-1.028
N10555 X-134.769 Y51.766 Z-1.025
N10560 X-134.893 Y51.682 Z-1.021
N10565 X-134.976 Y51.639 Z-1.019
N10570 X-135.1 Y51.593 Z-1.017
N10575 X-135.241 Y51.561 Z-1.014
N10580 X-135.324 Y51.553 Z-1.012
N10585 X-135.407 Y51.551 Z-1.011
N10590 X-135.51 Y51.559 Z-1.01
N10595 X-135.611 Y51.578 Z-1.009
N10600 X-135.739 Y51.618 Z-1.008
N10605 X-135.861 Y51.675 Z-1.007
N10610 X-136.043 Y51.787
N10615 X-136.257 Y51.893 Z-1.006
N10620 X-136.736 Y52.078 Z-1.004
N10625 X-137.057 Y52.176 Z-1.002
N10630 X-137.384 Y52.248 Z-0.999
N10635 X-137.699 Y52.298 Z-0.996
N10640 X-137.831 Y52.323 Z-0.995
N10645 X-137.961 Y52.355 Z-0.994
N10650 X-138.243 Y52.44 Z-0.993
N10655 X-140.788 Y53.009 Z-0.98
N10660 X-142.644 Y53.315 Z-0.973
N10665 X-143.824 Y53.441 Z-0.971
N10670 X-144.94 Y53.502 Z-0.968
N10675 X-145.893 Y53.515 Z-0.966
N10680 X-147.22 Y53.489 Z-0.964
N10685 X-148.014 Y53.492 Z-0.965
N10690 X-149.208 Y53.52 Z-0.967
N10695 X-150.116 Y53.507 Z-0.968
N10700 X-150.87 Y53.468 Z-0.97
N10705 X-151.672 Y53.405 Z-0.972
N10710 X-152.084 Y53.36 Z-0.973
N10715 X-153.859 Y53.096 Z-0.979
N10720 X-156.262 Y52.593 Z-0.991
N10725 X-156.949 Y52.428 Z-0.995
N10730 X-157.123 Y52.392 Z-0.996
N10735 X-157.623 Y52.301 Z-1
N10740 X-157.885 Y52.24 Z-1.002
N10745 X-158.207 Y52.146 Z-1.004
N10750 X-158.694 Y51.969 Z-1.007
N10755 X-158.818 Y51.918 Z-1.008
N10760 X-158.939 Y51.86
N10765 X-159.152 Y51.74 Z-1.009
N10770 X-159.307 Y51.676 Z-1.01
N10775 X-159.471 Y51.64 Z-1.011
N10780 X-159.627 Y51.632 Z-1.013
N10785 X-159.694 Y51.636 Z-1.014
N10790 X-159.782 Y51.648 Z-1.016
N10795 X-159.921 Y51.685 Z-1.019
N10800 X-160.064 Y51.747 Z-1.022
N10805 X-160.185 Y51.823 Z-1.026
N10810 X-160.274 Y51.897 Z-1.028
N10815 X-160.553 Y52.172 Z-1.038
N10820 X-160.686 Y52.284 Z-1.043
N10825 X-160.831 Y52.382 Z-1.047
N10830 X-160.94 Y52.442 Z-1.05
N10835 X-161.118 Y52.524 Z-1.054
N10840 X-161.715 Y52.794 Z-1.069
N10845 X-162.499 Y53.152 Z-1.088
N10850 X-163.094 Y53.422 Z-1.103
N10855 X-163.569 Y53.636 Z-1.116
N10860 X-164.896 Y54.203 Z-1.159
N10865 X-165.549 Y54.481 Z-1.18
N10870 X-166.17 Y54.725 Z-1.199
N10875 X-166.975 Y55.027 Z-1.225
N10880 X-168.002 Y55.389 Z-1.256
N10885 X-168.843 Y55.659 Z-1.282
N10890 X-169.419 Y55.835 Z-1.302
N10895 X-170.205 Y56.064 Z-1.331
N10900 X-170.972 Y56.275 Z-1.359
N10905 X-171.738 Y56.473 Z-1.387
N10910 X-172.975 Y56.763 Z-1.431
N10915 X-173.989 Y56.981 Z-1.467
N10920 X-174.882 Y57.16 Z-1.5
N10925 X-175.497 Y57.275 Z-1.525
N10930 X-178.204 Y57.709 Z-1.636
N10935 X-179.357 Y57.857 Z-1.684
N10940 X-180.3 Y57.962 Z-1.724
N10945 X-181.211 Y58.051 Z-1.763
N10950 X-182.014 Y58.118 Z-1.801
N10955 X-182.726 Y58.168 Z-1.834
N10960 X-183.864 Y58.23 Z-1.885
N10965 X-184.626 Y58.258 Z-1.921
N10970 X-185.03 Y58.263 Z-1.939
N10975 X-187.059 Y58.275 Z-2.036
N10980 X-187.876 Y58.255 Z-2.077
N10985 X-188.791 Y58.219 Z-2.123
N10990 X-189.694 Y58.17 Z-2.168
N10995 X-190.601 Y58.107 Z-2.215
N11000 X-191.469 Y58.034 Z-2.26
N11005 X-192.247 Y57.957 Z-2.301
N11010 X-194.671 Y57.657 Z-2.434
N11015 X-195.028 Y57.609 Z-2.454
N11020 X-197.709 Y57.165 Z-2.606
N11025 X-198.752 Y56.959 Z-2.667
N11030 X-199.605 Y56.778 Z-2.717
N11035 X-200.481 Y56.578 Z-2.769
N11040 X-201.278 Y56.385 Z-2.819
N11045 X-202.009 Y56.195 Z-2.865
N11050 X-202.914 Y55.945 Z-2.921
N11055 X-203.655 Y55.726 Z-2.967
N11060 X-204.408 Y55.49 Z-3.015
N11065 X-205.125 Y55.251 Z-3.06
N11070 X-205.974 Y54.955 Z-3.115
N11075 X-206.594 Y54.725 Z-3.155
N11080 X-207.133 Y54.513 Z-3.19
N11085 X-207.67 Y54.294 Z-3.226
N11090 X-208.699 Y53.841 Z-3.296
N11095 X-209.02 Y53.698 Z-3.318
N11100 X-209.247 Y53.61 Z-3.334
N11105 X-209.484 Y53.533 Z-3.352
N11110 X-209.782 Y53.458 Z-3.374
N11115 X-209.993 Y53.418 Z-3.39
N11120 X-210.388 Y53.361 Z-3.42
N11125 X-210.697 Y53.304 Z-3.443
N11130 X-210.999 Y53.235 Z-3.466
N11135 X-211.278 Y53.159 Z-3.487
N11140 X-211.581 Y53.062 Z-3.509
N11145 X-211.874 Y52.955 Z-3.53
N11150 X-212.114 Y52.857 Z-3.547
N11155 X-212.631 Y52.626 Z-3.584
N11160 X-212.977 Y52.469 Z-3.608
N11165 X-213.214 Y52.355 Z-3.625
N11170 X-213.35 Y52.284 Z-3.634
N11175 X-213.839 Y52.058 Z-3.67
N11180 X-214.24 Y51.876 Z-3.701
N11185 X-214.425 Y51.81 Z-3.716
N11190 X-214.584 Y51.766 Z-3.729
N11195 X-214.678 Y51.73 Z-3.737
N11200 X-214.787 Y51.674 Z-3.745
N11205 X-214.911 Y51.587 Z-3.754
N11210 X-215.001 Y51.503 Z-3.76
N11215 X-215.09 Y51.395 Z-3.766
N11220 X-215.165 Y51.269 Z-3.77
N11225 X-215.227 Y51.118 Z-3.772
N11230 X-215.261 Y50.969
N11235 X-215.403 Y50.013 Z-3.764
N11240 X-215.41 Y49.946
N11245 Y49.879 Z-3.762
N11250 X-215.398 Y49.779 Z-3.759
N11255 X-215.37 Y49.677 Z-3.755
N11260 X-215.323 Y49.574 Z-3.748
N11265 X-215.259 Y49.478 Z-3.741
N11270 X-215.177 Y49.391 Z-3.732
N11275 X-214.979 Y49.232 Z-3.711
N11280 X-214.818 Y49.091 Z-3.694
N11285 X-214.644 Y48.922 Z-3.675
N11290 X-214.497 Y48.763 Z-3.659
N11295 X-214.356 Y48.596 Z-3.644
N11300 X-214.219 Y48.415 Z-3.63
N11305 X-214.085 Y48.218 Z-3.615
N11310 X-213.929 Y47.954 Z-3.597
N11315 X-213.787 Y47.669 Z-3.581
N11320 X-213.618 Y47.285 Z-3.56
N11325 X-213.536 Y47.126 Z-3.551
N11330 X-213.369 Y46.781 Z-3.531
N11335 X-213.16 Y46.395 Z-3.507
N11340 X-213.012 Y46.148 Z-3.491
N11345 X-212.827 Y45.856 Z-3.471
N11350 X-212.696 Y45.615 Z-3.457
N11355 X-212.596 Y45.391 Z-3.445
N11360 X-212.514 Y45.164 Z-3.435
N11365 X-212.45 Y44.935 Z-3.426
N11370 X-212.379 Y44.59 Z-3.416
N11375 X-212.295 Y44.095 Z-3.402
N11380 X-212.228 Y43.627 Z-3.392
N11385 X-212.139 Y42.888 Z-3.383
N11390 X-212.04 Y41.751 Z-3.368
N11395 X-211.96 Y40.901 Z-3.356
N11400 X-211.854 Y40.026 Z-3.342
N11405 X-211.722 Y39.136 Z-3.327
N11410 X-211.571 Y38.27 Z-3.311
N11415 X-211.392 Y37.39 Z-3.293
N11420 X-211.237 Y36.727 Z-3.279
N11425 X-211.014 Y35.827 Z-3.26
N11430 X-210.747 Y34.864 Z-3.238
N11435 X-210.436 Y33.83 Z-3.213
N11440 X-210.094 Y32.773 Z-3.187
N11445 X-209.755 Y31.798 Z-3.162
N11450 X-209.204 Y30.349 Z-3.123
N11455 X-208.337 Y28.327 Z-3.066
N11460 X-207.43 Y26.478 Z-3.011
N11465 X-207.072 Y25.815 Z-2.989
N11470 X-206.677 Y25.12 Z-2.966
N11475 X-206.149 Y24.242 Z-2.936
N11480 X-205.614 Y23.417 Z-2.906
N11485 X-205.153 Y22.744 Z-2.881
N11490 X-204.749 Y22.194 Z-2.859
N11495 X-204.194 Y21.474 Z-2.83
N11500 X-203.598 Y20.754 Z-2.798
N11505 X-203.118 Y20.208 Z-2.773
N11510 X-202.54 Y19.595 Z-2.743
N11515 X-202.03 Y19.089 Z-2.717
N11520 X-201.519 Y18.614 Z-2.691
N11525 X-200.885 Y18.062 Z-2.659
N11530 X-200.504 Y17.746 Z-2.64
N11535 X-199.639 Y17.084 Z-2.596
N11540 X-199.222 Y16.79 Z-2.575
N11545 X-198.531 Y16.342 Z-2.541
N11550 X-197.87 Y15.931 Z-2.508
N11555 X-197.614 Y15.789 Z-2.495
N11560 X-197.091 Y15.512 Z-2.469
N11565 X-196.564 Y15.247 Z-2.443
N11570 X-195.986 Y14.97 Z-2.414
N11575 X-195.455 Y14.729 Z-2.387
N11580 X-195.025 Y14.545 Z-2.366
N11585 X-194.698 Y14.418 Z-2.35
N11590 X-193.944 Y14.142 Z-2.313
N11595 X-193.627 Y14.034 Z-2.298
N11600 X-193.211 Y13.903 Z-2.277
N11605 X-192.557 Y13.71 Z-2.245
N11610 X-192.16 Y13.597 Z-2.226
N11615 X-191.202 Y13.366 Z-2.18
N11620 X-190.778 Y13.275 Z-2.16
N11625 X-190.112 Y13.142 Z-2.127
N11630 X-189.58 Y13.049 Z-2.101
N11635 X-189.116 Y12.98 Z-2.077
N11640 X-188.315 Y12.871 Z-2.039
N11645 X-187.332 Y12.771 Z-1.993
N11650 X-186.811 Y12.73 Z-1.969
N11655 X-185.988 Y12.684 Z-1.931
N11660 X-185.448 Y12.663 Z-1.906
N11665 X-184.515 Y12.649 Z-1.864
N11670 X-184.033 Y12.655 Z-1.841
N11675 X-183.291 Y12.677 Z-1.806
N11680 X-182.563 Y12.713 Z-1.771
N11685 X-181.858 Y12.76 Z-1.74
N11690 X-181.076 Y12.828 Z-1.707
N11695 X-180.396 Y12.904 Z-1.678
N11700 X-179.442 Y13.039 Z-1.638
N11705 X-178.777 Y13.15 Z-1.609
N11710 X-178.109 Y13.275 Z-1.58
N11715 X-177.448 Y13.413 Z-1.55
N11720 X-176.785 Y13.566 Z-1.52
N11725 X-176.337 Y13.678 Z-1.502
N11730 X-175.641 Y13.864 Z-1.475
N11735 X-175.192 Y13.996 Z-1.457
N11740 X-174.533 Y14.208 Z-1.431
N11745 X-173.884 Y14.432 Z-1.405
N11750 X-173.234 Y14.669 Z-1.378
N11755 X-172.739 Y14.861 Z-1.358
N11760 X-172.283 Y15.058 Z-1.338
N11765 X-171.692 Y15.318 Z-1.313
N11770 X-171.375 Y15.467 Z-1.3
N11775 X-170.811 Y15.744 Z-1.278
N11780 X-170.438 Y15.938 Z-1.265
N11785 X-170.011 Y16.172 Z-1.249
N11790 X-169.52 Y16.457 Z-1.23
N11795 X-168.894 Y16.837 Z-1.207
N11800 X-168.473 Y17.111 Z-1.19
N11805 X-168.028 Y17.418 Z-1.173
N11810 X-167.591 Y17.734 Z-1.155
N11815 X-167.161 Y18.059 Z-1.137
N11820 X-166.74 Y18.393 Z-1.12
N11825 X-166.355 Y18.71 Z-1.105
N11830 X-165.888 Y19.125 Z-1.089
N11835 X-165.365 Y19.617 Z-1.071
N11840 X-164.877 Y20.105 Z-1.053
N11845 X-164.388 Y20.625 Z-1.035
N11850 X-163.926 Y21.149 Z-1.017
N11855 X-163.495 Y21.667 Z-1.001
N11860 X-163.13 Y22.131 Z-0.986
N11865 X-162.729 Y22.668 Z-0.97
N11870 X-162.301 Y23.274 Z-0.956
N11875 X-162.001 Y23.723 Z-0.946
N11880 X-161.108 Y25.161 Z-0.917
N11885 X-160.768 Y25.764 Z-0.906
N11890 X-160.263 Y26.715 Z-0.891
N11895 X-159.764 Y27.704 Z-0.875
N11900 X-159.364 Y28.537 Z-0.866
N11905 X-158.898 Y29.559 Z-0.854
N11910 X-158.423 Y30.668 Z-0.844
N11915 X-158.03 Y31.617 Z-0.837
N11920 X-157.783 Y32.236 Z-0.833
N11925 X-157.019 Y34.267 Z-0.825
N11930 X-156.555 Y35.629 Z-0.824
N11935 X-156.24 Y36.655
N11940 X-156.012 Y37.463
N11945 X-155.652 Y38.895
N11950 X-155.435 Y39.888
N11955 X-155.205 Y41.032 Z-0.828
N11960 X-155.061 Y41.642 Z-0.83
N11965 X-155.025 Y41.84 Z-0.831
N11970 X-155.007 Y42.04 Z-0.832
N11975 Y42.241 Z-0.834
N11980 X-155.034 Y42.5 Z-0.836
N11985 X-155.092 Y42.765 Z-0.839
N11990 X-155.164 Y43.042 Z-0.842
N11995 X-155.274 Y43.387 Z-0.846
N12000 X-155.332 Y43.628 Z-0.849
N12005 X-155.463 Y44.267 Z-0.856
N12010 X-155.566 Y44.868 Z-0.863
N12015 X-155.62 Y45.093 Z-0.866
N12020 X-155.695 Y45.316 Z-0.868
N12025 X-155.8 Y45.554 Z-0.872
N12030 X-155.852 Y45.677 Z-0.873
N12035 X-155.899 Y45.844 Z-0.876
N12040 X-155.92 Y46.025 Z-0.879
N12045 X-155.912 Y46.211 Z-0.882
N12050 X-155.895 Y46.315 Z-0.883
N12055 X-155.867 Y46.418 Z-0.885
N12060 X-155.802 Y46.58 Z-0.886
N12065 X-155.737 Y46.697 Z-0.887
N12070 X-155.644 Y46.822 Z-0.888
N12075 X-155.377 Y47.097 Z-0.889
N12080 X-154.947 Y47.54 Z-0.89
N12085 X-154.449 Y48.065 Z-0.894
N12090 X-154.22 Y48.283 Z-0.896
N12095 X-153.893 Y48.557 Z-0.899
N12100 X-153.586 Y48.782 Z-0.901
N12105 X-153.271 Y48.98 Z-0.904
N12110 X-152.956 Y49.152 Z-0.907
N12115 X-152.632 Y49.302 Z-0.91
N12120 X-152.283 Y49.437 Z-0.913
N12125 X-151.889 Y49.563 Z-0.917
N12130 X-151.623 Y49.631 Z-0.919
N12135 X-151.174 Y49.729 Z-0.923
N12140 X-150.773 Y49.79 Z-0.926
N12145 X-150.057 Y49.85 Z-0.927
N12150 X-149.761 Y49.864
N12155 X-148.912 Y49.859
N12160 X-147.839 Y49.83
N12165 X-146.766 Y49.835
N12170 X-146.089 Y49.855
N12175 X-145.172 Y49.856
N12180 X-144.53 Y49.809
N12185 X-144.133 Y49.768 Z-0.925
N12190 X-143.742 Y49.702 Z-0.922
N12195 X-143.247 Y49.588 Z-0.918
N12200 X-142.901 Y49.483 Z-0.915
N12205 X-142.628 Y49.389 Z-0.912
N12210 X-142.287 Y49.249 Z-0.909
N12215 X-141.973 Y49.094 Z-0.906
N12220 X-141.636 Y48.9 Z-0.903
N12225 X-141.329 Y48.695 Z-0.9
N12230 X-141.067 Y48.494 Z-0.898
N12235 X-140.755 Y48.222 Z-0.895
N12240 X-140.578 Y48.049 Z-0.893
N12245 X-139.856 Y47.276 Z-0.888
N12250 X-139.418 Y46.821
N12255 X-139.318 Y46.686 Z-0.887
N12260 X-139.237 Y46.533 Z-0.885
N12265 X-139.191 Y46.407 Z-0.884
N12270 X-139.153 Y46.233 Z-0.882
N12275 X-139.143 Y46.074 Z-0.879
N12280 X-139.157 Y45.898 Z-0.877
N12285 X-139.187 Y45.763 Z-0.874
N12290 X-139.214 Y45.681 Z-0.873
N12295 X-139.315 Y45.462 Z-0.87
N12300 X-139.404 Y45.245 Z-0.867
N12305 X-139.474 Y45.015 Z-0.864
N12310 X-139.529 Y44.728 Z-0.861
N12315 X-139.633 Y44.157 Z-0.854
N12320 X-139.773 Y43.521 Z-0.847
N12325 X-139.856 Y43.248 Z-0.844
N12330 X-140.009 Y42.819 Z-0.839
N12335 X-140.066 Y42.592 Z-0.836
N12340 X-140.098 Y42.359 Z-0.834
N12345 X-140.104 Y42.158 Z-0.833
N12350 X-140.092 Y41.958 Z-0.831
N12355 X-140.065 Y41.777 Z-0.83
N12360 X-139.918 Y41.165 Z-0.828
N12365 X-139.742 Y40.284 Z-0.825
N12370 X-139.507 Y39.158 Z-0.824
N12375 X-139.297 Y38.29
N12380 X-139.081 Y37.427
N12385 X-138.788 Y36.395
N12390 X-138.54 Y35.592
N12395 X-137.933 Y33.832 Z-0.826
N12400 X-137.254 Y32.046 Z-0.833
N12405 X-136.826 Y30.983 Z-0.84
N12410 X-136.288 Y29.711 Z-0.852
N12415 X-135.803 Y28.629 Z-0.864
N12420 X-135.303 Y27.571 Z-0.875
N12425 X-134.88 Y26.727 Z-0.889
N12430 X-134.448 Y25.914 Z-0.902
N12435 X-134.064 Y25.218 Z-0.913
N12440 X-133.746 Y24.696 Z-0.923
N12445 X-133.073 Y23.608 Z-0.946
N12450 X-132.63 Y22.954 Z-0.961
N12455 X-132.276 Y22.458 Z-0.973
N12460 X-131.885 Y21.939 Z-0.989
N12465 X-131.419 Y21.355 Z-1.006
N12470 X-130.944 Y20.798 Z-1.024
N12475 X-130.457 Y20.262 Z-1.043
N12480 X-129.972 Y19.76 Z-1.061
N12485 X-129.455 Y19.258 Z-1.08
N12490 X-128.891 Y18.742 Z-1.1
N12495 X-128.521 Y18.429 Z-1.112
N12500 X-128.11 Y18.096 Z-1.13
N12505 X-127.685 Y17.766 Z-1.147
N12510 X-127.252 Y17.445 Z-1.165
N12515 X-126.811 Y17.133 Z-1.183
N12520 X-126.347 Y16.82 Z-1.201
N12525 X-126.002 Y16.603 Z-1.214
N12530 X-125.37 Y16.222 Z-1.238
N12535 X-124.921 Y15.965 Z-1.255
N12540 X-124.484 Y15.728 Z-1.271
N12545 X-124.057 Y15.511 Z-1.286
N12550 X-123.556 Y15.265 Z-1.307
N12555 X-123.151 Y15.079 Z-1.324
N12560 X-122.374 Y14.738 Z-1.357
N12565 X-121.964 Y14.575 Z-1.374
N12570 X-121.332 Y14.338 Z-1.4
N12575 X-120.7 Y14.114 Z-1.426
N12580 X-120.054 Y13.898 Z-1.451
N12585 X-119.559 Y13.744 Z-1.471
N12590 X-118.979 Y13.583 Z-1.494
N12595 X-118.48 Y13.452 Z-1.513
N12600 X-117.842 Y13.297 Z-1.542
N12605 X-117.212 Y13.156 Z-1.57
N12610 X-116.562 Y13.025 Z-1.599
N12615 X-115.899 Y12.905 Z-1.628
N12620 X-115.233 Y12.798 Z-1.657
N12625 X-114.376 Y12.68 Z-1.693
N12630 X-113.478 Y12.589 Z-1.731
N12635 X-112.783 Y12.533 Z-1.761
N12640 X-112.178 Y12.494 Z-1.789
N12645 X-111.46 Y12.46 Z-1.824
N12650 X-110.726 Y12.439 Z-1.859
N12655 X-110.307 Y12.438 Z-1.879
N12660 X-109.541 Y12.45 Z-1.913
N12665 X-108.751 Y12.479 Z-1.949
N12670 X-108.079 Y12.516 Z-1.98
N12675 X-107.562 Y12.556 Z-2.004
N12680 X-106.642 Y12.647 Z-2.047
N12685 X-105.751 Y12.766 Z-2.09
N12690 X-105.272 Y12.838 Z-2.115
N12695 X-104.693 Y12.94 Z-2.144
N12700 X-103.9 Y13.099 Z-2.182
N12705 X-103.415 Y13.211 Z-2.206
N12710 X-102.739 Y13.374 Z-2.239
N12715 X-101.912 Y13.609 Z-2.278
N12720 X-101.411 Y13.762 Z-2.303
N12725 X-101.03 Y13.888 Z-2.321
N12730 X-100.38 Y14.122 Z-2.353
N12735 X-99.947 Y14.284 Z-2.375
N12740 X-99.589 Y14.433 Z-2.392
N12745 X-99.047 Y14.673 Z-2.42
N12750 X-98.484 Y14.935 Z-2.449
N12755 X-97.905 Y15.221 Z-2.477
N12760 X-97.32 Y15.524 Z-2.507
N12765 X-97.029 Y15.682 Z-2.521
N12770 X-96.448 Y16.038 Z-2.55
N12775 X-95.876 Y16.4 Z-2.579
N12780 X-95.482 Y16.661 Z-2.598
N12785 X-95.129 Y16.914 Z-2.616
N12790 X-94.378 Y17.484 Z-2.653
N12795 X-94.068 Y17.734 Z-2.669
N12800 X-93.502 Y18.217 Z-2.697
N12805 X-93.097 Y18.58 Z-2.717
N12810 X-92.696 Y18.956 Z-2.737
N12815 X-92.301 Y19.346 Z-2.757
N12820 X-91.952 Y19.705 Z-2.775
N12825 X-91.567 Y20.119 Z-2.795
N12830 X-91.099 Y20.654 Z-2.818
N12835 X-90.526 Y21.346 Z-2.848
N12840 X-89.935 Y22.111 Z-2.879
N12845 X-89.509 Y22.696 Z-2.901
N12850 X-89.014 Y23.425 Z-2.927
N12855 X-88.532 Y24.171 Z-2.954
N12860 X-87.941 Y25.159 Z-2.987
N12865 X-87.494 Y25.956 Z-3.012
N12870 X-87.117 Y26.675 Z-3.034
N12875 X-86.648 Y27.616 Z-3.062
N12880 X-86.227 Y28.519 Z-3.088
N12885 X-85.497 Y30.219 Z-3.135
N12890 X-85.142 Y31.154 Z-3.159
N12895 X-84.701 Y32.325 Z-3.19
N12900 X-84.202 Y33.82 Z-3.227
N12905 X-83.863 Y34.925 Z-3.254
N12910 X-83.591 Y35.884 Z-3.276
N12915 X-83.365 Y36.751 Z-3.295
N12920 X-83.142 Y37.712 Z-3.316
N12925 X-82.963 Y38.587 Z-3.333
N12930 X-82.805 Y39.482 Z-3.351
N12935 X-82.701 Y40.164 Z-3.364
N12940 X-82.61 Y40.851 Z-3.377
N12945 X-82.517 Y41.695 Z-3.392
N12950 X-82.455 Y42.3 Z-3.403
N12955 X-82.395 Y42.809 Z-3.414
N12960 X-82.332 Y43.246 Z-3.424
N12965 X-82.23 Y43.837 Z-3.439
N12970 X-82.162 Y44.156 Z-3.449
N12975 X-82.078 Y44.51 Z-3.461
N12980 X-82.011 Y44.761 Z-3.47
N12985 X-81.94 Y44.963 Z-3.478
N12990 X-81.861 Y45.139 Z-3.487
N12995 X-81.771 Y45.303 Z-3.497
N13000 X-81.631 Y45.529 Z-3.512
N13005 X-81.413 Y45.857 Z-3.535
N13010 X-81.221 Y46.163 Z-3.556
N13015 X-80.997 Y46.567 Z-3.581
N13020 X-80.895 Y46.736 Z-3.592
N13025 X-80.755 Y47.012 Z-3.608
N13030 X-80.695 Y47.118 Z-3.615
N13035 X-80.602 Y47.296 Z-3.626
N13040 X-80.511 Y47.44 Z-3.636
N13045 X-80.471 Y47.515 Z-3.64
N13050 X-80.403 Y47.63 Z-3.648
N13055 X-80.337 Y47.713 Z-3.655
N13060 X-80.251 Y47.797 Z-3.664
N13065 X-79.958 Y48.066 Z-3.695
N13070 X-79.8 Y48.187 Z-3.711
N13075 X-79.623 Y48.294 Z-3.729
N13080 X-79.469 Y48.367 Z-3.744
N13085 X-79.269 Y48.438 Z-3.763
N13090 X-79.135 Y48.48 Z-3.776
N13095 X-78.999 Y48.545 Z-3.789
N13100 X-78.885 Y48.623 Z-3.801
N13105 X-78.775 Y48.723 Z-3.813
N13110 X-78.685 Y48.835 Z-3.823
N13115 X-78.627 Y48.93 Z-3.83
N13120 X-78.569 Y49.064 Z-3.837
N13125 X-78.533 Y49.197 Z-3.843
N13130 X-78.516 Y49.323 Z-3.847
N13135 X-78.515 Y49.389 Z-3.848
N13140 X-78.523 Y51.294 Z-3.887
N13145 X-78.53 Y51.431 Z-3.889
N13150 X-78.545 Y51.541 Z-3.89
N13155 X-78.567 Y51.65 Z-3.891
N13160 X-78.628 Y51.841 Z-3.889
N13165 X-78.695 Y51.989 Z-3.887
N13170 X-78.787 Y52.143 Z-3.882
N13175 X-78.882 Y52.268 Z-3.877
N13180 X-79.003 Y52.395 Z-3.869
N13185 X-79.134 Y52.505 Z-3.86
N13190 X-79.278 Y52.6 Z-3.849
N13195 X-79.434 Y52.68 Z-3.837
N13200 X-79.603 Y52.742 Z-3.824
N13205 X-79.783 Y52.785 Z-3.809
N13210 X-80.016 Y52.815 Z-3.789
N13215 X-80.262 Y52.856 Z-3.768
N13220 X-80.503 Y52.909 Z-3.749
N13225 X-80.72 Y52.969 Z-3.731
N13230 X-80.94 Y53.042 Z-3.713
N13235 X-81.505 Y53.26 Z-3.669
N13240 X-81.606 Y53.303 Z-3.661
N13245 X-81.68 Y53.338 Z-3.656
N13250 X-82.713 Y53.732 Z-3.582
N13255 X-82.794 Y53.765 Z-3.576
N13260 X-83.182 Y53.895 Z-3.548
N13265 X-83.524 Y53.996 Z-3.523
N13270 X-83.859 Y54.081 Z-3.498
N13275 X-84.213 Y54.159 Z-3.472
N13280 X-84.564 Y54.222 Z-3.445
N13285 X-84.936 Y54.28 Z-3.417
N13290 X-85.172 Y54.328 Z-3.399
N13295 X-85.411 Y54.387 Z-3.382
N13300 X-85.655 Y54.46 Z-3.364
N13305 X-85.914 Y54.552 Z-3.346
N13310 X-86.76 Y54.873 Z-3.287
N13315 X-87.095 Y54.999 Z-3.263
N13320 X-87.962 Y55.306 Z-3.203
N13325 X-88.636 Y55.531 Z-3.159
N13330 X-89.439 Y55.782 Z-3.107
N13335 X-90.312 Y56.045 Z-3.051
N13340 X-91.166 Y56.288 Z-2.997
N13345 X-92.009 Y56.514 Z-2.944
N13350 X-92.91 Y56.742 Z-2.887
N13355 X-93.781 Y56.949 Z-2.831
N13360 X-94.623 Y57.138 Z-2.778
N13365 X-95.174 Y57.253 Z-2.745
N13370 X-97.888 Y57.765 Z-2.587
N13375 X-100.238 Y58.121 Z-2.453
N13380 X-102.085 Y58.334 Z-2.35
N13385 X-102.904 Y58.427 Z-2.307
N13390 X-103.688 Y58.498 Z-2.266
N13395 X-104.919 Y58.59 Z-2.203
N13400 X-105.847 Y58.643 Z-2.156
N13405 X-106.81 Y58.684 Z-2.107
N13410 X-107.663 Y58.709 Z-2.063
N13415 X-108.061 Y58.715 Z-2.044
N13420 X-110.248 Y58.707 Z-1.941
N13425 X-111.045 Y58.685 Z-1.904
N13430 X-111.649 Y58.652 Z-1.877
N13435 X-113.688 Y58.536 Z-1.782
N13440 X-115.798 Y58.34 Z-1.693
N13445 X-118.215 Y58.032 Z-1.595
N13450 X-119.586 Y57.818 Z-1.538
N13455 X-120.355 Y57.685 Z-1.507
N13460 X-121.26 Y57.515 Z-1.474
N13465 X-122.194 Y57.327 Z-1.442
N13470 X-122.923 Y57.169 Z-1.416
N13475 X-123.548 Y57.026 Z-1.394
N13480 X-124.318 Y56.835 Z-1.366
N13485 X-125.124 Y56.622 Z-1.337
N13490 X-125.925 Y56.396 Z-1.308
N13495 X-126.498 Y56.226 Z-1.288
N13500 X-126.93 Y56.092 Z-1.275
N13505 X-127.888 Y55.778 Z-1.246
N13510 X-128.542 Y55.546 Z-1.226
N13515 X-129.267 Y55.279 Z-1.203
N13520 X-129.645 Y55.131 Z-1.192
N13525 X-132.296 Y54.036 Z-1.109
N13530 X-132.954 Y53.761 Z-1.094
N13535 X-133.568 Y53.508 Z-1.079
N13540 X-133.945 Y53.358 Z-1.07
N13545 X-134.244 Y53.245 Z-1.064
N13550 X-134.447 Y53.146 Z-1.058
N13555 X-134.633 Y53.031 Z-1.053
N13560 X-134.925 Y52.83 Z-1.045
N13565 X-135.1 Y52.72 Z-1.04
N13570 X-135.217 Y52.665 Z-1.037
N13575 X-135.352 Y52.624 Z-1.034
N13580 X-135.425 Y52.611 Z-1.033
N13585 X-135.576 Y52.602 Z-1.031
N13590 X-135.732 Y52.617 Z-1.029
N13595 X-135.897 Y52.663 Z-1.028
N13600 X-136.164 Y52.777 Z-1.026
N13605 X-136.33 Y52.832 Z-1.025
N13610 X-136.72 Y52.936 Z-1.023
N13615 X-136.95 Y52.982 Z-1.021
N13620 X-137.237 Y53.021 Z-1.018
N13625 X-137.764 Y53.076 Z-1.013
N13630 X-138.104 Y53.133 Z-1.01
N13635 X-138.655 Y53.236 Z-1.006
N13640 X-139.668 Y53.409 Z-0.999
N13645 X-142.036 Y53.784 Z-0.988
N13650 X-142.907 Y53.888 Z-0.986
N13655 X-143.692 Y53.96 Z-0.983
N13660 X-144.505 Y54.007 Z-0.981
N13665 X-145.254 Y54.032 Z-0.979
N13670 X-145.905 Y54.039 Z-0.978
N13675 X-148.138 Y54.02 Z-0.976
N13680 X-149.221 Y54.044 Z-0.978
N13685 X-150.214 Y54.028 Z-0.98
N13690 X-151.163 Y53.977 Z-0.983
N13695 X-152.004 Y53.91 Z-0.986
N13700 X-152.518 Y53.853 Z-0.987
N13705 X-154.772 Y53.533 Z-0.997
N13710 X-156.579 Y53.23 Z-1.009
N13715 X-156.989 Y53.152 Z-1.012
N13720 X-157.245 Y53.115 Z-1.014
N13725 X-157.831 Y53.058 Z-1.02
N13730 X-158.155 Y53.01 Z-1.023
N13735 X-158.493 Y52.932 Z-1.025
N13740 X-158.814 Y52.844 Z-1.028
N13745 X-159.009 Y52.764 Z-1.029
N13750 X-159.17 Y52.717 Z-1.03
N13755 X-159.42 Y52.683 Z-1.032
N13760 X-159.541 Y52.684 Z-1.034
N13765 X-159.676 Y52.706 Z-1.037
N13770 X-159.749 Y52.728 Z-1.038
N13775 X-159.816 Y52.755 Z-1.04
N13780 X-159.922 Y52.811 Z-1.042
N13785 X-160.168 Y52.968 Z-1.049
N13790 X-160.39 Y53.12 Z-1.056
N13795 X-160.572 Y53.228 Z-1.06
N13800 X-160.779 Y53.323 Z-1.065
N13805 X-161.172 Y53.472 Z-1.074
N13810 X-161.75 Y53.708 Z-1.088
N13815 X-162.642 Y54.081 Z-1.109
N13820 X-163.777 Y54.554 Z-1.144
N13825 X-165.411 Y55.235 Z-1.195
N13830 X-166.051 Y55.48 Z-1.215
N13835 X-166.946 Y55.806 Z-1.243
N13840 X-167.371 Y55.949 Z-1.256
N13845 X-168.149 Y56.206 Z-1.279
N13850 X-168.799 Y56.405 Z-1.3
N13855 X-169.601 Y56.638 Z-1.33
N13860 X-170.417 Y56.86 Z-1.359
N13865 X-171.237 Y57.069 Z-1.389
N13870 X-171.727 Y57.186 Z-1.406
N13875 X-172.627 Y57.387 Z-1.438
N13880 X-173.558 Y57.579 Z-1.471
N13885 X-174.493 Y57.758 Z-1.504
N13890 X-175.254 Y57.893 Z-1.535
N13895 X-175.552 Y57.942 Z-1.547
N13900 X-178.142 Y58.321 Z-1.653
N13905 X-180.521 Y58.577 Z-1.751
N13910 X-182.988 Y58.755 Z-1.864
N13915 X-184.167 Y58.805 Z-1.918
N13920 X-184.786 Y58.822 Z-1.946
N13925 X-187.331 Y58.832 Z-2.066
N13930 X-188.098 Y58.815 Z-2.106
N13935 X-188.688 Y58.786 Z-2.137
N13940 X-190.803 Y58.678 Z-2.245
N13945 X-192.909 Y58.496 Z-2.355
N13950 X-194.735 Y58.276 Z-2.456
N13955 X-195.596 Y58.172 Z-2.507
N13960 X-198.194 Y57.765 Z-2.655
N13965 X-200.823 Y57.256 Z-2.812
N13970 X-201.207 Y57.178 Z-2.837
N13975 X-202.115 Y56.975 Z-2.895
N13980 X-202.709 Y56.833 Z-2.933
N13985 X-204.26 Y56.451 Z-3.032
N13990 X-205.057 Y56.236 Z-3.083
N13995 X-206.263 Y55.895 Z-3.161
N14000 X-206.969 Y55.684 Z-3.208
N14005 X-207.851 Y55.407 Z-3.27
N14010 X-208.71 Y55.119 Z-3.331
N14015 X-208.956 Y55.036 Z-3.348
N14020 X-209.242 Y54.94 Z-3.368
N14025 X-209.489 Y54.864 Z-3.386
N14030 X-209.731 Y54.801 Z-3.404
N14035 X-210.001 Y54.744 Z-3.424
N14040 X-210.275 Y54.699 Z-3.444
N14045 X-210.722 Y54.629 Z-3.478
N14050 X-211.106 Y54.556 Z-3.507
N14055 X-211.497 Y54.468 Z-3.536
N14060 X-211.896 Y54.365 Z-3.566
N14065 X-212.305 Y54.244 Z-3.596
N14070 X-212.459 Y54.19 Z-3.607
N14075 X-213.402 Y53.88 Z-3.677
N14080 X-213.54 Y53.825 Z-3.687
N14085 X-213.865 Y53.719 Z-3.713
N14090 X-214.158 Y53.635 Z-3.737
N14095 X-214.486 Y53.555 Z-3.763
N14100 X-214.79 Y53.493 Z-3.789
N14105 X-215.107 Y53.441 Z-3.815
N14110 X-215.42 Y53.401 Z-3.842
N14115 X-215.809 Y53.363 Z-3.875
N14120 X-215.985 Y53.329 Z-3.89
N14125 X-216.167 Y53.271 Z-3.904
N14130 X-216.295 Y53.214 Z-3.914
N14135 X-216.451 Y53.124 Z-3.926
N14140 X-216.553 Y53.051 Z-3.933
N14145 X-216.654 Y52.966 Z-3.94
N14150 X-216.788 Y52.825 Z-3.949
N14155 X-216.884 Y52.697 Z-3.954
N14160 X-216.963 Y52.568 Z-3.958
N14165 X-217.016 Y52.461 Z-3.96
N14170 X-217.083 Y52.282 Z-3.962
N14175 X-217.117 Y52.152
N14180 X-217.139 Y52.02 Z-3.961
N14185 X-217.147 Y51.925 Z-3.96
N14190 X-217.15 Y51.83 Z-3.958
N14195 X-217.149 Y48.99 Z-3.9
N14200 X-217.146 Y48.912 Z-3.899
N14205 X-217.13 Y48.788 Z-3.895
N14210 X-217.1 Y48.666 Z-3.89
N14215 X-217.044 Y48.521 Z-3.882
N14220 X-216.965 Y48.38 Z-3.873
N14225 X-216.877 Y48.264 Z-3.863
N14230 X-216.765 Y48.153 Z-3.851
N14235 X-216.635 Y48.057 Z-3.837
N14240 X-216.5 Y47.984 Z-3.824
N14245 X-216.346 Y47.928 Z-3.809
N14250 X-216.127 Y47.863 Z-3.788
N14255 X-215.941 Y47.794 Z-3.77
N14260 X-215.763 Y47.713 Z-3.753
N14265 X-215.615 Y47.633 Z-3.738
N14270 X-215.385 Y47.492 Z-3.715
N14275 X-215.198 Y47.355 Z-3.696
N14280 X-215.03 Y47.205 Z-3.679
N14285 X-214.881 Y47.046 Z-3.663
N14290 X-214.796 Y46.939 Z-3.654
N14295 X-214.742 Y46.855 Z-3.648
N14300 X-214.657 Y46.705 Z-3.638
N14305 X-214.583 Y46.603 Z-3.631
N14310 X-214.414 Y46.304 Z-3.612
N14315 X-214.304 Y46.141 Z-3.6
N14320 X-214.088 Y45.782 Z-3.577
N14325 X-213.961 Y45.597 Z-3.563
N14330 X-213.678 Y45.175 Z-3.533
N14335 X-213.544 Y44.956 Z-3.519
N14340 X-213.452 Y44.777 Z-3.509
N14345 X-213.378 Y44.594 Z-3.5
N14350 X-213.266 Y44.237 Z-3.486
N14355 X-213.176 Y43.876 Z-3.474
N14360 X-213.123 Y43.648 Z-3.467
N14365 X-213.027 Y43.164 Z-3.453
N14370 X-212.954 Y42.708 Z-3.442
N14375 X-212.913 Y42.403 Z-3.436
N14380 X-212.869 Y42.008 Z-3.428
N14385 X-212.736 Y40.853 Z-3.407
N14390 X-212.613 Y39.957 Z-3.39
N14395 X-212.506 Y39.29 Z-3.377
N14400 X-212.349 Y38.44 Z-3.359
N14405 X-212.208 Y37.763 Z-3.344
N14410 X-212.026 Y36.975 Z-3.326
N14415 X-211.854 Y36.287 Z-3.31
N14420 X-211.592 Y35.33 Z-3.287
N14425 X-211.356 Y34.531 Z-3.267
N14430 X-211.099 Y33.704 Z-3.246
N14435 X-210.877 Y33.046 Z-3.229
N14440 X-210.476 Y31.863 Z-3.2
N14445 X-210.22 Y31.168 Z-3.182
N14450 X-209.835 Y30.168 Z-3.156
N14455 X-209.65 Y29.727 Z-3.144
N14460 X-209.098 Y28.427 Z-3.11
N14465 X-208.709 Y27.579 Z-3.086
N14470 X-208.38 Y26.901 Z-3.067
N14475 X-207.987 Y26.124 Z-3.045
N14480 X-207.671 Y25.534 Z-3.027
N14485 X-207.37 Y24.993 Z-3.011
N14490 X-206.959 Y24.296 Z-2.988
N14495 X-206.608 Y23.725 Z-2.969
N14500 X-206.244 Y23.158 Z-2.95
N14505 X-205.878 Y22.613 Z-2.931
N14510 X-205.458 Y22.023 Z-2.909
N14515 X-204.995 Y21.409 Z-2.885
N14520 X-204.568 Y20.869 Z-2.864
N14525 X-204.145 Y20.364 Z-2.842
N14530 X-203.806 Y19.975 Z-2.825
N14535 X-203.411 Y19.544 Z-2.804
N14540 X-203.009 Y19.125 Z-2.783
N14545 X-202.614 Y18.731 Z-2.764
N14550 X-202.202 Y18.341 Z-2.743
N14555 X-201.788 Y17.964 Z-2.722
N14560 X-201.381 Y17.611 Z-2.702
N14565 X-200.973 Y17.272 Z-2.682
N14570 X-200.56 Y16.944 Z-2.661
N14575 X-200.07 Y16.572 Z-2.637
N14580 X-199.719 Y16.321 Z-2.62
N14585 X-199.297 Y16.041 Z-2.599
N14590 X-198.74 Y15.687 Z-2.571
N14595 X-198.187 Y15.347 Z-2.544
N14600 X-197.856 Y15.166 Z-2.528
N14605 X-197.327 Y14.889 Z-2.502
N14610 X-196.753 Y14.603 Z-2.473
N14615 X-196.163 Y14.324 Z-2.442
N14620 X-195.574 Y14.061 Z-2.412
N14625 X-195.231 Y13.916 Z-2.395
N14630 X-194.761 Y13.738 Z-2.372
N14635 X-194.154 Y13.517 Z-2.342
N14640 X-193.772 Y13.388 Z-2.323
N14645 X-193.258 Y13.228 Z-2.299
N14650 X-192.365 Y12.97 Z-2.256
N14655 X-191.811 Y12.837 Z-2.229
N14660 X-191.107 Y12.683 Z-2.195
N14665 X-190.412 Y12.544 Z-2.161
N14670 X-189.712 Y12.418 Z-2.126
N14675 X-189.018 Y12.307 Z-2.091
N14680 X-188.445 Y12.225 Z-2.063
N14685 X-187.826 Y12.16 Z-2.034
N14690 X-187.25 Y12.106 Z-2.008
N14695 X-186.631 Y12.063 Z-1.979
N14700 X-185.886 Y12.027 Z-1.946
N14705 X-185.187 Y12.007 Z-1.914
N14710 X-184.429 Y11.999 Z-1.879
N14715 X-183.793 Y12.013 Z-1.848
N14720 X-183.059 Y12.042 Z-1.813
N14725 X-182.326 Y12.084 Z-1.778
N14730 X-181.731 Y12.129 Z-1.752
N14735 X-181.001 Y12.195 Z-1.722
N14740 X-180.482 Y12.252 Z-1.7
N14745 X-179.855 Y12.339 Z-1.673
N14750 X-179.242 Y12.434 Z-1.647
N14755 X-178.634 Y12.54 Z-1.62
N14760 X-177.966 Y12.671 Z-1.591
N14765 X-177.304 Y12.815 Z-1.561
N14770 X-176.656 Y12.97 Z-1.532
N14775 X-176.048 Y13.128 Z-1.505
N14780 X-175.422 Y13.304 Z-1.481
N14785 X-174.785 Y13.497 Z-1.456
N14790 X-174.191 Y13.69 Z-1.433
N14795 X-173.612 Y13.89 Z-1.409
N14800 X-173.032 Y14.103 Z-1.386
N14805 X-172.496 Y14.311 Z-1.364
N14810 X-171.95 Y14.548 Z-1.341
N14815 X-171.426 Y14.781 Z-1.319
N14820 X-170.957 Y15.005 Z-1.298
N14825 X-170.541 Y15.214 Z-1.282
N14830 X-170.013 Y15.492 Z-1.263
N14835 X-169.501 Y15.776 Z-1.244
N14840 X-169.029 Y16.05 Z-1.227
N14845 X-168.562 Y16.333 Z-1.209
N14850 X-168.166 Y16.591 Z-1.194
N14855 X-167.664 Y16.935 Z-1.174
N14860 X-167.225 Y17.25 Z-1.156
N14865 X-166.793 Y17.573 Z-1.138
N14870 X-166.368 Y17.904 Z-1.121
N14875 X-165.959 Y18.236 Z-1.105
N14880 X-165.494 Y18.643 Z-1.088
N14885 X-164.929 Y19.166 Z-1.067
N14890 X-164.41 Y19.679 Z-1.048
N14895 X-163.915 Y20.199 Z-1.029
N14900 X-163.441 Y20.727 Z-1.011
N14905 X-162.989 Y21.26 Z-0.995
N14910 X-162.555 Y21.806 Z-0.979
N14915 X-162.099 Y22.415 Z-0.963
N14920 X-161.656 Y23.042 Z-0.948
N14925 X-161.168 Y23.777 Z-0.932
N14930 X-160.699 Y24.527 Z-0.917
N14935 X-160.313 Y25.182 Z-0.906
N14940 X-159.789 Y26.14 Z-0.891
N14945 X-159.25 Y27.174 Z-0.874
N14950 X-158.753 Y28.177 Z-0.863
N14955 X-158.494 Y28.726 Z-0.857
N14960 X-157.308 Y31.375 Z-0.834
N14965 X-156.261 Y33.94 Z-0.824
N14970 X-155.746 Y35.305
N14975 X-155.397 Y36.32
N14980 X-155.011 Y37.549
N14985 X-154.653 Y38.813
N14990 X-154.1 Y41.039 Z-0.826
N14995 X-153.958 Y41.587 Z-0.828
N15000 X-153.914 Y41.852 Z-0.829
N15005 X-153.894 Y42.119 Z-0.83
N15010 X-153.899 Y42.387 Z-0.831
N15015 X-153.929 Y42.654 Z-0.832
N15020 X-153.991 Y42.949 Z-0.834
N15025 X-154.082 Y43.235 Z-0.836
N15030 X-154.255 Y43.692 Z-0.841
N15035 X-154.335 Y43.965 Z-0.844
N15040 X-154.445 Y44.414 Z-0.849
N15045 X-154.536 Y44.874 Z-0.855
N15050 X-154.597 Y45.224 Z-0.859
N15055 X-154.655 Y45.473 Z-0.862
N15060 X-154.683 Y45.66 Z-0.864
N15065 X-154.693 Y45.885 Z-0.867
N15070 X-154.676 Y46.123 Z-0.869
N15075 X-154.63 Y46.362 Z-0.872
N15080 X-154.568 Y46.562 Z-0.874
N15085 X-154.489 Y46.747 Z-0.876
N15090 X-154.392 Y46.923 Z-0.877
N15095 X-154.215 Y47.173 Z-0.879
N15100 X-153.962 Y47.507 Z-0.883
N15105 X-153.709 Y47.807 Z-0.887
N15110 X-153.505 Y48.015 Z-0.889
N15115 X-153.265 Y48.228 Z-0.893
N15120 X-153.032 Y48.407 Z-0.896
N15125 X-152.744 Y48.594 Z-0.899
N15130 X-152.488 Y48.736 Z-0.903
N15135 X-152.171 Y48.881 Z-0.906
N15140 X-151.778 Y49.025 Z-0.911
N15145 X-151.434 Y49.126 Z-0.915
N15150 X-150.984 Y49.222 Z-0.92
N15155 X-150.682 Y49.269 Z-0.923
N15160 X-150.001 Y49.328 Z-0.927
N15165 X-149.752 Y49.34
N15170 X-149.01 Y49.339
N15175 X-148.095 Y49.308
N15180 X-147.291 Y49.302
N15185 X-146.486 Y49.316
N15190 X-145.837 Y49.338
N15195 X-145.19 Y49.332
N15200 X-144.733 Y49.298 Z-0.926
N15205 X-144.273 Y49.254 Z-0.923
N15210 X-143.85 Y49.179 Z-0.918
N15215 X-143.492 Y49.093 Z-0.914
N15220 X-143.218 Y49.011 Z-0.911
N15225 X-142.808 Y48.856 Z-0.906
N15230 X-142.521 Y48.722 Z-0.902
N15235 X-142.266 Y48.579 Z-0.899
N15240 X-141.981 Y48.392 Z-0.895
N15245 X-141.726 Y48.192 Z-0.892
N15250 X-141.507 Y47.993 Z-0.889
N15255 X-141.293 Y47.768 Z-0.886
N15260 X-141.044 Y47.466 Z-0.882
N15265 X-140.762 Y47.082 Z-0.878
N15270 X-140.632 Y46.869 Z-0.876
N15275 X-140.541 Y46.69 Z-0.875
N15280 X-140.468 Y46.503 Z-0.873
N15285 X-140.414 Y46.309 Z-0.871
N15290 X-140.379 Y46.111 Z-0.869
N15295 X-140.365 Y45.91 Z-0.867
N15300 X-140.37 Y45.713 Z-0.864
N15305 X-140.393 Y45.524 Z-0.862
N15310 X-140.461 Y45.227 Z-0.858
N15315 X-140.562 Y44.68 Z-0.852
N15320 X-140.69 Y44.126 Z-0.845
N15325 X-140.796 Y43.759 Z-0.841
N15330 X-140.959 Y43.332 Z-0.837
N15335 X-141.139 Y42.872 Z-0.834
N15340 X-141.194 Y42.678 Z-0.832
N15345 X-141.227 Y42.48 Z-0.831
N15350 X-141.238 Y42.279 Z-0.83
N15355 X-141.228 Y42.078 Z-0.829
N15360 X-141.204 Y41.919
N15365 X-141.097 Y41.463 Z-0.827
N15370 X-140.854 Y40.503 Z-0.825
N15375 X-140.452 Y38.865 Z-0.824
N15380 X-140.14 Y37.738
N15385 X-139.791 Y36.597
N15390 X-139.451 Y35.579
N15395 X-139.245 Y35.02
N15400 X-138.322 Y32.635 Z-0.827
N15405 X-137.072 Y29.708 Z-0.846
N15410 X-136.494 Y28.45 Z-0.859
N15415 X-136.011 Y27.455 Z-0.871
N15420 X-135.582 Y26.609 Z-0.882
N15425 X-135.065 Y25.635 Z-0.897
N15430 X-134.685 Y24.95 Z-0.908
N15435 X-134.192 Y24.127 Z-0.923
N15440 X-133.721 Y23.393 Z-0.938
