%
(1001)
(len cutout)
(T1 D=6 CR=0 - ZMIN=-17 - flat end mill)
N10 G90 G94
N15 G17
N20 G21
N25 M9
N30 G28

(pin holes)
N35 T1 M6
N40 S7760 M3
N45 G54
N50 M8
N55 G0 X-190 Y35
N60 G43 Z15
N65 Z0.4
N70 G1 Z-1 F1397
N75 X-190.025 Y35.025
N80 G3 X-190.05 Y35 J-0.025
N85 X-189.95 I0.05
N90 X-190.05 I-0.05
N95 X-190.025 Y34.975 I0.025
N100 G1 X-190 Y35
N105 G0 Z5
N110 Z-0.6
N115 G1 Z-2 F1397
N120 X-190.025 Y35.025
N125 G3 X-190.05 Y35 J-0.025
N130 X-189.95 I0.05
N135 X-190.05 I-0.05
N140 X-190.025 Y34.975 I0.025
N145 G1 X-190 Y35
N150 G0 Z5
N155 Z-1.6
N160 G1 Z-3 F1397
N165 X-190.025 Y35.025
N170 G3 X-190.05 Y35 J-0.025
N175 X-189.95 I0.05
N180 X-190.05 I-0.05
N185 X-190.025 Y34.975 I0.025
N190 G1 X-190 Y35
N195 G0 Z5
N200 Z-2.6
N205 G1 Z-4 F1397
N210 X-190.025 Y35.025
N215 G3 X-190.05 Y35 J-0.025
N220 X-189.95 I0.05
N225 X-190.05 I-0.05
N230 X-190.025 Y34.975 I0.025
N235 G1 X-190 Y35
N240 G0 Z5
N245 Z-3.6
N250 G1 Z-5 F1397
N255 X-190.025 Y35.025
N260 G3 X-190.05 Y35 J-0.025
N265 X-189.95 I0.05
N270 X-190.05 I-0.05
N275 X-190.025 Y34.975 I0.025
N280 G1 X-190 Y35
N285 G0 Z5
N290 Z-4.6
N295 G1 Z-6 F1397
N300 X-190.025 Y35.025
N305 G3 X-190.05 Y35 J-0.025
N310 X-189.95 I0.05
N315 X-190.05 I-0.05
N320 X-190.025 Y34.975 I0.025
N325 G1 X-190 Y35
N330 G0 Z5
N335 Z-5.6
N340 G1 Z-7 F1397
N345 X-190.025 Y35.025
N350 G3 X-190.05 Y35 J-0.025
N355 X-189.95 I0.05
N360 X-190.05 I-0.05
N365 X-190.025 Y34.975 I0.025
N370 G1 X-190 Y35
N375 G0 Z5
N380 Z-6.6
N385 G1 Z-8 F1397
N390 X-190.025 Y35.025
N395 G3 X-190.05 Y35 J-0.025
N400 X-189.95 I0.05
N405 X-190.05 I-0.05
N410 X-190.025 Y34.975 I0.025
N415 G1 X-190 Y35
N420 G0 Z5
N425 Z-7.6
N430 G1 Z-9 F1397
N435 X-190.025 Y35.025
N440 G3 X-190.05 Y35 J-0.025
N445 X-189.95 I0.05
N450 X-190.05 I-0.05
N455 X-190.025 Y34.975 I0.025
N460 G1 X-190 Y35
N465 G0 Z5
N470 Z-8.6
N475 G1 Z-10 F1397
N480 X-190.025 Y35.025
N485 G3 X-190.05 Y35 J-0.025
N490 X-189.95 I0.05
N495 X-190.05 I-0.05
N500 X-190.025 Y34.975 I0.025
N505 G1 X-190 Y35
N510 G0 Z5
N515 Z-9.6
N520 G1 Z-11 F1397
N525 X-190.025 Y35.025
N530 G3 X-190.05 Y35 J-0.025
N535 X-189.95 I0.05
N540 X-190.05 I-0.05
N545 X-190.025 Y34.975 I0.025
N550 G1 X-190 Y35
N555 G0 Z5
N560 Z-10.6
N565 G1 Z-12 F1397
N570 X-190.025 Y35.025
N575 G3 X-190.05 Y35 J-0.025
N580 X-189.95 I0.05
N585 X-190.05 I-0.05
N590 X-190.025 Y34.975 I0.025
N595 G1 X-190 Y35
N600 G0 Z5
N605 Z-11.6
N610 G1 Z-13 F1397
N615 X-190.025 Y35.025
N620 G3 X-190.05 Y35 J-0.025
N625 X-189.95 I0.05
N630 X-190.05 I-0.05
N635 X-190.025 Y34.975 I0.025
N640 G1 X-190 Y35
N645 G0 Z5
N650 Z-12.6
N655 G1 Z-14 F1397
N660 X-190.025 Y35.025
N665 G3 X-190.05 Y35 J-0.025
N670 X-189.95 I0.05
N675 X-190.05 I-0.05
N680 X-190.025 Y34.975 I0.025
N685 G1 X-190 Y35
N690 G0 Z5
N695 Z-13.6
N700 G1 Z-15 F1397
N705 X-190.025 Y35.025
N710 G3 X-190.05 Y35 J-0.025
N715 X-189.95 I0.05
N720 X-190.05 I-0.05
N725 X-190.025 Y34.975 I0.025
N730 G1 X-190 Y35
N735 G0 Z5
N740 Z-14.6
N745 G1 Z-16 F1397
N750 X-190.025 Y35.025
N755 G3 X-190.05 Y35 J-0.025
N760 X-189.95 I0.05
N765 X-190.05 I-0.05
N770 X-190.025 Y34.975 I0.025
N775 G1 X-190 Y35
N780 G0 Z5
N785 Z-15.6
N790 G1 Z-17 F1397
N795 X-190.025 Y35.025
N800 G3 X-190.05 Y35 J-0.025
N805 X-189.95 I0.05
N810 X-190.05 I-0.05
N815 X-190.025 Y34.975 I0.025
N820 G1 X-190 Y35
N825 G0 Z5
N830 X-10
N835 Z0.4
N840 G1 Z-1 F1397
N845 X-10.025 Y35.025
N850 G3 X-10.05 Y35 J-0.025
N855 X-9.95 I0.05
N860 X-10.05 I-0.05
N865 X-10.025 Y34.975 I0.025
N870 G1 X-10 Y35
N875 G0 Z5
N880 Z-0.6
N885 G1 Z-2 F1397
N890 X-10.025 Y35.025
N895 G3 X-10.05 Y35 J-0.025
N900 X-9.95 I0.05
N905 X-10.05 I-0.05
N910 X-10.025 Y34.975 I0.025
N915 G1 X-10 Y35
N920 G0 Z5
N925 Z-1.6
N930 G1 Z-3 F1397
N935 X-10.025 Y35.025
N940 G3 X-10.05 Y35 J-0.025
N945 X-9.95 I0.05
N950 X-10.05 I-0.05
N955 X-10.025 Y34.975 I0.025
N960 G1 X-10 Y35
N965 G0 Z5
N970 Z-2.6
N975 G1 Z-4 F1397
N980 X-10.025 Y35.025
N985 G3 X-10.05 Y35 J-0.025
N990 X-9.95 I0.05
N995 X-10.05 I-0.05
N1000 X-10.025 Y34.975 I0.025
N1005 G1 X-10 Y35
N1010 G0 Z5
N1015 Z-3.6
N1020 G1 Z-5 F1397
N1025 X-10.025 Y35.025
N1030 G3 X-10.05 Y35 J-0.025
N1035 X-9.95 I0.05
N1040 X-10.05 I-0.05
N1045 X-10.025 Y34.975 I0.025
N1050 G1 X-10 Y35
N1055 G0 Z5
N1060 Z-4.6
N1065 G1 Z-6 F1397
N1070 X-10.025 Y35.025
N1075 G3 X-10.05 Y35 J-0.025
N1080 X-9.95 I0.05
N1085 X-10.05 I-0.05
N1090 X-10.025 Y34.975 I0.025
N1095 G1 X-10 Y35
N1100 G0 Z5
N1105 Z-5.6
N1110 G1 Z-7 F1397
N1115 X-10.025 Y35.025
N1120 G3 X-10.05 Y35 J-0.025
N1125 X-9.95 I0.05
N1130 X-10.05 I-0.05
N1135 X-10.025 Y34.975 I0.025
N1140 G1 X-10 Y35
N1145 G0 Z5
N1150 Z-6.6
N1155 G1 Z-8 F1397
N1160 X-10.025 Y35.025
N1165 G3 X-10.05 Y35 J-0.025
N1170 X-9.95 I0.05
N1175 X-10.05 I-0.05
N1180 X-10.025 Y34.975 I0.025
N1185 G1 X-10 Y35
N1190 G0 Z5
N1195 Z-7.6
N1200 G1 Z-9 F1397
N1205 X-10.025 Y35.025
N1210 G3 X-10.05 Y35 J-0.025
N1215 X-9.95 I0.05
N1220 X-10.05 I-0.05
N1225 X-10.025 Y34.975 I0.025
N1230 G1 X-10 Y35
N1235 G0 Z5
N1240 Z-8.6
N1245 G1 Z-10 F1397
N1250 X-10.025 Y35.025
N1255 G3 X-10.05 Y35 J-0.025
N1260 X-9.95 I0.05
N1265 X-10.05 I-0.05
N1270 X-10.025 Y34.975 I0.025
N1275 G1 X-10 Y35
N1280 G0 Z5
N1285 Z-9.6
N1290 G1 Z-11 F1397
N1295 X-10.025 Y35.025
N1300 G3 X-10.05 Y35 J-0.025
N1305 X-9.95 I0.05
N1310 X-10.05 I-0.05
N1315 X-10.025 Y34.975 I0.025
N1320 G1 X-10 Y35
N1325 G0 Z5
N1330 Z-10.6
N1335 G1 Z-12 F1397
N1340 X-10.025 Y35.025
N1345 G3 X-10.05 Y35 J-0.025
N1350 X-9.95 I0.05
N1355 X-10.05 I-0.05
N1360 X-10.025 Y34.975 I0.025
N1365 G1 X-10 Y35
N1370 G0 Z5
N1375 Z-11.6
N1380 G1 Z-13 F1397
N1385 X-10.025 Y35.025
N1390 G3 X-10.05 Y35 J-0.025
N1395 X-9.95 I0.05
N1400 X-10.05 I-0.05
N1405 X-10.025 Y34.975 I0.025
N1410 G1 X-10 Y35
N1415 G0 Z5
N1420 Z-12.6
N1425 G1 Z-14 F1397
N1430 X-10.025 Y35.025
N1435 G3 X-10.05 Y35 J-0.025
N1440 X-9.95 I0.05
N1445 X-10.05 I-0.05
N1450 X-10.025 Y34.975 I0.025
N1455 G1 X-10 Y35
N1460 G0 Z5
N1465 Z-13.6
N1470 G1 Z-15 F1397
N1475 X-10.025 Y35.025
N1480 G3 X-10.05 Y35 J-0.025
N1485 X-9.95 I0.05
N1490 X-10.05 I-0.05
N1495 X-10.025 Y34.975 I0.025
N1500 G1 X-10 Y35
N1505 G0 Z5
N1510 Z-14.6
N1515 G1 Z-16 F1397
N1520 X-10.025 Y35.025
N1525 G3 X-10.05 Y35 J-0.025
N1530 X-9.95 I0.05
N1535 X-10.05 I-0.05
N1540 X-10.025 Y34.975 I0.025
N1545 G1 X-10 Y35
N1550 G0 Z5
N1555 Z-15.6
N1560 G1 Z-17 F1397
N1565 X-10.025 Y35.025
N1570 G3 X-10.05 Y35 J-0.025
N1575 X-9.95 I0.05
N1580 X-10.05 I-0.05
N1585 X-10.025 Y34.975 I0.025
N1590 G1 X-10 Y35
N1595 G0 Z15

(back morph)
N1600 X-54.024 Y56.475
N1605 Z15
N1610 Z-0.564
N1615 G1 Z-2.031 F1397
N1620 X-54.031 Z-2.12
N1625 X-54.05 Y56.477 Z-2.206
N1630 X-54.082 Y56.479 Z-2.288
N1635 X-54.125 Y56.482 Z-2.365
N1640 X-54.18 Y56.486 Z-2.435
N1645 X-54.244 Y56.491 Z-2.496
N1650 X-54.316 Y56.497 Z-2.547
N1655 X-54.395 Y56.503 Z-2.586
N1660 X-54.478 Y56.509 Z-2.614
N1665 X-54.565 Y56.516 Z-2.629
N1670 X-55.418 Y56.581 Z-2.711
N1675 X-56.378 Y56.646 Z-2.802
N1680 X-57.516 Y56.705 Z-2.909
N1685 X-58.654 Y56.749 Z-3.014
N1690 X-59.789 Y56.777 Z-3.117
N1695 X-60.926 Y56.791 Z-3.218
N1700 X-62.09 Y56.79 Z-3.318
N1705 X-63.223 Y56.776 Z-3.413
N1710 X-64.357 Y56.751 Z-3.506
N1715 X-65.551 Y56.71 Z-3.6
N1720 X-66.678 Y56.661 Z-3.686
N1725 X-68.19 Y56.578 Z-3.799
N1730 X-69.703 Y56.476 Z-3.907
N1735 X-71.143 Y56.359 Z-4.008
N1740 X-72.514 Y56.229 Z-4.1
N1745 X-73.898 Y56.08 Z-4.191
N1750 X-75.605 Y55.879 Z-4.298
N1755 X-77.323 Y55.65 Z-4.401
N1760 X-79.028 Y55.398 Z-4.5
N1765 X-80.356 Y55.183 Z-4.576
N1770 X-81.469 Y54.988 Z-4.638
N1775 X-82.402 Y54.813 Z-4.689
N1780 X-83.5 Y54.587 Z-4.749
N1785 X-83.96 Y54.482 Z-4.775
N1790 X-84.642 Y54.318 Z-4.812
N1795 X-85.419 Y54.1 Z-4.856
N1800 X-85.841 Y53.98 Z-4.879
N1805 X-86.477 Y53.763 Z-4.916
N1810 X-87.089 Y53.519 Z-4.952
N1815 X-87.377 Y53.392 Z-4.969
N1820 X-87.791 Y53.191 Z-4.994
N1825 X-88.132 Y53.008 Z-5.015
N1830 X-88.351 Y52.879 Z-5.029
N1835 X-88.648 Y52.695 Z-5.048
N1840 X-88.854 Y52.553 Z-5.061
N1845 X-89.139 Y52.339 Z-5.078
N1850 X-89.372 Y52.139 Z-5.094
N1855 X-89.58 Y51.933 Z-5.108
N1860 X-89.76 Y51.724 Z-5.121
N1865 X-89.793 Y51.681 Z-5.124
N1870 X-90.233 Y50.781 Z-5.172
N1875 X-90.288 Y50.551 Z-5.183
N1880 X-90.338 Y50.308 Z-5.195
N1885 X-97.133 Y51.429 Z-5.237
N1890 X-97.15 Y51.414
N1895 X-97.801 Y51.449 Z-5.244
N1900 X-98.425 Y51.467 Z-5.251
N1905 X-99.096 Y51.469 Z-5.259
N1910 X-99.795 Y51.456 Z-5.268
N1915 X-100.27 Y51.457 Z-5.267
N1920 X-100.989 Y51.469 Z-5.258
N1925 X-101.575 Y51.467 Z-5.251
N1930 X-102.284 Y51.445 Z-5.243
N1935 X-102.85 Y51.414 Z-5.237
N1940 X-102.867 Y51.429
N1945 X-109.662 Y50.308 Z-5.195
N1950 X-109.717 Y50.573 Z-5.182
N1955 X-109.769 Y50.786 Z-5.172
N1960 X-110.207 Y51.681 Z-5.124
N1965 X-110.386 Y51.897 Z-5.11
N1970 X-110.589 Y52.103 Z-5.096
N1975 X-110.823 Y52.308 Z-5.081
N1980 X-111.053 Y52.486 Z-5.066
N1985 X-111.339 Y52.686 Z-5.048
N1990 X-111.607 Y52.853 Z-5.032
N1995 X-111.831 Y52.987 Z-5.018
N2000 X-112.231 Y53.202 Z-4.993
N2005 X-112.737 Y53.445 Z-4.962
N2010 X-113.285 Y53.671 Z-4.93
N2015 X-113.599 Y53.79 Z-4.912
N2020 X-114.172 Y53.984 Z-4.879
N2025 X-114.73 Y54.142 Z-4.847
N2030 X-115.364 Y54.32 Z-4.812
N2035 X-116.144 Y54.507 Z-4.769
N2040 X-116.592 Y54.607 Z-4.744
N2045 X-117.767 Y54.846 Z-4.68
N2050 X-119.088 Y55.088 Z-4.607
N2055 X-120.373 Y55.303 Z-4.535
N2060 X-121.826 Y55.526 Z-4.451
N2065 X-123.218 Y55.725 Z-4.369
N2070 X-124.726 Y55.92 Z-4.277
N2075 X-126.804 Y56.159 Z-4.145
N2080 X-128.243 Y56.303 Z-4.049
N2085 X-129.639 Y56.424 Z-3.954
N2090 X-131.039 Y56.528 Z-3.855
N2095 X-132.517 Y56.619 Z-3.747
N2100 X-134.055 Y56.694 Z-3.631
N2105 X-134.947 Y56.728 Z-3.561
N2110 X-135.922 Y56.758 Z-3.483
N2115 X-137.051 Y56.781 Z-3.391
N2120 X-138.173 Y56.791 Z-3.296
N2125 X-139.238 Y56.79 Z-3.203
N2130 X-140.374 Y56.774 Z-3.103
N2135 X-141.51 Y56.744 Z-2.999
N2140 X-142.645 Y56.698 Z-2.894
N2145 X-143.754 Y56.638 Z-2.79
N2150 X-144.971 Y56.553 Z-2.673
N2155 X-146.051 Y56.466 Z-2.569
N2160 X-147.212 Y56.355 Z-2.455
N2165 X-148.394 Y56.229 Z-2.337
N2170 X-149.522 Y56.096 Z-2.223
N2175 X-150.675 Y55.949 Z-2.105
N2180 X-151.851 Y55.787 Z-1.984
N2185 X-152.948 Y55.627 Z-1.869
N2190 X-154.068 Y55.452 Z-1.75
N2195 X-155.14 Y55.276 Z-1.635
N2200 X-156.22 Y55.086 Z-1.518
N2205 X-157.316 Y54.879 Z-1.397
N2210 X-158.45 Y54.641 Z-1.269
N2215 X-158.992 Y54.513 Z-1.206
N2220 X-159.641 Y54.344 Z-1.129
N2225 X-160 Y54.234 Z-1.086
N2230 X-160.343 Y54.125 Z-1.045
N2235 X-160.746 Y53.974 Z-0.996
N2240 X-161.038 Y53.848 Z-0.962
N2245 X-161.216 Y53.764 Z-0.941
N2250 X-161.389 Y53.674 Z-0.921
N2255 X-161.591 Y53.562 Z-0.897
N2260 X-161.801 Y53.436 Z-0.873
N2265 X-161.987 Y53.314 Z-0.852
N2270 X-162.382 Y53.03 Z-0.808
N2275 X-162.581 Y52.872 Z-0.786
N2280 X-162.816 Y52.67 Z-0.761
N2285 X-162.992 Y52.504 Z-0.743
N2290 X-163.406 Y52.078 Z-0.701
N2295 X-163.555 Y51.91 Z-0.686
N2300 X-163.767 Y51.657 Z-0.666
N2305 X-163.998 Y51.357 Z-0.644
N2310 X-164.323 Y50.902 Z-0.615
N2315 X-164.461 Y50.693 Z-0.603
N2320 X-164.655 Y50.385 Z-0.587
N2325 X-164.79 Y50.153 Z-0.578
N2330 X-164.922 Y49.907 Z-0.569
N2335 X-165.046 Y49.649 Z-0.562
N2340 X-165.158 Y49.383 Z-0.557
N2345 X-165.297 Y48.996 Z-0.553
N2350 X-165.497 Y48.354 Z-0.549
N2355 X-165.606 Y47.926 Z-0.551
N2360 X-165.673 Y47.583 Z-0.559
N2365 X-165.714 Y47.278 Z-0.572
N2370 X-165.767 Y46.813 Z-0.596
N2375 X-165.793 Y46.353 Z-0.621
N2380 X-165.834 Y45.499 Z-0.663
N2385 X-165.908 Y43.339 Z-0.741
N2390 X-165.958 Y41.865 Z-0.783
N2395 X-166.003 Y40.021 Z-0.83
N2400 X-166.013 Y38.725 Z-0.859
N2405 X-166.002 Y37.574 Z-0.884
N2410 X-165.972 Y36.476 Z-0.907
N2415 X-165.916 Y35.311 Z-0.93
N2420 X-165.84 Y34.219 Z-0.951
N2425 X-165.733 Y33.062 Z-0.973
N2430 X-165.6 Y31.903 Z-0.994
N2435 X-165.441 Y30.744 Z-1.015
N2440 X-165.255 Y29.583 Z-1.037
N2445 X-165.041 Y28.422 Z-1.059
N2450 X-164.776 Y27.156 Z-1.086
N2455 X-164.525 Y26.088 Z-1.109
N2460 X-164.213 Y24.905 Z-1.137
N2465 X-163.855 Y23.712 Z-1.168
N2470 X-163.525 Y22.742 Z-1.197
N2475 X-163.377 Y22.363 Z-1.209
N2480 X-162.947 Y21.341 Z-1.244
N2485 X-162.837 Y21.108 Z-1.253
N2490 X-162.593 Y20.626 Z-1.272
N2495 X-162.251 Y20.024 Z-1.299
N2500 X-162.081 Y19.755 Z-1.312
N2505 X-161.695 Y19.187 Z-1.344
N2510 X-161.404 Y18.805 Z-1.368
N2515 X-161.121 Y18.467 Z-1.391
N2520 X-160.834 Y18.148 Z-1.416
N2525 X-160.409 Y17.719 Z-1.452
N2530 X-160.175 Y17.495 Z-1.473
N2535 X-159.686 Y17.063 Z-1.518
N2540 X-159.386 Y16.821 Z-1.546
N2545 X-158.74 Y16.337 Z-1.607
N2550 X-158.059 Y15.874 Z-1.673
N2555 X-157.706 Y15.655 Z-1.708
N2560 X-156.928 Y15.19 Z-1.784
N2565 X-156.643 Y15.037 Z-1.812
N2570 X-155.685 Y14.528 Z-1.906
N2575 X-154.496 Y13.97 Z-2.022
N2580 X-153.334 Y13.482 Z-2.135
N2585 X-152.962 Y13.34 Z-2.171
N2590 X-152.043 Y13.009 Z-2.259
N2595 X-150.836 Y12.63 Z-2.376
N2600 X-149.621 Y12.307 Z-2.493
N2605 X-148.625 Y12.088 Z-2.589
N2610 X-148.331 Y12.031 Z-2.618
N2615 X-147.258 Y11.843 Z-2.721
N2620 X-146.581 Y11.751 Z-2.785
N2625 X-145.952 Y11.67 Z-2.845
N2630 X-144.801 Y11.561 Z-2.955
N2635 X-143.656 Y11.495 Z-3.063
N2640 X-142.508 Y11.467 Z-3.17
N2645 X-141.629 Y11.473 Z-3.252
N2650 X-141.202 Y11.479 Z-3.291
N2655 X-140.027 Y11.522 Z-3.398
N2660 X-138.94 Y11.586 Z-3.496
N2665 X-137.773 Y11.682 Z-3.599
N2670 X-136.579 Y11.811 Z-3.703
N2675 X-135.457 Y11.967 Z-3.8
N2680 X-134.505 Y12.129 Z-3.881
N2685 X-133.608 Y12.317 Z-3.957
N2690 X-133.034 Y12.443 Z-4.005
N2695 X-131.905 Y12.732 Z-4.099
N2700 X-131.167 Y12.952 Z-4.16
N2705 X-130.618 Y13.119 Z-4.206
N2710 X-129.855 Y13.382 Z-4.269
N2715 X-129.338 Y13.57 Z-4.311
N2720 X-128.23 Y14.012 Z-4.402
N2725 X-127.068 Y14.529 Z-4.497
N2730 X-126.57 Y14.775 Z-4.537
N2735 X-125.888 Y15.114 Z-4.591
N2740 X-125.318 Y15.435 Z-4.637
N2745 X-124.741 Y15.764 Z-4.682
N2750 X-124.499 Y15.916 Z-4.701
N2755 X-123.433 Y16.622 Z-4.785
N2760 X-123.115 Y16.855 Z-4.81
N2765 X-122.841 Y17.062 Z-4.831
N2770 X-122.134 Y17.638 Z-4.887
N2775 X-121.871 Y17.869 Z-4.908
N2780 X-121.371 Y18.321 Z-4.947
N2785 X-120.805 Y18.87 Z-4.991
N2790 X-120.153 Y19.554 Z-5.042
N2795 X-119.575 Y20.202 Z-5.088
N2800 X-119.077 Y20.801 Z-5.127
N2805 X-118.37 Y21.707 Z-5.182
N2810 X-118.096 Y22.082 Z-5.203
N2815 X-117.345 Y23.165 Z-5.261
N2820 X-117.013 Y23.682 Z-5.287
N2825 X-116.573 Y24.386 Z-5.32
N2830 X-115.969 Y25.421 Z-5.365
N2835 X-115.308 Y26.643 Z-5.414
N2840 X-114.792 Y27.67 Z-5.45
N2845 X-114.498 Y28.301 Z-5.471
N2850 X-114.144 Y29.078 Z-5.496
N2855 X-113.654 Y30.263 Z-5.529
N2860 X-113.201 Y31.477 Z-5.559
N2865 X-112.247 Y34.219 Z-5.609
N2870 X-111.922 Y35.178 Z-5.617
N2875 X-111.67 Y35.942 Z-5.608
N2880 X-111.332 Y37.084 Z-5.594
N2885 X-110.989 Y38.383 Z-5.574
N2890 X-110.716 Y39.494 Z-5.555
N2895 X-110.426 Y40.778 Z-5.529
N2900 X-110.189 Y41.902 Z-5.502
N2905 X-109.98 Y42.972 Z-5.473
N2910 X-109.79 Y44.043 Z-5.44
N2915 X-109.613 Y45.206 Z-5.401
N2920 X-109.48 Y46.39 Z-5.358
N2925 X-109.435 Y47.073 Z-5.333
N2930 X-109.424 Y47.683 Z-5.309
N2935 X-109.441 Y48.142 Z-5.292
N2940 X-109.48 Y48.951 Z-5.259
N2945 X-109.505 Y49.214 Z-5.247
N2950 X-109.563 Y49.698 Z-5.225
N2955 X-109.64 Y50.177 Z-5.202
N2960 X-109.662 Y50.308 Z-5.195
N2965 X-102.867 Y51.429 Z-5.237
N2970 X-102.85 Y51.414
N2975 X-102.199 Y51.449 Z-5.244
N2980 X-101.575 Y51.467 Z-5.251
N2985 X-100.904 Y51.469 Z-5.259
N2990 X-100.206 Y51.456 Z-5.268
N2995 X-99.73 Y51.457 Z-5.267
N3000 X-99.011 Y51.469 Z-5.258
N3005 X-98.425 Y51.467 Z-5.251
N3010 X-97.785 Y51.448 Z-5.244
N3015 X-97.15 Y51.414 Z-5.237
N3020 X-97.133 Y51.429
N3025 X-90.338 Y50.308 Z-5.195
N3030 X-90.433 Y49.728 Z-5.223
N3035 X-90.48 Y49.34 Z-5.242
N3040 X-90.51 Y49.083 Z-5.253
N3045 X-90.527 Y48.84 Z-5.264
N3050 X-90.575 Y47.776 Z-5.306
N3055 X-90.57 Y47.324 Z-5.323
N3060 X-90.558 Y46.941 Z-5.337
N3065 X-90.513 Y46.31 Z-5.361
N3070 X-90.374 Y45.107 Z-5.404
N3075 X-90.185 Y43.898 Z-5.445
N3080 X-89.969 Y42.701 Z-5.481
N3085 X-89.721 Y41.462 Z-5.513
N3090 X-89.46 Y40.265 Z-5.54
N3095 X-89.219 Y39.223 Z-5.56
N3100 X-88.949 Y38.141 Z-5.578
N3105 X-88.643 Y36.994 Z-5.595
N3110 X-88.33 Y35.942 Z-5.608
N3115 X-87.973 Y34.861 Z-5.617
N3120 X-87.164 Y32.524 Z-5.582
N3125 X-86.76 Y31.366 Z-5.557
N3130 X-86.313 Y30.178 Z-5.527
N3135 X-85.82 Y28.996 Z-5.493
N3140 X-85.27 Y27.797 Z-5.455
N3145 X-84.786 Y26.827 Z-5.42
N3150 X-84.51 Y26.305 Z-5.401
N3155 X-83.997 Y25.36 Z-5.363
N3160 X-83.371 Y24.293 Z-5.316
N3165 X-82.762 Y23.326 Z-5.269
N3170 X-82.415 Y22.817 Z-5.243
N3175 X-81.788 Y21.919 Z-5.194
N3180 X-81.41 Y21.422 Z-5.165
N3185 X-80.828 Y20.684 Z-5.119
N3190 X-80.335 Y20.099 Z-5.081
N3195 X-79.759 Y19.459 Z-5.036
N3200 X-79.126 Y18.801 Z-4.986
N3205 X-78.527 Y18.227 Z-4.939
N3210 X-77.919 Y17.683 Z-4.891
N3215 X-77.537 Y17.37 Z-4.861
N3220 X-77.121 Y17.033 Z-4.828
N3225 X-76.684 Y16.704 Z-4.794
N3230 X-76.453 Y16.547 Z-4.776
N3235 X-75.465 Y15.891 Z-4.698
N3240 X-75.192 Y15.725 Z-4.677
N3245 X-74.217 Y15.17 Z-4.599
N3250 X-73.726 Y14.922 Z-4.561
N3255 X-72.965 Y14.544 Z-4.499
N3260 X-71.989 Y14.109 Z-4.42
N3265 X-71.701 Y13.983 Z-4.397
N3270 X-70.563 Y13.532 Z-4.303
N3275 X-69.95 Y13.313 Z-4.253
N3280 X-69.31 Y13.096 Z-4.2
N3285 X-68.173 Y12.754 Z-4.105
N3290 X-67.6 Y12.605 Z-4.058
N3295 X-66.957 Y12.44 Z-4.004
N3300 X-66.268 Y12.291 Z-3.946
N3305 X-65.488 Y12.128 Z-3.88
N3310 X-64.548 Y11.968 Z-3.8
N3315 X-63.389 Y11.807 Z-3.7
N3320 X-62.146 Y11.674 Z-3.592
N3325 X-61.003 Y11.582 Z-3.491
N3330 X-59.842 Y11.515 Z-3.386
N3335 X-58.626 Y11.475 Z-3.275
N3340 X-57.512 Y11.467 Z-3.172
N3345 X-56.374 Y11.493 Z-3.066
N3350 X-55.615 Y11.537 Z-2.994
N3355 X-55.109 Y11.568 Z-2.946
N3360 X-53.911 Y11.685 Z-2.832
N3365 X-52.778 Y11.838 Z-2.724
N3370 X-52.126 Y11.951 Z-2.662
N3375 X-51.532 Y12.056 Z-2.604
N3380 X-50.663 Y12.243 Z-2.52
N3385 X-50.248 Y12.341 Z-2.48
N3390 X-49.12 Y12.643 Z-2.372
N3395 X-47.927 Y13.019 Z-2.256
N3400 X-46.994 Y13.356 Z-2.166
N3405 X-46.636 Y13.495 Z-2.132
N3410 X-45.503 Y13.97 Z-2.022
N3415 X-44.318 Y14.527 Z-1.906
N3420 X-43.369 Y15.03 Z-1.813
N3425 X-43.091 Y15.179 Z-1.786
N3430 X-42.17 Y15.729 Z-1.695
N3435 X-41.811 Y15.959 Z-1.66
N3440 X-41.166 Y16.404 Z-1.598
N3445 X-40.583 Y16.845 Z-1.543
N3450 X-40.283 Y17.089 Z-1.515
N3455 X-39.779 Y17.536 Z-1.469
N3460 X-39.392 Y17.918 Z-1.435
N3465 X-39.132 Y18.185 Z-1.413
N3470 X-38.847 Y18.503 Z-1.389
N3475 X-38.531 Y18.888 Z-1.362
N3480 X-38.256 Y19.255 Z-1.34
N3485 X-37.826 Y19.897 Z-1.305
N3490 X-37.527 Y20.412 Z-1.281
N3495 X-37.368 Y20.701 Z-1.269
N3500 X-37.124 Y21.187 Z-1.25
N3505 X-37.019 Y21.422 Z-1.241
N3510 X-36.589 Y22.445 Z-1.206
N3515 X-36.449 Y22.816 Z-1.194
N3520 X-36.116 Y23.801 Z-1.166
N3525 X-35.765 Y24.984 Z-1.135
N3530 X-35.46 Y26.146 Z-1.108
N3535 X-35.204 Y27.242 Z-1.084
N3540 X-34.947 Y28.479 Z-1.058
N3545 X-34.735 Y29.64 Z-1.036
N3550 X-34.551 Y30.8 Z-1.014
N3555 X-34.393 Y31.958 Z-0.993
N3560 X-34.262 Y33.115 Z-0.972
N3565 X-34.15 Y34.348 Z-0.949
N3570 X-34.076 Y35.437 Z-0.928
N3575 X-34.021 Y36.664 Z-0.903
N3580 X-33.993 Y37.876 Z-0.878
N3585 X-33.987 Y39.036 Z-0.853
N3590 X-34.003 Y40.333 Z-0.822
N3595 X-34.05 Y42.137 Z-0.776
N3600 X-34.145 Y44.861 Z-0.689
N3605 X-34.179 Y45.792 Z-0.65
N3610 X-34.225 Y46.715 Z-0.601
N3615 X-34.262 Y47.077 Z-0.582
N3620 X-34.316 Y47.51 Z-0.562
N3625 X-34.372 Y47.819 Z-0.553
N3630 X-34.42 Y48.037 Z-0.55
N3635 X-34.528 Y48.444 Z-0.549
N3640 X-34.741 Y49.107 Z-0.554
N3645 X-34.842 Y49.383 Z-0.557
N3650 X-34.961 Y49.664 Z-0.562
N3655 X-35.078 Y49.907 Z-0.569
N3660 X-35.21 Y50.153 Z-0.578
N3665 X-35.365 Y50.418 Z-0.589
N3670 X-35.607 Y50.799 Z-0.609
N3675 X-35.771 Y51.034 Z-0.623
N3680 X-36.03 Y51.394 Z-0.647
N3685 X-36.25 Y51.676 Z-0.667
N3690 X-36.473 Y51.944 Z-0.689
N3695 X-36.625 Y52.11 Z-0.704
N3700 X-37.029 Y52.525 Z-0.745
N3705 X-37.198 Y52.682 Z-0.763
N3710 X-37.459 Y52.906 Z-0.791
N3715 X-37.646 Y53.05 Z-0.811
N3720 X-38.052 Y53.341 Z-0.856
N3725 X-38.251 Y53.469 Z-0.879
N3730 X-38.522 Y53.626 Z-0.91
N3735 X-38.758 Y53.752 Z-0.938
N3740 X-38.959 Y53.847 Z-0.961
N3745 X-39.246 Y53.971 Z-0.995
N3750 X-39.657 Y54.125 Z-1.045
N3755 X-40.025 Y54.241 Z-1.089
N3760 X-40.369 Y54.346 Z-1.13
N3765 X-41.096 Y54.535 Z-1.216
N3770 X-41.656 Y54.664 Z-1.281
N3775 X-42.757 Y54.894 Z-1.405
N3780 X-43.947 Y55.117 Z-1.536
N3785 X-45.131 Y55.322 Z-1.664
N3790 X-46.287 Y55.509 Z-1.788
N3795 X-47.566 Y55.703 Z-1.923
N3800 X-48.68 Y55.861 Z-2.039
N3805 X-49.722 Y56.001 Z-2.146
N3810 X-50.822 Y56.138 Z-2.258
N3815 X-51.924 Y56.264 Z-2.369
N3820 X-53.027 Y56.379 Z-2.478
N3825 X-54.107 Y56.479 Z-2.584
N3830 X-54.565 Y56.516 Z-2.629
N3835 X-55.419 Y56.583 Z-2.711
N3840 X-56.378 Y56.651 Z-2.802
N3845 X-57.515 Y56.714 Z-2.909
N3850 X-58.699 Y56.762 Z-3.018
N3855 X-59.79 Y56.792 Z-3.117
N3860 X-60.926 Y56.808 Z-3.217
N3865 X-62.125 Y56.81 Z-3.321
N3870 X-63.256 Y56.799 Z-3.415
N3875 X-64.666 Y56.767 Z-3.529
N3880 X-66.135 Y56.716 Z-3.644
N3885 X-67.389 Y56.656 Z-3.739
N3890 X-68.74 Y56.579 Z-3.837
N3895 X-70.245 Y56.475 Z-3.944
N3900 X-71.801 Y56.343 Z-4.051
N3905 X-73.239 Y56.204 Z-4.146
N3910 X-75.521 Y55.946 Z-4.291
N3915 X-77.818 Y55.642 Z-4.428
N3920 X-80.081 Y55.3 Z-4.558
N3925 X-82.034 Y54.96 Z-4.666
N3930 X-82.926 Y54.786 Z-4.715
N3935 X-84.167 Y54.52 Z-4.783
N3940 X-84.872 Y54.344 Z-4.822
N3945 X-85.495 Y54.173 Z-4.857
N3950 X-85.954 Y54.035 Z-4.883
N3955 X-86.408 Y53.884 Z-4.909
N3960 X-86.857 Y53.721 Z-4.934
N3965 X-87.226 Y53.575 Z-4.956
N3970 X-87.648 Y53.382 Z-4.981
N3975 X-88.111 Y53.147 Z-5.009
N3980 X-88.58 Y52.882 Z-5.038
N3985 X-88.895 Y52.682 Z-5.057
N3990 X-89.086 Y52.545 Z-5.069
N3995 X-89.242 Y52.418 Z-5.078
N4000 X-89.415 Y52.26 Z-5.09
N4005 X-89.579 Y52.088 Z-5.101
N4010 X-89.732 Y51.904 Z-5.113
N4015 X-89.857 Y51.733 Z-5.123
N4020 X-90.013 Y51.485 Z-5.137
N4025 X-90.12 Y51.283 Z-5.147
N4030 X-90.291 Y50.932 Z-5.166
N4035 X-90.358 Y50.759 Z-5.175
N4040 X-90.41 Y50.58 Z-5.184
N4045 X-90.44 Y50.533 Z-5.186
N4050 X-90.489 Y50.496 Z-5.189
N4055 X-90.52 Y50.483 Z-5.19
N4060 X-90.586 Y50.478 Z-5.191
N4065 X-95.487 Y51.32 Z-5.221
N4070 X-96.534 Y51.497 Z-5.228
N4075 X-97.069 Y51.583 Z-5.232
N4080 X-97.119 Y51.587
N4085 X-97.209 Y51.576 Z-5.233
N4090 X-97.446 Y51.595 Z-5.236
N4095 X-99.011 Y51.635 Z-5.253
N4100 X-100.216 Y51.639 Z-5.262
N4105 X-101.021 Y51.642 Z-5.252
N4110 X-102.56 Y51.613 Z-5.235
N4115 X-102.767 Y51.595 Z-5.233
N4120 X-102.83 Y51.599 Z-5.232
N4125 X-102.883 Y51.607
N4130 X-102.937 Y51.604 Z-5.231
N4135 X-106.045 Y51.118 Z-5.209
N4140 X-109.319 Y50.562 Z-5.188
N4145 X-109.386 Y50.561 Z-5.187
N4150 X-109.45 Y50.581 Z-5.186
N4155 X-109.504 Y50.621 Z-5.183
N4160 X-109.543 Y50.675 Z-5.18
N4165 X-109.578 Y50.782 Z-5.175
N4170 X-109.607 Y50.855 Z-5.171
N4175 X-109.849 Y51.369 Z-5.144
N4180 X-109.989 Y51.625 Z-5.131
N4185 X-110.115 Y51.82 Z-5.12
N4190 X-110.265 Y52.022 Z-5.108
N4195 X-110.422 Y52.206 Z-5.097
N4200 X-110.589 Y52.378 Z-5.085
N4205 X-110.812 Y52.577 Z-5.071
N4210 X-110.995 Y52.717 Z-5.059
N4215 X-111.191 Y52.849 Z-5.047
N4220 X-111.508 Y53.039 Z-5.028
N4225 X-111.87 Y53.24 Z-5.007
N4230 X-112.232 Y53.426 Z-4.985
N4235 X-112.584 Y53.593 Z-4.964
N4240 X-112.877 Y53.716 Z-4.946
N4245 X-113.345 Y53.895 Z-4.919
N4250 X-113.818 Y54.06 Z-4.892
N4255 X-114.435 Y54.253 Z-4.857
N4260 X-115.256 Y54.479 Z-4.812
N4265 X-115.957 Y54.653 Z-4.773
N4270 X-117.363 Y54.954 Z-4.696
N4275 X-118.243 Y55.123 Z-4.648
N4280 X-121.354 Y55.649 Z-4.472
N4285 X-124.51 Y56.092 Z-4.284
N4290 X-127.87 Y56.473 Z-4.067
N4295 X-131.259 Y56.756 Z-3.831
N4300 X-134.643 Y56.94 Z-3.577
N4305 X-138.22 Y57.026 Z-3.283
N4310 X-140.315 Y57.021 Z-3.099
N4315 X-143.422 Y56.918 Z-2.811
N4320 X-146.466 Y56.707 Z-2.518
N4325 X-149.55 Y56.394 Z-2.209
N4330 X-152.8 Y55.975 Z-1.872
N4335 X-156.206 Y55.445 Z-1.505
N4340 X-157.398 Y55.229 Z-1.373
N4345 X-158.244 Y55.062 Z-1.277
N4350 X-158.961 Y54.906 Z-1.194
N4355 X-159.666 Y54.739 Z-1.11
N4360 X-159.952 Y54.661 Z-1.075
N4365 X-160.464 Y54.506 Z-1.014
N4370 X-160.806 Y54.391 Z-0.973
N4375 X-161.032 Y54.306 Z-0.945
N4380 X-161.366 Y54.163 Z-0.906
N4385 X-161.685 Y54.012 Z-0.868
N4390 X-161.908 Y53.895 Z-0.842
N4395 X-162.172 Y53.742 Z-0.811
N4400 X-162.425 Y53.583 Z-0.782
N4405 X-162.754 Y53.36 Z-0.745
N4410 X-163.012 Y53.171 Z-0.716
N4415 X-163.324 Y52.928 Z-0.682
N4420 X-163.51 Y52.769 Z-0.662
N4425 X-163.862 Y52.448 Z-0.624
N4430 X-164.01 Y52.312 Z-0.609
N4435 X-164.205 Y52.111 Z-0.589
N4440 X-164.314 Y51.998 Z-0.578
N4445 X-164.487 Y51.804 Z-0.56
N4450 X-164.579 Y51.702 Z-0.551
N4455 X-164.799 Y51.426 Z-0.531
N4460 X-164.909 Y51.27 Z-0.521
N4465 X-165.052 Y51.039 Z-0.509
N4470 X-165.155 Y50.846 Z-0.502
N4475 X-165.231 Y50.66 Z-0.499
N4480 X-165.289 Y50.536 Z-0.495
N4485 X-165.339 Y50.403 Z-0.493
N4490 X-165.396 Y50.27 Z-0.491
N4495 X-165.498 Y49.991 Z-0.488
N4500 X-165.6 Y49.65 Z-0.487
N4505 X-165.715 Y49.243 Z-0.488
N4510 X-165.837 Y48.754
N4515 X-165.966 Y48.198 Z-0.491
N4520 X-166.032 Y47.815 Z-0.501
N4525 X-166.075 Y47.465 Z-0.516
N4530 X-166.123 Y46.948 Z-0.546
N4535 X-166.151 Y46.389 Z-0.582
N4540 X-166.182 Y45.518 Z-0.632
N4545 X-166.227 Y43.701 Z-0.71
N4550 X-166.3 Y40.721 Z-0.802
N4555 X-166.318 Y39.963 Z-0.821
N4560 X-166.299 Y37.178 Z-0.885
N4565 X-166.272 Y36.384 Z-0.902
N4570 X-166.233 Y35.561 Z-0.919
N4575 X-166.18 Y34.713 Z-0.936
N4580 X-166.114 Y33.85 Z-0.952
N4585 X-166.043 Y33.075 Z-0.967
N4590 X-165.948 Y32.207 Z-0.982
N4595 X-165.814 Y31.153 Z-1.001
N4600 X-165.66 Y30.106 Z-1.021
N4605 X-165.518 Y29.257 Z-1.036
N4610 X-165.329 Y28.237 Z-1.056
N4615 X-165.143 Y27.372 Z-1.074
N4620 X-164.887 Y26.217 Z-1.098
N4625 X-164.628 Y25.216 Z-1.121
N4630 X-164.395 Y24.392 Z-1.141
N4635 X-164.157 Y23.631 Z-1.161
N4640 X-163.896 Y22.875 Z-1.182
N4645 X-163.617 Y22.135 Z-1.205
N4650 X-163.306 Y21.377 Z-1.23
N4655 X-163.121 Y20.973 Z-1.244
N4660 X-162.883 Y20.513 Z-1.263
N4665 X-162.621 Y20.056 Z-1.283
N4670 X-162.401 Y19.702 Z-1.299
N4675 X-162.169 Y19.356 Z-1.317
N4680 X-161.859 Y18.926 Z-1.341
N4685 X-161.54 Y18.522 Z-1.366
N4690 X-161.199 Y18.123 Z-1.394
N4695 X-160.836 Y17.734 Z-1.424
N4700 X-160.562 Y17.459 Z-1.448
N4705 X-160.179 Y17.103 Z-1.481
N4710 X-159.779 Y16.759 Z-1.517
N4715 X-159.36 Y16.43 Z-1.556
N4720 X-158.914 Y16.103 Z-1.597
N4725 X-158.508 Y15.822 Z-1.636
N4730 X-158.093 Y15.551 Z-1.676
N4735 X-157.5 Y15.189 Z-1.733
N4740 X-156.982 Y14.883 Z-1.783
N4745 X-156.269 Y14.508 Z-1.853
N4750 X-155.634 Y14.19 Z-1.914
N4755 X-154.999 Y13.886 Z-1.976
N4760 X-154.154 Y13.505 Z-2.057
N4765 X-153.409 Y13.192 Z-2.129
N4770 X-152.787 Y12.958 Z-2.189
N4775 X-152.093 Y12.714 Z-2.255
N4780 X-151.042 Y12.378 Z-2.356
N4785 X-150.632 Y12.264 Z-2.395
N4790 X-149.703 Y12.016 Z-2.484
N4795 X-148.523 Y11.757 Z-2.597
N4800 X-147.537 Y11.582 Z-2.691
N4805 X-146.641 Y11.448 Z-2.777
N4810 X-145.742 Y11.337 Z-2.862
N4815 X-145.048 Y11.268 Z-2.927
N4820 X-144.37 Y11.214 Z-2.991
N4825 X-143.717 Y11.176 Z-3.052
N4830 X-143.059 Y11.151 Z-3.114
N4835 X-142.215 Y11.134 Z-3.192
N4840 X-141.097 Y11.143 Z-3.294
N4845 X-140.243 Y11.167 Z-3.371
N4850 X-139.389 Y11.204 Z-3.448
N4855 X-138.539 Y11.255 Z-3.523
N4860 X-137.57 Y11.332 Z-3.608
N4865 X-136.574 Y11.437 Z-3.694
N4870 X-135.83 Y11.531 Z-3.758
N4875 X-135.112 Y11.635 Z-3.818
N4880 X-134.453 Y11.743 Z-3.874
N4885 X-133.731 Y11.886 Z-3.934
N4890 X-132.886 Y12.07 Z-4.005
N4895 X-132.28 Y12.219 Z-4.055
N4900 X-131.584 Y12.404 Z-4.112
N4905 X-130.723 Y12.655 Z-4.183
N4910 X-129.999 Y12.889 Z-4.242
N4915 X-129.502 Y13.063 Z-4.283
N4920 X-128.923 Y13.28 Z-4.33
N4925 X-128.042 Y13.63 Z-4.401
N4930 X-127.222 Y13.994 Z-4.467
N4935 X-126.67 Y14.252 Z-4.512
N4940 X-126.068 Y14.55 Z-4.56
N4945 X-125.564 Y14.815 Z-4.6
N4950 X-125.085 Y15.083 Z-4.638
N4955 X-124.611 Y15.363 Z-4.675
N4960 X-124 Y15.747 Z-4.723
N4965 X-123.433 Y16.126 Z-4.767
N4970 X-123.055 Y16.394 Z-4.797
N4975 X-122.677 Y16.676 Z-4.826
N4980 X-122.291 Y16.981 Z-4.856
N4985 X-121.823 Y17.373 Z-4.893
N4990 X-121.411 Y17.735 Z-4.925
N4995 X-120.993 Y18.121 Z-4.957
N5000 X-120.565 Y18.535 Z-4.99
N5005 X-120.212 Y18.899 Z-5.017
N5010 X-119.862 Y19.266 Z-5.044
N5015 X-119.266 Y19.933 Z-5.09
N5020 X-118.598 Y20.746 Z-5.142
N5025 X-118.021 Y21.481 Z-5.185
N5030 X-117.645 Y21.999 Z-5.214
N5035 X-116.976 Y22.958 Z-5.264
N5040 X-116.507 Y23.687 Z-5.3
N5045 X-115.944 Y24.604 Z-5.341
N5050 X-115.601 Y25.207 Z-5.367
N5055 X-114.96 Y26.351 Z-5.412
N5060 X-114.529 Y27.186 Z-5.442
N5065 X-114.243 Y27.761 Z-5.461
N5070 X-113.757 Y28.808 Z-5.494
N5075 X-113.38 Y29.68 Z-5.519
N5080 X-113.05 Y30.495 Z-5.541
N5085 X-112.633 Y31.597 Z-5.567
N5090 X-111.64 Y34.372 Z-5.613
N5095 X-111.361 Y35.155 Z-5.616
N5100 X-111.028 Y36.162 Z-5.605
N5105 X-110.912 Y36.551 Z-5.6
N5110 X-110.25 Y38.903 Z-5.564
N5115 X-109.593 Y41.606 Z-5.508
N5120 X-109.298 Y42.953 Z-5.473
N5125 X-109.014 Y44.347 Z-5.43
N5130 X-108.831 Y45.28 Z-5.4
N5135 X-108.766 Y45.702 Z-5.386
N5140 X-108.732 Y46.079 Z-5.373
N5145 X-108.71 Y46.501 Z-5.358
N5150 X-108.664 Y47.007 Z-5.34
N5155 X-108.653 Y47.41 Z-5.326
N5160 X-108.654 Y47.755 Z-5.313
N5165 X-108.671 Y48.123 Z-5.3
N5170 X-108.717 Y48.924 Z-5.269
N5175 X-108.73 Y49.093 Z-5.262
N5180 X-108.727 Y49.188 Z-5.258
N5185 X-108.7 Y49.31 Z-5.252
N5190 X-108.662 Y49.404 Z-5.248
N5195 X-108.603 Y49.5 Z-5.245
N5200 X-108.545 Y49.567 Z-5.242
N5205 X-108.453 Y49.643 Z-5.24
N5210 X-108.373 Y49.69 Z-5.239
N5215 X-108.264 Y49.732 Z-5.238
N5220 X-108.192 Y49.748
N5225 X-105.495 Y50.178 Z-5.253
N5230 X-105.346 Y50.197 Z-5.254
N5235 X-104.497 Y50.286 Z-5.261
N5240 X-104.231 Y50.322 Z-5.263
N5245 X-103.763 Y50.4 Z-5.265
N5250 X-103.283 Y50.485 Z-5.268
N5255 X-102.859 Y50.545 Z-5.271
N5260 X-102.446 Y50.584 Z-5.275
N5265 X-102.17 Y50.6 Z-5.277
N5270 X-100.602 Y50.625 Z-5.297
N5275 X-99.787 Y50.616 Z-5.303
N5280 X-98.033 Y50.596 Z-5.28
N5285 X-97.555 Y50.566 Z-5.275
N5290 X-97.155 Y50.524 Z-5.272
N5295 X-96.56 Y50.431 Z-5.268
N5300 X-95.978 Y50.323 Z-5.266
N5305 X-95.713 Y50.28 Z-5.264
N5310 X-95.235 Y50.22 Z-5.26
N5315 X-94.658 Y50.159 Z-5.256
N5320 X-94.506 Y50.138 Z-5.255
N5325 X-91.834 Y49.685 Z-5.242
N5330 X-91.705 Y49.648
N5335 X-91.645 Y49.618
N5340 X-91.558 Y49.559 Z-5.244
N5345 X-91.475 Y49.476 Z-5.247
N5350 X-91.416 Y49.39 Z-5.25
N5355 X-91.38 Y49.313 Z-5.253
N5360 X-91.35 Y49.205 Z-5.258
N5365 X-91.341 Y49.099 Z-5.262
N5370 X-91.354 Y48.941 Z-5.269
N5375 X-91.419 Y47.906 Z-5.309
N5380 X-91.431 Y47.551 Z-5.322
N5385 X-91.43 Y47.126 Z-5.337
N5390 X-91.417 Y46.885 Z-5.345
N5395 X-91.382 Y46.499 Z-5.359
N5400 X-91.364 Y46.077 Z-5.373
N5405 X-91.338 Y45.722 Z-5.386
N5410 X-91.285 Y45.359 Z-5.398
N5415 X-91.197 Y44.895 Z-5.413
N5420 X-90.897 Y43.386 Z-5.46
N5425 X-90.685 Y42.373 Z-5.489
N5430 X-90.464 Y41.369 Z-5.514
N5435 X-89.962 Y39.253 Z-5.558
N5440 X-89.256 Y36.659 Z-5.598
N5445 X-88.905 Y35.547 Z-5.612
N5450 X-88.675 Y34.873 Z-5.619
N5455 X-87.685 Y32.079 Z-5.578
N5460 X-87.332 Y31.102 Z-5.557
N5465 X-86.943 Y30.098 Z-5.533
N5470 X-86.565 Y29.185 Z-5.508
N5475 X-86.216 Y28.399 Z-5.484
N5480 X-85.767 Y27.442 Z-5.454
N5485 X-85.246 Y26.418 Z-5.418
N5490 X-84.924 Y25.826 Z-5.395
N5495 X-84.207 Y24.55 Z-5.344
N5500 X-83.679 Y23.679 Z-5.305
N5505 X-83.197 Y22.923 Z-5.269
N5510 X-82.883 Y22.47 Z-5.245
N5515 X-82.055 Y21.299 Z-5.182
N5520 X-81.367 Y20.425 Z-5.13
N5525 X-80.862 Y19.809 Z-5.091
N5530 X-80.251 Y19.122 Z-5.045
N5535 X-79.647 Y18.484 Z-4.998
N5540 X-79.328 Y18.168 Z-4.973
N5545 X-78.783 Y17.652 Z-4.931
N5550 X-78.389 Y17.298 Z-4.9
N5555 X-77.976 Y16.944 Z-4.868
N5560 X-77.575 Y16.617 Z-4.837
N5565 X-77.049 Y16.214 Z-4.796
N5570 X-76.654 Y15.932 Z-4.765
N5575 X-76.016 Y15.499 Z-4.715
N5580 X-75.607 Y15.237 Z-4.683
N5585 X-75.198 Y14.988 Z-4.651
N5590 X-74.638 Y14.667 Z-4.607
N5595 X-73.991 Y14.32 Z-4.556
N5600 X-73.413 Y14.031 Z-4.51
N5605 X-72.813 Y13.746 Z-4.462
N5610 X-71.99 Y13.378 Z-4.395
N5615 X-71.407 Y13.144 Z-4.348
N5620 X-70.834 Y12.92 Z-4.302
N5625 X-70.319 Y12.732 Z-4.26
N5630 X-69.589 Y12.487 Z-4.201
N5635 X-68.977 Y12.298 Z-4.151
N5640 X-68.317 Y12.11 Z-4.097
N5645 X-67.639 Y11.931 Z-4.041
N5650 X-66.88 Y11.75 Z-3.979
N5655 X-66.126 Y11.592 Z-3.916
N5660 X-65.457 Y11.466 Z-3.86
N5665 X-64.781 Y11.354 Z-3.804
N5670 X-63.876 Y11.224 Z-3.727
N5675 X-62.979 Y11.119 Z-3.65
N5680 X-61.954 Y11.025 Z-3.562
N5685 X-60.895 Y10.951 Z-3.469
N5690 X-59.864 Y10.903 Z-3.377
N5695 X-59.046 Y10.88 Z-3.303
N5700 X-58.203 Y10.869 Z-3.227
N5705 X-57.497 Y10.873 Z-3.162
N5710 X-56.724 Y10.892 Z-3.091
N5715 X-55.822 Y10.935 Z-3.007
N5720 X-54.959 Y10.997 Z-2.926
N5725 X-54.042 Y11.091 Z-2.84
N5730 X-53.326 Y11.181 Z-2.773
N5735 X-52.628 Y11.282 Z-2.707
N5740 X-51.916 Y11.399 Z-2.639
N5745 X-51.247 Y11.534 Z-2.575
N5750 X-50.252 Y11.742 Z-2.481
N5755 X-49.32 Y11.984 Z-2.392
N5760 X-48.799 Y12.129 Z-2.343
N5765 X-47.82 Y12.438 Z-2.25
N5770 X-47.214 Y12.645 Z-2.193
N5775 X-46.654 Y12.849 Z-2.139
N5780 X-46.163 Y13.044 Z-2.092
N5785 X-45.481 Y13.331 Z-2.027
N5790 X-44.697 Y13.684 Z-1.952
N5795 X-43.929 Y14.054 Z-1.878
N5800 X-43.17 Y14.446 Z-1.805
N5805 X-42.747 Y14.675 Z-1.765
N5810 X-41.993 Y15.119 Z-1.693
N5815 X-41.559 Y15.39 Z-1.651
N5820 X-41.009 Y15.756 Z-1.6
N5825 X-40.477 Y16.135 Z-1.551
N5830 X-40.026 Y16.481 Z-1.511
N5835 X-39.707 Y16.743 Z-1.483
N5840 X-39.293 Y17.107 Z-1.448
N5845 X-38.903 Y17.477 Z-1.416
N5850 X-38.547 Y17.842 Z-1.388
N5855 X-38.201 Y18.227 Z-1.362
N5860 X-37.969 Y18.508 Z-1.344
N5865 X-37.735 Y18.813 Z-1.326
N5870 X-37.411 Y19.274 Z-1.302
N5875 X-37.156 Y19.664 Z-1.284
N5880 X-36.902 Y20.097 Z-1.265
N5885 X-36.629 Y20.603 Z-1.245
N5890 X-36.371 Y21.132 Z-1.226
N5895 X-36.116 Y21.708 Z-1.207
N5900 X-35.863 Y22.324 Z-1.188
N5905 X-35.616 Y22.984 Z-1.169
N5910 X-35.394 Y23.636 Z-1.151
N5915 X-35.193 Y24.278 Z-1.135
N5920 X-34.998 Y24.942 Z-1.119
N5925 X-34.735 Y25.913 Z-1.096
N5930 X-34.583 Y26.532 Z-1.083
N5935 X-34.242 Y28.056 Z-1.052
N5940 X-34.067 Y28.953 Z-1.034
N5945 X-33.889 Y29.979 Z-1.015
N5950 X-33.721 Y31.071 Z-0.995
N5955 X-33.579 Y32.152 Z-0.976
N5960 X-33.461 Y33.189 Z-0.957
N5965 X-33.326 Y34.709 Z-0.928
N5970 X-33.251 Y35.873 Z-0.904
N5975 X-33.193 Y37.099 Z-0.877
N5980 X-33.133 Y40.04 Z-0.805
N5985 X-33.141 Y42.812 Z-0.717
N5990 X-33.146 Y44.592 Z-0.638
N5995 X-33.149 Y45.862 Z-0.558
N6000 X-33.155 Y47.052 Z-0.46
N6005 X-33.183 Y47.793 Z-0.408
N6010 X-33.191 Y47.92 Z-0.4
N6015 X-33.221 Y48.31 Z-0.381
N6020 X-33.285 Y48.87 Z-0.365
N6025 X-33.359 Y49.375 Z-0.359
N6030 X-33.387 Y49.705 Z-0.355
N6035 X-33.415 Y49.926 Z-0.353
N6040 X-33.431 Y50.153 Z-0.347
N6045 X-33.457 Y50.325 Z-0.344
N6050 X-33.473 Y50.505 Z-0.34
N6055 X-33.512 Y50.725 Z-0.337
N6060 X-33.54 Y50.93 Z-0.333
N6065 X-33.589 Y51.193 Z-0.33
N6070 X-33.635 Y51.385 Z-0.329
N6075 X-33.662 Y51.55 Z-0.327
N6080 X-33.693 Y51.703 Z-0.325
N6085 X-33.749 Y51.878 Z-0.327
N6090 X-33.805 Y51.998 Z-0.33
N6095 X-33.887 Y52.132 Z-0.336
N6100 X-33.969 Y52.236 Z-0.344
N6105 X-34.132 Y52.405 Z-0.36
N6110 X-34.281 Y52.556 Z-0.375
N6115 X-34.419 Y52.675 Z-0.389
N6120 X-34.582 Y52.824 Z-0.406
N6125 X-34.692 Y52.92 Z-0.418
N6130 X-34.808 Y53.01 Z-0.43
N6135 X-34.97 Y53.146 Z-0.448
N6140 X-35.139 Y53.268 Z-0.467
N6145 X-35.312 Y53.385 Z-0.486
N6150 X-35.664 Y53.646 Z-0.526
N6155 X-35.841 Y53.765 Z-0.546
N6160 X-36.09 Y53.912 Z-0.574
N6165 X-36.32 Y54.064 Z-0.601
N6170 X-36.547 Y54.202 Z-0.627
N6175 X-36.925 Y54.42 Z-0.671
N6180 X-37.172 Y54.558 Z-0.7
N6185 X-37.431 Y54.689 Z-0.731
N6190 X-37.724 Y54.831 Z-0.766
N6195 X-38.069 Y54.982 Z-0.807
N6200 X-38.284 Y55.066 Z-0.833
N6205 X-38.656 Y55.202 Z-0.878
N6210 X-39.072 Y55.337 Z-0.928
N6215 X-39.453 Y55.445 Z-0.974
N6220 X-40.237 Y55.646 Z-1.069
N6225 X-41.034 Y55.824 Z-1.164
N6230 X-41.673 Y55.95 Z-1.239
N6235 X-42.515 Y56.108 Z-1.335
N6240 X-46.098 Y56.675 Z-1.729
N6245 X-49.378 Y57.108 Z-2.075
N6250 X-52.804 Y57.47 Z-2.422
N6255 X-56.202 Y57.712 Z-2.752
N6260 X-58.624 Y57.804 Z-2.979
N6265 X-62.014 Y57.826 Z-3.281
N6270 X-65.416 Y57.745 Z-3.559
N6275 X-69.237 Y57.544 Z-3.845
N6280 X-72.394 Y57.291 Z-4.063
N6285 X-75.651 Y56.944 Z-4.272
N6290 X-79.061 Y56.495 Z-4.473
N6295 X-82.532 Y55.94 Z-4.666
N6300 X-84.147 Y55.631 Z-4.753
N6305 X-84.978 Y55.446 Z-4.797
N6310 X-86.042 Y55.188 Z-4.855
N6315 X-86.695 Y55.008 Z-4.89
N6320 X-87.256 Y54.834 Z-4.92
N6325 X-87.92 Y54.605 Z-4.956
N6330 X-88.572 Y54.346 Z-4.992
N6335 X-89.07 Y54.13 Z-5.018
N6340 X-89.52 Y53.915 Z-5.04
N6345 X-89.759 Y53.786 Z-5.052
N6350 X-89.995 Y53.632 Z-5.064
N6355 X-90.255 Y53.43 Z-5.077
N6360 X-90.425 Y53.272 Z-5.086
N6365 X-90.683 Y52.998 Z-5.101
N6370 X-90.835 Y52.81 Z-5.109
N6375 X-90.962 Y52.633 Z-5.117
N6380 X-91.049 Y52.531 Z-5.122
N6385 X-91.15 Y52.436 Z-5.127
N6390 X-91.279 Y52.341 Z-5.133
N6395 X-91.395 Y52.276 Z-5.137
N6400 X-91.527 Y52.22 Z-5.142
N6405 X-91.665 Y52.18 Z-5.146
N6410 X-91.778 Y52.16 Z-5.148
N6415 X-91.954 Y52.15 Z-5.152
N6420 X-92.143 Y52.167 Z-5.155
N6425 X-92.621 Y52.275 Z-5.161
N6430 X-93.66 Y52.514 Z-5.174
N6435 X-94.311 Y52.642 Z-5.182
N6440 X-94.842 Y52.729 Z-5.188
N6445 X-95.805 Y52.837 Z-5.199
N6450 X-96.911 Y52.958 Z-5.209
N6455 X-97.059 Y52.963 Z-5.211
N6460 X-97.258 Y52.95 Z-5.213
N6465 X-97.389 Y52.962 Z-5.214
N6470 X-97.647 Y52.974 Z-5.217
N6475 X-100.104 Y52.976 Z-5.24
N6480 X-101.469 Y52.984 Z-5.226
N6485 X-102.387 Y52.991 Z-5.216
N6490 X-102.651 Y52.978 Z-5.214
N6495 X-102.742 Y52.97 Z-5.213
N6500 X-102.943 Y52.984 Z-5.211
N6505 X-103.092 Y52.98 Z-5.209
N6510 X-105.059 Y52.781 Z-5.189
N6515 X-105.558 Y52.71 Z-5.183
N6520 X-106.282 Y52.576 Z-5.174
N6525 X-107.238 Y52.365 Z-5.162
N6530 X-107.845 Y52.229 Z-5.154
N6535 X-108.015 Y52.204 Z-5.151
N6540 X-108.176 Y52.205 Z-5.148
N6545 X-108.275 Y52.218 Z-5.146
N6550 X-108.423 Y52.255 Z-5.142
N6555 X-108.536 Y52.298 Z-5.138
N6560 X-108.662 Y52.364 Z-5.134
N6565 X-108.764 Y52.435 Z-5.129
N6570 X-108.859 Y52.518 Z-5.125
N6575 X-108.961 Y52.633 Z-5.119
N6580 X-109.127 Y52.875 Z-5.109
N6585 X-109.265 Y53.035 Z-5.101
N6590 X-109.424 Y53.196 Z-5.093
N6595 X-109.587 Y53.397 Z-5.083
N6600 X-109.732 Y53.55 Z-5.075
N6605 X-109.862 Y53.651 Z-5.068
N6610 X-110.079 Y53.8 Z-5.057
N6615 X-110.37 Y53.954 Z-5.043
N6620 X-110.859 Y54.188 Z-5.019
N6625 X-111.22 Y54.348 Z-5.001
N6630 X-111.602 Y54.508 Z-4.98
N6635 X-112.099 Y54.702 Z-4.953
N6640 X-112.73 Y54.92 Z-4.919
N6645 X-113.129 Y55.047 Z-4.898
N6650 X-113.653 Y55.199 Z-4.869
N6655 X-114.181 Y55.337 Z-4.841
N6660 X-114.992 Y55.535 Z-4.797
N6665 X-115.808 Y55.72 Z-4.753
N6670 X-118.669 Y56.256 Z-4.598
N6675 X-122.274 Y56.808 Z-4.394
N6680 X-125.517 Y57.218 Z-4.197
N6685 X-128.92 Y57.566 Z-3.971
N6690 X-132.356 Y57.818 Z-3.726
N6695 X-135.772 Y57.98 Z-3.461
N6700 X-139.277 Y58.05 Z-3.164
N6705 X-142.651 Y58.008 Z-2.856
N6710 X-146.062 Y57.838 Z-2.529
N6715 X-149.707 Y57.522 Z-2.163
N6720 X-153.008 Y57.144 Z-1.818
N6725 X-156.437 Y56.672 Z-1.445
N6730 X-157.697 Y56.472 Z-1.303
N6735 X-158.894 Y56.261 Z-1.164
N6740 X-159.508 Y56.14 Z-1.091
N6745 X-160.141 Y56.001 Z-1.015
N6750 X-160.768 Y55.849 Z-0.938
N6755 X-161.146 Y55.747 Z-0.892
N6760 X-161.586 Y55.614 Z-0.838
N6765 X-162.005 Y55.471 Z-0.787
N6770 X-162.325 Y55.347 Z-0.748
N6775 X-162.693 Y55.194 Z-0.704
N6780 X-163.18 Y54.969 Z-0.645
N6785 X-163.597 Y54.751 Z-0.596
N6790 X-163.934 Y54.574 Z-0.557
N6795 X-164.214 Y54.413 Z-0.524
N6800 X-164.317 Y54.353 Z-0.512
N6805 X-164.593 Y54.208 Z-0.48
N6810 X-164.822 Y54.074 Z-0.454
N6815 X-165.209 Y53.825 Z-0.41
N6820 X-165.464 Y53.673 Z-0.381
N6825 X-165.621 Y53.568 Z-0.364
N6830 X-165.799 Y53.437 Z-0.344
N6835 X-165.942 Y53.337 Z-0.329
N6840 X-166.167 Y53.157 Z-0.305
N6845 X-166.376 Y52.996 Z-0.283
N6850 X-166.524 Y52.855 Z-0.269
N6855 X-166.653 Y52.703 Z-0.257
N6860 X-166.758 Y52.551 Z-0.249
N6865 X-166.835 Y52.416 Z-0.244
N6870 X-166.903 Y52.27 Z-0.24
N6875 X-166.963 Y52.107 Z-0.238
N6880 X-166.991 Y51.996
N6885 X-167.006 Y51.871 Z-0.24
N6890 X-167.027 Y51.686 Z-0.243
N6895 X-167.047 Y51.565 Z-0.244
N6900 X-167.085 Y51.202 Z-0.252
N6905 X-167.1 Y50.966 Z-0.259
N6910 X-167.12 Y50.767 Z-0.263
N6915 X-167.129 Y50.488 Z-0.271
N6920 X-167.14 Y50.16 Z-0.277
N6925 X-167.16 Y49.744 Z-0.281
N6930 X-167.167 Y49.506 Z-0.286
N6935 X-167.217 Y49.025 Z-0.295
N6940 X-167.227 Y48.824 Z-0.302
N6945 X-167.258 Y48.428 Z-0.318
N6950 X-167.274 Y48.025 Z-0.341
N6955 X-167.279 Y47.853 Z-0.352
N6960 X-167.29 Y47.078 Z-0.413
N6965 X-167.276 Y45.461 Z-0.559
N6970 X-167.27 Y44.137 Z-0.643
N6975 X-167.261 Y42.132 Z-0.731
N6980 X-167.248 Y39.333 Z-0.817
N6985 X-167.242 Y38.733 Z-0.833
N6990 X-167.146 Y35.974 Z-0.897
N6995 X-167.001 Y33.863 Z-0.94
N7000 X-166.791 Y31.821 Z-0.977
N7005 X-166.655 Y30.876 Z-0.994
N7010 X-166.433 Y29.367 Z-1.021
N7015 X-165.999 Y27.157 Z-1.064
N7020 X-165.79 Y26.255 Z-1.082
N7025 X-165.578 Y25.422 Z-1.1
N7030 X-165.327 Y24.524 Z-1.121
N7035 X-165.044 Y23.597 Z-1.144
N7040 X-164.8 Y22.873 Z-1.163
N7045 X-164.553 Y22.208 Z-1.182
N7050 X-164.347 Y21.701 Z-1.197
N7055 X-164.074 Y21.074 Z-1.217
N7060 X-163.814 Y20.534 Z-1.236
N7065 X-163.533 Y20.001 Z-1.255
N7070 X-163.262 Y19.533 Z-1.274
N7075 X-162.996 Y19.118 Z-1.293
N7080 X-162.645 Y18.614 Z-1.318
N7085 X-162.343 Y18.222 Z-1.34
N7090 X-162.024 Y17.846 Z-1.363
N7095 X-161.758 Y17.553 Z-1.383
N7100 X-161.523 Y17.31 Z-1.401
N7105 X-161.12 Y16.927 Z-1.432
N7110 X-160.659 Y16.519 Z-1.469
N7115 X-160.188 Y16.131 Z-1.509
N7120 X-159.705 Y15.761 Z-1.551
N7125 X-159.343 Y15.502 Z-1.584
N7130 X-158.908 Y15.207 Z-1.623
N7135 X-158.316 Y14.829 Z-1.678
N7140 X-157.454 Y14.318 Z-1.759
N7145 X-157.034 Y14.09 Z-1.799
N7150 X-156.207 Y13.65 Z-1.878
N7155 X-155.885 Y13.495 Z-1.908
N7160 X-155.002 Y13.083 Z-1.992
N7165 X-154.313 Y12.787 Z-2.057
N7170 X-153.571 Y12.485 Z-2.127
N7175 X-152.859 Y12.224 Z-2.194
N7180 X-151.97 Y11.924 Z-2.277
N7185 X-151.116 Y11.659 Z-2.358
N7190 X-150.307 Y11.452 Z-2.434
N7195 X-149.601 Y11.288 Z-2.5
N7200 X-148.913 Y11.141 Z-2.565
N7205 X-148.202 Y11.004 Z-2.631
N7210 X-147.266 Y10.844 Z-2.719
N7215 X-146.315 Y10.706 Z-2.808
N7220 X-145.371 Y10.593 Z-2.896
N7225 X-144.412 Y10.503 Z-2.985
N7230 X-143.679 Y10.45 Z-3.053
N7235 X-142.945 Y10.412 Z-3.12
N7240 X-142.235 Y10.389 Z-3.185
N7245 X-141.516 Y10.378 Z-3.25
N7250 X-140.785 Y10.382 Z-3.315
N7255 X-139.66 Y10.408 Z-3.415
N7260 X-138.588 Y10.456 Z-3.509
N7265 X-137.541 Y10.526 Z-3.6
N7270 X-136.533 Y10.617 Z-3.685
N7275 X-135.599 Y10.728 Z-3.764
N7280 X-134.705 Y10.858 Z-3.838
N7285 X-133.816 Y11.011 Z-3.911
N7290 X-132.949 Y11.184 Z-3.982
N7295 X-132.356 Y11.318 Z-4.03
N7300 X-131.653 Y11.493 Z-4.087
N7305 X-131.03 Y11.662 Z-4.137
N7310 X-130.411 Y11.842 Z-4.187
N7315 X-129.795 Y12.036 Z-4.236
N7320 X-129.051 Y12.294 Z-4.295
N7325 X-128.199 Y12.62 Z-4.363
N7330 X-127.477 Y12.918 Z-4.42
N7335 X-126.939 Y13.159 Z-4.463
N7340 X-125.83 Y13.696 Z-4.55
N7345 X-125.2 Y14.032 Z-4.599
N7350 X-124.719 Y14.305 Z-4.637
N7355 X-124.264 Y14.578 Z-4.672
N7360 X-123.801 Y14.871 Z-4.708
N7365 X-123.231 Y15.254 Z-4.752
N7370 X-122.79 Y15.562 Z-4.786
N7375 X-122.38 Y15.866 Z-4.817
N7380 X-121.945 Y16.208 Z-4.85
N7385 X-121.499 Y16.579 Z-4.885
N7390 X-120.924 Y17.083 Z-4.928
N7395 X-120.496 Y17.48 Z-4.961
N7400 X-120.003 Y17.96 Z-4.999
N7405 X-119.663 Y18.309 Z-5.024
N7410 X-118.664 Y19.406 Z-5.1
N7415 X-118.144 Y20.033 Z-5.139
N7420 X-117.657 Y20.641 Z-5.175
N7425 X-117.546 Y20.787 Z-5.184
N7430 X-116.628 Y22.043 Z-5.251
N7435 X-115.783 Y23.307 Z-5.312
N7440 X-115.255 Y24.155 Z-5.349
N7445 X-114.777 Y24.961 Z-5.382
N7450 X-114.137 Y26.117 Z-5.426
N7455 X-113.815 Y26.728 Z-5.447
N7460 X-113.215 Y27.933 Z-5.486
N7465 X-112.791 Y28.845 Z-5.513
N7470 X-112.381 Y29.787 Z-5.538
N7475 X-111.935 Y30.879 Z-5.564
N7480 X-111.547 Y31.898 Z-5.585
N7485 X-110.528 Y34.619 Z-5.622
N7490 X-110.27 Y35.333 Z-5.615
N7495 X-110.023 Y36.06 Z-5.607
N7500 X-109.237 Y38.641 Z-5.571
N7505 X-108.277 Y42.242 Z-5.5
N7510 X-108.015 Y43.273 Z-5.473
N7515 X-107.859 Y43.883 Z-5.456
N7520 X-107.63 Y44.76 Z-5.431
N7525 X-107.51 Y45.181 Z-5.418
N7530 X-107.459 Y45.41 Z-5.411
N7535 X-107.427 Y45.655 Z-5.403
N7540 X-107.417 Y45.867 Z-5.396
N7545 X-107.424 Y46.184 Z-5.384
N7550 X-107.421 Y46.363 Z-5.378
N7555 X-107.407 Y46.523 Z-5.373
N7560 X-107.363 Y46.8 Z-5.363
N7565 X-107.34 Y47.029 Z-5.355
N7570 X-107.335 Y47.231 Z-5.348
N7575 X-107.337 Y47.505 Z-5.339
N7580 X-107.323 Y47.662 Z-5.333
N7585 X-107.289 Y47.818 Z-5.328
N7590 X-107.243 Y47.949 Z-5.324
N7595 X-107.178 Y48.08 Z-5.32
N7600 X-107.09 Y48.215 Z-5.316
N7605 X-107.015 Y48.306 Z-5.314
N7610 X-106.917 Y48.401 Z-5.311
N7615 X-106.787 Y48.501 Z-5.309
N7620 X-106.684 Y48.562 Z-5.308
N7625 X-106.516 Y48.636 Z-5.307
N7630 X-106.327 Y48.686
N7635 X-105.316 Y48.87 Z-5.312
N7640 X-105.216 Y48.884 Z-5.313
N7645 X-105.116 Y48.888 Z-5.314
N7650 X-104.562 Y48.892 Z-5.321
N7655 X-104.251 Y48.908 Z-5.324
N7660 X-103.897 Y48.942 Z-5.327
N7665 X-103.567 Y49 Z-5.329
N7670 X-103.169 Y49.087 Z-5.33
N7675 X-102.764 Y49.16 Z-5.332
N7680 X-102.379 Y49.211 Z-5.335
N7685 X-102.124 Y49.234 Z-5.338
N7690 X-101.627 Y49.266 Z-5.343
N7695 X-101.436 Y49.274 Z-5.345
N7700 X-100.836 Y49.283 Z-5.352
N7705 X-99.75 Y49.274 Z-5.36
N7710 X-98.569 Y49.264 Z-5.345
N7715 X-98.371 Y49.254 Z-5.343
N7720 X-97.868 Y49.218 Z-5.338
N7725 X-97.488 Y49.177 Z-5.335
N7730 X-97.091 Y49.116 Z-5.332
N7735 X-96.77 Y49.051 Z-5.331
N7740 X-96.34 Y48.952 Z-5.33
N7745 X-96.075 Y48.908 Z-5.328
N7750 X-95.755 Y48.876 Z-5.325
N7755 X-95.488 Y48.86 Z-5.323
N7760 X-95.091 Y48.854 Z-5.318
N7765 X-94.895 Y48.852 Z-5.316
N7770 X-94.788 Y48.846 Z-5.315
N7775 X-94.682 Y48.831 Z-5.314
N7780 X-93.697 Y48.639 Z-5.309
N7785 X-93.568 Y48.606
N7790 X-93.442 Y48.558
N7795 X-93.323 Y48.497 Z-5.31
N7800 X-93.189 Y48.406 Z-5.312
N7805 X-93.084 Y48.314 Z-5.314
N7810 X-92.996 Y48.216 Z-5.317
N7815 X-92.914 Y48.102 Z-5.32
N7820 X-92.836 Y47.957 Z-5.325
N7825 X-92.781 Y47.813 Z-5.329
N7830 X-92.748 Y47.675 Z-5.334
N7835 X-92.732 Y47.543 Z-5.338
N7840 X-92.729 Y47.443 Z-5.342
N7845 X-92.733 Y47.132 Z-5.353
N7850 X-92.724 Y46.932 Z-5.359
N7855 X-92.69 Y46.675 Z-5.368
N7860 X-92.661 Y46.468 Z-5.375
N7865 X-92.651 Y46.275 Z-5.382
N7870 X-92.662 Y45.871 Z-5.397
N7875 X-92.654 Y45.647 Z-5.404
N7880 X-92.623 Y45.399 Z-5.412
N7885 X-92.573 Y45.17 Z-5.42
N7890 X-92.439 Y44.697 Z-5.434
N7895 X-92.162 Y43.625 Z-5.465
N7900 X-91.861 Y42.419 Z-5.497
N7905 X-90.957 Y38.948 Z-5.567
N7910 X-90.198 Y36.378 Z-5.604
N7915 X-89.807 Y35.21 Z-5.617
N7920 X-89.551 Y34.499 Z-5.622
N7925 X-88.502 Y31.675 Z-5.583
N7930 X-88.191 Y30.853 Z-5.566
N7935 X-87.755 Y29.776 Z-5.541
N7940 X-87.354 Y28.846 Z-5.516
N7945 X-86.942 Y27.948 Z-5.49
N7950 X-86.555 Y27.163 Z-5.466
N7955 X-86.171 Y26.398 Z-5.44
N7960 X-85.707 Y25.537 Z-5.409
N7965 X-85.254 Y24.725 Z-5.378
N7970 X-84.652 Y23.719 Z-5.337
N7975 X-84.379 Y23.282 Z-5.317
N7980 X-83.499 Y21.953 Z-5.254
N7985 X-82.558 Y20.655 Z-5.185
N7990 X-82.046 Y20.007 Z-5.147
N7995 X-81.522 Y19.367 Z-5.107
N8000 X-81.197 Y18.995 Z-5.083
N8005 X-80.791 Y18.54 Z-5.052
N8010 X-80.19 Y17.903 Z-5.006
N8015 X-79.738 Y17.457 Z-4.972
N8020 X-79.315 Y17.056 Z-4.94
N8025 X-78.874 Y16.656 Z-4.907
N8030 X-78.394 Y16.243 Z-4.87
N8035 X-78.001 Y15.919 Z-4.84
N8040 X-77.599 Y15.606 Z-4.809
N8045 X-77.197 Y15.308 Z-4.779
N8050 X-76.635 Y14.916 Z-4.736
N8055 X-76.007 Y14.502 Z-4.687
N8060 X-75.553 Y14.219 Z-4.652
N8065 X-75.034 Y13.913 Z-4.612
N8070 X-74.413 Y13.571 Z-4.564
N8075 X-73.859 Y13.293 Z-4.52
N8080 X-73.063 Y12.904 Z-4.458
N8085 X-72.523 Y12.663 Z-4.416
N8090 X-71.969 Y12.432 Z-4.372
N8095 X-71.234 Y12.143 Z-4.314
N8100 X-70.782 Y11.978 Z-4.278
N8105 X-69.924 Y11.689 Z-4.21
N8110 X-69.155 Y11.458 Z-4.148
N8115 X-68.34 Y11.234 Z-4.083
N8120 X-67.399 Y11.005 Z-4.008
N8125 X-66.64 Y10.843 Z-3.946
N8130 X-65.828 Y10.687 Z-3.88
N8135 X-64.978 Y10.55 Z-3.81
N8140 X-64.318 Y10.46 Z-3.756
N8145 X-63.593 Y10.373 Z-3.695
N8150 X-63.098 Y10.324 Z-3.653
N8155 X-62.011 Y10.234 Z-3.561
N8160 X-61.195 Y10.186 Z-3.49
N8165 X-60.352 Y10.15 Z-3.417
N8170 X-59.274 Y10.125 Z-3.321
N8175 X-58.306 Y10.122 Z-3.235
N8180 X-57.316 Y10.14 Z-3.145
N8185 X-56.363 Y10.181 Z-3.059
N8190 X-55.421 Y10.246 Z-2.972
N8195 X-54.472 Y10.336 Z-2.885
N8200 X-53.769 Y10.418 Z-2.819
N8205 X-53.074 Y10.513 Z-2.755
N8210 X-52.381 Y10.62 Z-2.69
N8215 X-51.67 Y10.745 Z-2.624
N8220 X-50.754 Y10.926 Z-2.538
N8225 X-49.851 Y11.129 Z-2.454
N8230 X-48.958 Y11.353 Z-2.371
N8235 X-48.508 Y11.483 Z-2.329
N8240 X-46.985 Y11.973 Z-2.188
N8245 X-46.352 Y12.205 Z-2.129
N8250 X-45.85 Y12.402 Z-2.082
N8255 X-45.074 Y12.724 Z-2.009
N8260 X-44.361 Y13.05 Z-1.942
N8265 X-43.676 Y13.37 Z-1.878
N8270 X-42.48 Y14 Z-1.765
N8275 X-41.725 Y14.437 Z-1.695
N8280 X-41.276 Y14.711 Z-1.654
N8285 X-40.823 Y15.002 Z-1.613
N8290 X-40.287 Y15.367 Z-1.565
N8295 X-39.781 Y15.737 Z-1.521
N8300 X-39.3 Y16.115 Z-1.481
N8305 X-38.836 Y16.506 Z-1.445
N8310 X-38.395 Y16.906 Z-1.411
N8315 X-38.073 Y17.22 Z-1.387
N8320 X-37.718 Y17.599 Z-1.361
N8325 X-37.398 Y17.967 Z-1.339
N8330 X-37.089 Y18.357 Z-1.318
N8335 X-36.789 Y18.774 Z-1.297
N8340 X-36.485 Y19.232 Z-1.277
N8345 X-36.202 Y19.696 Z-1.258
N8350 X-35.912 Y20.215 Z-1.238
N8355 X-35.678 Y20.672 Z-1.222
N8360 X-35.463 Y21.142 Z-1.207
N8365 X-35.158 Y21.846 Z-1.185
N8370 X-34.915 Y22.459 Z-1.168
N8375 X-34.653 Y23.19 Z-1.148
N8380 X-34.385 Y24.015 Z-1.127
N8385 X-34.122 Y24.893 Z-1.107
N8390 X-33.966 Y25.465 Z-1.094
N8395 X-33.642 Y26.73 Z-1.067
N8400 X-33.533 Y27.217 Z-1.058
N8405 X-33.101 Y29.379 Z-1.017
N8410 X-32.76 Y31.638 Z-0.977
N8415 X-32.679 Y32.366 Z-0.964
N8420 X-32.491 Y34.15 Z-0.93
N8425 X-32.325 Y36.548 Z-0.88
N8430 X-32.196 Y40.06 Z-0.79
N8435 X-32.143 Y42.456 Z-0.706
N8440 X-32.107 Y44.066 Z-0.626
N8445 X-32.082 Y45.197 Z-0.546
N8450 X-32.041 Y46.179 Z-0.448
N8455 X-31.996 Y47.105 Z-0.346
N8460 X-31.967 Y47.954 Z-0.269
N8465 X-31.957 Y48.368 Z-0.238
N8470 X-31.953 Y48.811 Z-0.212
N8475 X-31.95 Y49.235 Z-0.191
N8480 X-31.953 Y49.725 Z-0.173
N8485 X-31.936 Y50.055 Z-0.163
N8490 X-31.907 Y50.531 Z-0.152
N8495 X-31.879 Y50.879 Z-0.147
N8500 X-31.853 Y51.374 Z-0.144
N8505 X-31.848 Y51.606 Z-0.137
N8510 X-31.842 Y51.777 Z-0.132
N8515 X-31.841 Y52.017 Z-0.125
N8520 X-31.834 Y52.264 Z-0.119
N8525 X-31.835 Y52.604 Z-0.111
N8530 Y52.881 Z-0.106
N8535 X-31.856 Y53.043 Z-0.105
N8540 X-31.892 Y53.173
N8545 X-31.949 Y53.308 Z-0.108
N8550 X-32.012 Y53.416 Z-0.111
N8555 X-32.101 Y53.532 Z-0.117
N8560 X-32.207 Y53.637 Z-0.124
N8565 X-32.432 Y53.81 Z-0.142
N8570 X-32.547 Y53.891 Z-0.152
N8575 X-32.872 Y54.107 Z-0.183
N8580 X-33.097 Y54.253 Z-0.206
N8585 X-33.407 Y54.443 Z-0.238
N8590 X-33.625 Y54.563 Z-0.261
N8595 X-34.315 Y54.921 Z-0.338
N8600 X-34.666 Y55.091 Z-0.379
N8605 X-34.995 Y55.243 Z-0.417
N8610 X-35.379 Y55.436 Z-0.462
N8615 X-36.032 Y55.743 Z-0.54
N8620 X-36.42 Y55.913 Z-0.587
N8625 X-36.867 Y56.094 Z-0.641
N8630 X-37.319 Y56.262 Z-0.696
N8635 X-37.655 Y56.374 Z-0.737
N8640 X-38.169 Y56.53 Z-0.8
N8645 X-38.786 Y56.695 Z-0.875
N8650 X-39.611 Y56.886 Z-0.976
N8655 X-40.608 Y57.083 Z-1.096
N8660 X-41.201 Y57.187 Z-1.167
N8665 X-44.629 Y57.702 Z-1.556
N8670 X-48.082 Y58.13 Z-1.927
N8675 X-51.554 Y58.481 Z-2.285
N8680 X-54.406 Y58.692 Z-2.568
N8685 X-57.541 Y58.825 Z-2.867
N8690 X-60.874 Y58.856 Z-3.17
N8695 X-64.313 Y58.787 Z-3.46
N8700 X-68.225 Y58.605 Z-3.761
N8705 X-71.434 Y58.377 Z-3.987
N8710 X-74.657 Y58.065 Z-4.198
N8715 X-78.095 Y57.656 Z-4.405
N8720 X-81.549 Y57.163 Z-4.6
N8725 X-84.51 Y56.656 Z-4.758
N8730 X-85.729 Y56.406 Z-4.822
N8735 X-86.668 Y56.194 Z-4.872
N8740 X-87.467 Y55.991 Z-4.913
N8745 X-88.255 Y55.766 Z-4.954
N8750 X-89.004 Y55.529 Z-4.992
N8755 X-89.735 Y55.27 Z-5.026
N8760 X-90.28 Y55.061 Z-5.05
N8765 X-90.48 Y54.974 Z-5.059
N8770 X-90.689 Y54.864 Z-5.067
N8775 X-90.862 Y54.755 Z-5.074
N8780 X-91.032 Y54.631 Z-5.081
N8785 X-91.271 Y54.435 Z-5.091
N8790 X-91.399 Y54.3 Z-5.097
N8795 X-91.536 Y54.179 Z-5.102
N8800 X-91.683 Y54.076 Z-5.108
N8805 X-91.86 Y53.98 Z-5.114
N8810 X-92.025 Y53.913 Z-5.119
N8815 X-92.172 Y53.87 Z-5.123
N8820 X-92.371 Y53.834 Z-5.129
N8825 X-92.549 Y53.822 Z-5.133
N8830 X-92.753 Y53.831 Z-5.138
N8835 X-92.949 Y53.865 Z-5.142
N8840 X-93.432 Y53.994 Z-5.151
N8845 X-94.078 Y54.114 Z-5.163
N8850 X-94.55 Y54.182 Z-5.171
N8855 X-95.056 Y54.23 Z-5.179
N8860 X-96.831 Y54.34 Z-5.202
N8865 X-97.037 Y54.338 Z-5.204
N8870 X-97.326 Y54.328 Z-5.207
N8875 X-97.483 Y54.335 Z-5.209
N8880 X-97.651 Y54.339 Z-5.211
N8885 X-100.107 Y54.317 Z-5.233
N8890 X-100.536 Z-5.229
N8895 X-102.444 Y54.358 Z-5.21
N8900 X-102.588 Y54.347 Z-5.208
N8905 X-102.864 Y54.353 Z-5.205
N8910 X-103.101 Y54.363 Z-5.203
N8915 X-103.534 Y54.344 Z-5.198
N8920 X-104.853 Y54.271 Z-5.181
N8925 X-105.363 Y54.223 Z-5.173
N8930 X-105.911 Y54.147 Z-5.163
N8935 X-106.493 Y54.04 Z-5.152
N8940 X-106.794 Y53.972 Z-5.146
N8945 X-107.454 Y53.805 Z-5.133
N8950 X-107.528 Y53.79 Z-5.132
N8955 X-107.669 Y53.779 Z-5.129
N8960 X-107.809 Y53.789 Z-5.125
N8965 X-107.937 Y53.819 Z-5.121
N8970 X-108.036 Y53.857 Z-5.118
N8975 X-108.154 Y53.921 Z-5.114
N8980 X-108.225 Y53.973 Z-5.112
N8985 X-108.383 Y54.101 Z-5.106
N8990 X-108.499 Y54.216 Z-5.101
N8995 X-108.579 Y54.319 Z-5.097
N9000 X-108.693 Y54.505 Z-5.091
N9005 X-108.755 Y54.584 Z-5.088
N9010 X-108.836 Y54.667 Z-5.085
N9015 X-108.97 Y54.767 Z-5.08
N9020 X-109.187 Y54.909 Z-5.071
N9025 X-109.321 Y54.975 Z-5.066
N9030 X-109.705 Y55.133 Z-5.05
N9035 X-110.22 Y55.332 Z-5.028
N9040 X-110.774 Y55.532 Z-5.002
N9045 X-111.501 Y55.773 Z-4.966
N9050 X-112.247 Y55.994 Z-4.928
N9055 X-113.076 Y56.216 Z-4.884
N9060 X-113.927 Y56.418 Z-4.84
N9065 X-115.137 Y56.678 Z-4.776
N9070 X-115.669 Y56.781 Z-4.748
N9075 X-118.495 Y57.276 Z-4.597
N9080 X-122.603 Y57.871 Z-4.365
N9085 X-126.534 Y58.333 Z-4.122
N9090 X-129.991 Y58.647 Z-3.888
N9095 X-133.914 Y58.898 Z-3.6
N9100 X-137.682 Y59.035 Z-3.295
N9105 X-138.193 Y59.049 Z-3.251
N9110 X-141.538 Y59.074 Z-2.953
N9115 X-144.597 Y59 Z-2.665
N9120 X-147.719 Y58.824 Z-2.36
N9125 X-150.902 Y58.554 Z-2.035
N9130 X-155.484 Y58.049 Z-1.545
N9135 X-159.028 Y57.559 Z-1.141
N9140 X-159.757 Y57.438 Z-1.054
N9145 X-160.534 Y57.293 Z-0.961
N9150 X-161.195 Y57.154 Z-0.88
N9155 X-161.699 Y57.035 Z-0.818
N9160 X-162.202 Y56.903 Z-0.756
N9165 X-162.639 Y56.776 Z-0.703
N9170 X-163.237 Y56.58 Z-0.629
N9175 X-163.798 Y56.374 Z-0.561
N9180 X-164.449 Y56.109 Z-0.483
N9185 X-165.044 Y55.849 Z-0.412
N9190 X-165.499 Y55.644 Z-0.359
N9195 X-166.36 Y55.272 Z-0.262
N9200 X-166.731 Y55.1 Z-0.221
N9205 X-167.101 Y54.914 Z-0.183
N9210 X-167.464 Y54.718 Z-0.148
N9215 X-167.817 Y54.514 Z-0.116
N9220 X-168.021 Y54.388 Z-0.099
N9225 X-168.163 Y54.282 Z-0.089
N9230 X-168.299 Y54.157 Z-0.08
N9235 X-168.425 Y54.015 Z-0.073
N9240 X-168.541 Y53.851 Z-0.067
N9245 X-168.642 Y53.667 Z-0.062
N9250 X-168.693 Y53.55 Z-0.061
N9255 X-168.738 Y53.423 Z-0.06
N9260 X-168.786 Y53.228 Z-0.059
N9265 X-168.813 Y53.029 Z-0.061
N9270 X-168.818 Y52.922 Z-0.062
N9275 X-168.817 Y52.813 Z-0.064
N9280 X-168.797 Y52.417 Z-0.073
N9285 X-168.758 Y51.811 Z-0.082
N9290 X-168.719 Y51.331 Z-0.081
N9295 X-168.663 Y50.803 Z-0.088
N9300 X-168.603 Y50.248 Z-0.102
N9305 X-168.571 Y49.852 Z-0.115
N9310 X-168.55 Y49.284 Z-0.139
N9315 X-168.529 Y48.627 Z-0.176
N9320 X-168.498 Y47.997 Z-0.224
N9325 X-168.442 Y46.957 Z-0.327
N9330 X-168.359 Y45.43 Z-0.505
N9335 X-168.32 Y44.541 Z-0.582
N9340 X-168.286 Y43.354 Z-0.657
N9345 X-168.231 Y41.45 Z-0.74
N9350 X-168.15 Y38.623 Z-0.828
N9355 X-168.122 Y37.641 Z-0.852
N9360 X-167.949 Y34.644 Z-0.918
N9365 X-167.781 Y32.753 Z-0.955
N9370 X-167.649 Y31.594 Z-0.976
N9375 X-167.306 Y29.25 Z-1.017
N9380 X-166.872 Y27.053 Z-1.058
N9385 X-166.738 Y26.472 Z-1.069
N9390 X-166.397 Y25.135 Z-1.097
N9395 X-166.141 Y24.249 Z-1.117
N9400 X-165.859 Y23.352 Z-1.139
N9405 X-165.61 Y22.628 Z-1.157
N9410 X-165.37 Y21.99 Z-1.175
N9415 X-165.121 Y21.392 Z-1.192
N9420 X-164.837 Y20.754 Z-1.212
N9425 X-164.564 Y20.2 Z-1.231
N9430 X-164.27 Y19.651 Z-1.25
N9435 X-163.986 Y19.165 Z-1.269
N9440 X-163.769 Y18.828 Z-1.284
N9445 X-163.489 Y18.42 Z-1.302
N9450 X-163.198 Y18.025 Z-1.321
N9455 X-162.855 Y17.604 Z-1.344
N9460 X-162.452 Y17.154 Z-1.372
N9465 X-162.108 Y16.8 Z-1.396
N9470 X-161.698 Y16.417 Z-1.425
N9475 X-161.209 Y15.992 Z-1.463
N9480 X-160.826 Y15.679 Z-1.493
N9485 X-160.433 Y15.376 Z-1.525
N9490 X-159.926 Y15.006 Z-1.568
N9495 X-159.44 Y14.679 Z-1.61
N9500 X-158.837 Y14.292 Z-1.664
N9505 X-158.434 Y14.05 Z-1.701
N9510 X-156.979 Y13.236 Z-1.836
N9515 X-156.418 Y12.948 Z-1.888
N9520 X-155.21 Y12.385 Z-2
N9525 X-154.39 Y12.039 Z-2.076
N9530 X-153.68 Y11.76 Z-2.142
N9535 X-152.183 Y11.241 Z-2.28
N9540 X-151.268 Y10.965 Z-2.364
N9545 X-150.373 Y10.729 Z-2.446
N9550 X-149.744 Y10.575 Z-2.505
N9555 X-149.109 Y10.433 Z-2.563
N9560 X-148.733 Y10.358 Z-2.598
N9565 X-147.624 Y10.153 Z-2.7
N9570 X-146.687 Y10.008 Z-2.787
N9575 X-145.78 Y9.891 Z-2.87
N9580 X-144.774 Y9.789 Z-2.962
N9585 X-143.768 Y9.71 Z-3.054
N9590 X-142.766 Y9.656 Z-3.145
N9595 X-142.015 Y9.631 Z-3.212
N9600 X-141.177 Y9.617 Z-3.287
N9605 X-140.218 Y9.618 Z-3.371
N9610 X-139.383 Y9.634 Z-3.444
N9615 X-138.583 Y9.662 Z-3.513
N9620 X-137.776 Y9.704 Z-3.582
N9625 X-136.714 Y9.782 Z-3.671
N9630 X-135.901 Y9.862 Z-3.739
N9635 X-134.991 Y9.973 Z-3.814
N9640 X-134.075 Y10.11 Z-3.888
N9645 X-133.12 Y10.284 Z-3.964
N9650 X-132.302 Y10.455 Z-4.029
N9655 X-131.344 Y10.683 Z-4.105
N9660 X-130.44 Y10.929 Z-4.176
N9665 X-129.639 Y11.17 Z-4.239
N9670 X-129.014 Y11.377 Z-4.288
N9675 X-128.497 Y11.562 Z-4.328
N9680 X-127.664 Y11.884 Z-4.393
N9685 X-127.262 Y12.052 Z-4.424
N9690 X-126.726 Y12.29 Z-4.465
N9695 X-126.164 Y12.554 Z-4.508
N9700 X-125.444 Y12.916 Z-4.563
N9705 X-124.836 Y13.247 Z-4.609
N9710 X-124.176 Y13.635 Z-4.66
N9715 X-123.527 Y14.043 Z-4.709
N9720 X-123.059 Y14.355 Z-4.744
N9725 X-122.555 Y14.708 Z-4.782
N9730 X-122.127 Y15.023 Z-4.814
N9735 X-121.573 Y15.455 Z-4.855
N9740 X-120.968 Y15.96 Z-4.9
N9745 X-120.514 Y16.362 Z-4.934
N9750 X-119.928 Y16.907 Z-4.977
N9755 X-119.332 Y17.493 Z-5.021
N9760 X-118.879 Y17.974 Z-5.055
N9765 X-118.299 Y18.606 Z-5.098
N9770 X-117.872 Y19.104 Z-5.129
N9775 X-117.345 Y19.747 Z-5.168
N9780 X-116.868 Y20.348 Z-5.202
N9785 X-115.615 Y22.085 Z-5.292
N9790 X-115.246 Y22.639 Z-5.318
N9795 X-114.786 Y23.356 Z-5.35
N9800 X-114.442 Y23.912 Z-5.373
N9805 X-114.112 Y24.459 Z-5.395
N9810 X-113.637 Y25.291 Z-5.426
N9815 X-113.263 Y25.966 Z-5.45
N9820 X-112.9 Y26.651 Z-5.473
N9825 X-112.576 Y27.289 Z-5.493
N9830 X-112.2 Y28.065 Z-5.516
N9835 X-111.85 Y28.816 Z-5.537
N9840 X-111.526 Y29.541 Z-5.555
N9845 X-111.225 Y30.242 Z-5.571
N9850 X-110.097 Y33.075 Z-5.617
N9855 X-109.687 Y34.106 Z-5.627
N9860 X-109.246 Y35.293 Z-5.621
N9865 X-109.067 Y35.808 Z-5.617
N9870 X-108.224 Y38.381 Z-5.586
N9875 X-107.115 Y42.15 Z-5.519
N9880 X-106.776 Y43.296 Z-5.492
N9885 X-106.543 Y44.046 Z-5.472
N9890 X-106.3 Y44.747 Z-5.454
N9895 X-106.187 Y45.08 Z-5.444
N9900 X-106.125 Y45.334 Z-5.437
N9905 X-106.091 Y45.547 Z-5.43
N9910 X-106.073 Y45.759 Z-5.422
N9915 X-106.069 Y45.968 Z-5.412
N9920 X-106.07 Y46.171 Z-5.403
N9925 X-106.047 Y46.353 Z-5.396
N9930 X-106.002 Y46.525 Z-5.39
N9935 X-105.934 Y46.694 Z-5.385
N9940 X-105.858 Y46.832 Z-5.381
N9945 X-105.784 Y46.939 Z-5.378
N9950 X-105.694 Y47.047 Z-5.375
N9955 X-105.579 Y47.157 Z-5.373
N9960 X-105.51 Y47.212 Z-5.372
N9965 X-105.411 Y47.28 Z-5.371
N9970 X-105.246 Y47.369 Z-5.37
N9975 X-105.058 Y47.439
N9980 X-104.861 Y47.482 Z-5.371
N9985 X-104.699 Y47.495 Z-5.372
N9990 X-104.338 Y47.488 Z-5.377
N9995 X-104.099 Y47.498 Z-5.38
N10000 X-103.843 Y47.524 Z-5.382
N10005 X-103.578 Y47.562 Z-5.384
N10010 X-103.315 Y47.616 Z-5.385
N10015 X-102.778 Y47.752 Z-5.387
N10020 X-102.515 Y47.805 Z-5.388
N10025 X-102.053 Y47.869 Z-5.392
N10030 X-101.618 Y47.909 Z-5.396
N10035 X-101.198 Y47.931 Z-5.4
N10040 X-99.767 Y47.926 Z-5.413
N10045 X-98.804 Y47.923 Z-5.401
N10050 X-98.385 Y47.898 Z-5.396
N10055 X-97.901 Y47.849 Z-5.392
N10060 X-97.496 Y47.789 Z-5.389
N10065 X-97.234 Y47.734 Z-5.388
N10070 X-96.722 Y47.605 Z-5.386
N10075 X-96.459 Y47.55 Z-5.385
N10080 X-96.063 Y47.483 Z-5.382
N10085 X-95.809 Y47.45 Z-5.38
N10090 X-95.167 Y47.38 Z-5.375
N10095 X-95.034 Y47.359 Z-5.374
N10100 X-94.842 Y47.302 Z-5.373
N10105 X-94.66 Y47.216 Z-5.374
N10110 X-94.547 Y47.144 Z-5.375
N10115 X-94.442 Y47.061 Z-5.377
N10120 X-94.325 Y46.944 Z-5.379
N10125 X-94.242 Y46.84 Z-5.382
N10130 X-94.154 Y46.7 Z-5.386
N10135 X-94.088 Y46.56 Z-5.39
N10140 X-94.039 Y46.409 Z-5.395
N10145 X-94.008 Y46.255 Z-5.401
N10150 X-93.995 Y46.084 Z-5.408
N10155 X-93.998 Y45.861 Z-5.418
N10160 X-93.985 Y45.557 Z-5.431
N10165 X-93.961 Y45.376 Z-5.437
N10170 X-93.92 Y45.192 Z-5.443
N10175 X-93.83 Y44.92 Z-5.45
N10180 X-93.585 Y44.22 Z-5.469
N10185 X-93.431 Y43.733 Z-5.482
N10190 X-93.192 Y42.944 Z-5.502
N10195 X-92.245 Y39.679 Z-5.568
N10200 X-91.86 Y38.35 Z-5.588
N10205 X-90.984 Y35.648 Z-5.619
N10210 X-90.57 Y34.498 Z-5.628
N10215 X-89.63 Y32.093 Z-5.607
N10220 X-89.012 Y30.509 Z-5.58
N10225 X-88.612 Y29.562 Z-5.559
N10230 X-88.309 Y28.878 Z-5.542
N10235 X-87.962 Y28.121 Z-5.522
N10240 X-87.603 Y27.372 Z-5.5
N10245 X-87.19 Y26.549 Z-5.475
N10250 X-86.783 Y25.779 Z-5.449
N10255 X-86.468 Y25.209 Z-5.429
N10260 X-86.01 Y24.403 Z-5.399
N10265 X-85.558 Y23.649 Z-5.368
N10270 X-85.195 Y23.066 Z-5.344
N10275 X-84.745 Y22.368 Z-5.312
N10280 X-84.464 Y21.952 Z-5.293
N10285 X-83.264 Y20.273 Z-5.207
N10290 X-82.732 Y19.598 Z-5.169
N10295 X-82.221 Y18.971 Z-5.131
N10300 X-81.901 Y18.592 Z-5.108
N10305 X-81.327 Y17.956 Z-5.066
N10310 X-81.002 Y17.605 Z-5.042
N10315 X-80.47 Y17.061 Z-5.003
N10320 X-80.052 Y16.652 Z-4.972
N10325 X-79.618 Y16.247 Z-4.94
N10330 X-79.046 Y15.74 Z-4.897
N10335 X-78.473 Y15.264 Z-4.855
N10340 X-78.039 Y14.922 Z-4.823
N10345 X-77.565 Y14.565 Z-4.788
N10350 X-76.943 Y14.123 Z-4.741
N10355 X-76.299 Y13.694 Z-4.693
N10360 X-75.646 Y13.289 Z-4.644
N10365 X-75.2 Y13.028 Z-4.61
N10370 X-74.737 Y12.771 Z-4.575
N10375 X-74.203 Y12.494 Z-4.534
N10380 X-73.668 Y12.23 Z-4.493
N10385 X-72.945 Y11.897 Z-4.438
N10390 X-72.368 Y11.652 Z-4.394
N10395 X-71.397 Y11.277 Z-4.319
N10400 X-70.742 Y11.048 Z-4.268
N10405 X-69.899 Y10.782 Z-4.203
N10410 X-68.976 Y10.521 Z-4.131
N10415 X-68.276 Y10.344 Z-4.076
N10420 X-67.576 Y10.181 Z-4.021
N10425 X-66.962 Y10.053 Z-3.973
N10430 X-66.234 Y9.916 Z-3.915
N10435 X-65.653 Y9.819 Z-3.868
N10440 X-64.902 Y9.71 Z-3.807
N10445 X-64.24 Y9.629 Z-3.753
N10450 X-63.434 Y9.545 Z-3.687
N10455 X-62.395 Y9.466 Z-3.6
N10460 X-61.339 Y9.41 Z-3.51
N10465 X-60.239 Y9.376 Z-3.415
N10470 X-59.175 Y9.367 Z-3.323
N10475 X-58.191 Y9.378 Z-3.236
N10480 X-57.236 Y9.406 Z-3.151
N10485 X-55.915 Y9.479 Z-3.032
N10490 X-54.923 Y9.563 Z-2.942
N10495 X-53.862 Y9.679 Z-2.845
N10500 X-53.217 Y9.764 Z-2.786
N10505 X-52.517 Y9.87 Z-2.722
N10510 X-52.013 Y9.956 Z-2.675
N10515 X-51.034 Y10.138 Z-2.585
N10520 X-50.15 Y10.33 Z-2.504
N10525 X-49.264 Y10.547 Z-2.423
N10530 X-48.499 Y10.75 Z-2.353
N10535 X-47.47 Y11.063 Z-2.259
N10540 X-46.688 Y11.328 Z-2.188
N10545 X-45.934 Y11.604 Z-2.12
N10550 X-45.292 Y11.861 Z-2.061
N10555 X-44.766 Y12.08 Z-2.013
N10560 X-44.34 Y12.272 Z-1.973
N10565 X-43.43 Y12.694 Z-1.89
N10570 X-42.427 Y13.219 Z-1.796
N10575 X-41.898 Y13.502 Z-1.748
N10580 X-41.103 Y13.967 Z-1.676
N10585 X-40.52 Y14.332 Z-1.625
N10590 X-40.066 Y14.629 Z-1.586
N10595 X-39.684 Y14.895 Z-1.553
N10600 X-39.167 Y15.274 Z-1.511
N10605 X-38.68 Y15.657 Z-1.473
N10610 X-38.208 Y16.053 Z-1.438
N10615 X-37.733 Y16.478 Z-1.404
N10620 X-37.402 Y16.804 Z-1.381
N10625 X-37.022 Y17.212 Z-1.356
N10630 X-36.774 Y17.493 Z-1.34
N10635 X-36.521 Y17.802 Z-1.323
N10640 X-36.269 Y18.136 Z-1.307
N10645 X-35.917 Y18.636 Z-1.284
N10650 X-35.643 Y19.061 Z-1.267
N10655 X-35.334 Y19.588 Z-1.247
N10660 X-35.041 Y20.133 Z-1.227
N10665 X-34.774 Y20.673 Z-1.21
N10670 X-34.482 Y21.32 Z-1.19
N10675 X-34.245 Y21.882 Z-1.174
N10680 X-33.986 Y22.557 Z-1.156
N10685 X-33.737 Y23.265 Z-1.138
N10690 X-33.446 Y24.173 Z-1.116
N10695 X-33.185 Y25.057 Z-1.097
N10700 X-32.94 Y25.965 Z-1.078
N10705 X-32.733 Y26.809 Z-1.061
N10710 X-32.427 Y28.259 Z-1.034
N10715 X-32.347 Y28.637 Z-1.027
N10720 X-32.013 Y30.644 Z-0.991
N10725 X-31.866 Y31.747 Z-0.972
N10730 X-31.573 Y34.631 Z-0.918
N10735 X-31.35 Y38.1 Z-0.84
N10740 X-31.214 Y41.065 Z-0.751
N10745 X-31.124 Y43.021 Z-0.667
N10750 X-31.069 Y44.21 Z-0.594
N10755 X-31.038 Y44.838 Z-0.543
N10760 X-30.987 Y45.512 Z-0.473
N10765 X-30.894 Y46.617 Z-0.325
N10770 X-30.836 Y47.231 Z-0.247
N10775 X-30.776 Y47.81 Z-0.183
N10780 X-30.729 Y48.334 Z-0.136
N10785 X-30.681 Y48.828 Z-0.1
N10790 X-30.64 Y49.276 Z-0.074
N10795 X-30.592 Y49.691 Z-0.054
N10800 X-30.535 Y50.034 Z-0.039
N10805 X-30.438 Y50.522 Z-0.024
N10810 X-30.36 Y50.9 Z-0.016
N10815 X-30.268 Y51.402 Z-0.01
N10820 X-30.195 Y51.926 Z-0.007
N10825 X-30.073 Y52.651 Z-0.008
N10830 X-30.022 Y52.999 Z-0.011
N10835 X-29.951 Y53.331 Z-0.015
N10840 X-29.893 Y53.574 Z-0.02
N10845 X-29.874 Y53.75 Z-0.025
N10850 X-29.864 Y53.984 Z-0.032
N10855 X-29.857 Y54.22
N10860 X-29.877 Y54.352
N10865 X-29.922 Y54.478
N10870 X-29.99 Y54.594
N10875 X-30.088 Y54.702
N10880 X-30.182 Y54.773
N10885 X-30.625 Y55.074 Z-0.033
N10890 X-31.028 Y55.325 Z-0.044
N10895 X-31.343 Y55.507 Z-0.061
N10900 X-31.691 Y55.695 Z-0.084
N10905 X-32.04 Y55.87 Z-0.114
N10910 X-32.377 Y56.026 Z-0.145
N10915 X-32.729 Y56.178 Z-0.178
N10920 X-33.2 Y56.361 Z-0.227
N10925 X-33.865 Y56.595 Z-0.302
N10930 X-34.372 Y56.778 Z-0.359
N10935 X-35.066 Y57.04 Z-0.441
N10940 X-35.79 Y57.293 Z-0.527
N10945 X-36.532 Y57.528 Z-0.618
N10950 X-37.289 Y57.743 Z-0.711
N10955 X-37.857 Y57.889 Z-0.781
N10960 X-38.432 Y58.022 Z-0.852
N10965 X-39.011 Y58.142 Z-0.922
N10970 X-39.596 Y58.25 Z-0.993
N10975 X-39.972 Y58.308 Z-1.038
N10980 X-42.536 Y58.685 Z-1.338
N10985 X-46.934 Y59.193 Z-1.821
N10990 X-51.166 Y59.581 Z-2.261
N10995 X-54.338 Y59.781 Z-2.574
N11000 X-57.526 Y59.879 Z-2.876
N11005 X-60.892 Z-3.18
N11010 X-64.816 Y59.769 Z-3.508
N11015 X-65.121 Y59.759 Z-3.532
N11020 X-69.368 Y59.529 Z-3.848
N11025 X-72.591 Y59.276 Z-4.069
N11030 X-76.979 Y58.815 Z-4.343
N11035 X-78.517 Y58.615 Z-4.432
N11040 X-81.256 Y58.256 Z-4.585
N11045 X-84.48 Y57.756 Z-4.758
N11050 X-86.537 Y57.375 Z-4.865
N11055 X-87.521 Y57.168 Z-4.916
N11060 X-88.222 Y57.004 Z-4.951
N11065 X-88.974 Y56.82 Z-4.988
N11070 X-90.004 Y56.541 Z-5.034
N11075 X-90.758 Y56.314 Z-5.064
N11080 X-91.035 Y56.215 Z-5.074
N11085 X-91.282 Y56.108 Z-5.083
N11090 X-91.446 Y56.027 Z-5.088
N11095 X-91.748 Y55.865 Z-5.098
N11100 X-91.997 Y55.754 Z-5.106
N11105 X-92.217 Y55.677 Z-5.112
N11110 X-92.458 Y55.613 Z-5.119
N11115 X-92.706 Y55.568 Z-5.126
N11120 X-92.971 Y55.543 Z-5.133
N11125 X-93.171 Y55.539 Z-5.139
N11130 X-93.392 Y55.55 Z-5.144
N11135 X-93.847 Y55.602 Z-5.155
N11140 X-94.39 Y55.664 Z-5.167
N11145 X-94.668 Y55.681 Z-5.172
N11150 X-95.749 Y55.699 Z-5.189
N11155 X-96.823 Y55.718 Z-5.202
N11160 X-97.344 Y55.702 Z-5.208
N11165 X-97.586 Y55.706 Z-5.21
N11170 X-99.896 Y55.645 Z-5.233
N11175 X-100.363 Y55.654 Z-5.231
N11180 X-102.413 Y55.723 Z-5.21
N11185 X-102.655 Y55.721 Z-5.208
N11190 X-103.112 Y55.74 Z-5.203
N11195 X-104.05 Y55.732 Z-5.192
N11200 X-105.004 Y55.703 Z-5.178
N11205 X-105.746 Y55.664 Z-5.164
N11210 X-106.483 Y55.61 Z-5.147
N11215 X-107.043 Y55.563 Z-5.133
N11220 X-107.212 Y55.562 Z-5.129
N11225 X-107.409 Y55.581 Z-5.123
N11230 X-107.617 Y55.628 Z-5.117
N11235 X-107.802 Y55.693 Z-5.112
N11240 X-107.973 Y55.775 Z-5.107
N11245 X-108.126 Y55.871 Z-5.102
N11250 X-108.289 Y55.985 Z-5.097
N11255 X-108.442 Y56.071 Z-5.092
N11260 X-108.768 Y56.22 Z-5.082
N11265 X-108.973 Y56.298 Z-5.074
N11270 X-109.489 Y56.457 Z-5.055
N11275 X-110.043 Y56.626 Z-5.033
N11280 X-111.141 Y56.925 Z-4.983
N11285 X-112.332 Y57.214 Z-4.924
N11290 X-113.375 Y57.438 Z-4.87
N11295 X-114.145 Y57.583 Z-4.83
N11300 X-116.588 Y58.024 Z-4.702
N11305 X-120.923 Y58.667 Z-4.466
N11310 X-125.282 Y59.2 Z-4.207
N11315 X-128.761 Y59.54 Z-3.981
N11320 X-132.783 Y59.829 Z-3.695
N11325 X-136.741 Y60.014 Z-3.385
N11330 X-137.344 Y60.036 Z-3.335
N11335 X-140.375 Y60.106 Z-3.073
N11340 X-143.912 Y60.09 Z-2.748
N11345 X-146.723 Y59.991 Z-2.478
N11350 X-149.918 Y59.787 Z-2.158
N11355 X-154.446 Y59.386 Z-1.683
N11360 X-158.567 Y58.928 Z-1.224
N11365 X-160.397 Y58.673 Z-1.007
N11370 X-161.328 Y58.517 Z-0.895
N11375 X-162.159 Y58.356 Z-0.794
N11380 X-162.844 Y58.204 Z-0.711
N11385 X-163.39 Y58.065 Z-0.645
N11390 X-163.833 Y57.947 Z-0.591
N11395 X-164.392 Y57.782 Z-0.523
N11400 X-164.952 Y57.605 Z-0.455
N11405 X-165.774 Y57.33 Z-0.358
N11410 X-166.633 Y57.062 Z-0.262
N11415 X-167.024 Y56.939 Z-0.221
N11420 X-167.394 Y56.811 Z-0.183
N11425 X-167.79 Y56.663 Z-0.144
N11430 X-168.251 Y56.473 Z-0.103
N11435 X-168.638 Y56.301 Z-0.074
N11440 X-169.045 Y56.104 Z-0.05
N11445 X-169.389 Y55.927 Z-0.036
N11450 X-169.714 Y55.748 Z-0.032
N11455 X-170.077 Y55.537
N11460 X-170.19 Y55.465
N11465 X-170.297 Y55.384
N11470 X-170.399 Y55.296
N11475 X-170.493 Y55.201
N11480 X-170.58 Y55.099
N11485 X-170.66 Y54.991
N11490 X-170.731 Y54.878
N11495 X-170.835 Y54.668 Z-0.029
N11500 X-170.902 Y54.48 Z-0.02
N11505 X-170.946 Y54.299 Z-0.01
N11510 X-170.972 Y54.1 Z-0.005
N11515 X-170.975 Y53.878 Z-0.004
N11520 X-170.953 Y53.664
N11525 X-170.926 Y53.533
N11530 X-170.89 Y53.403
N11535 X-170.816 Y53.212
N11540 X-170.729 Y53.026
N11545 X-170.616 Y52.714
N11550 X-170.563 Y52.52
N11555 X-170.52 Y52.23
N11560 X-170.369 Y51.574
N11565 X-170.285 Y51.097
N11570 X-170.208 Y50.764 Z-0.005
N11575 X-170.125 Y50.383 Z-0.007
N11580 X-170.037 Y50.03 Z-0.014
N11585 X-169.94 Y49.59 Z-0.028
N11590 X-169.868 Y49.146 Z-0.049
N11595 X-169.827 Y48.834 Z-0.067
N11600 X-169.779 Y48.425 Z-0.096
N11605 X-169.726 Y48.023 Z-0.131
N11610 X-169.68 Y47.621 Z-0.173
N11615 X-169.619 Y47.135 Z-0.232
N11620 X-169.558 Y46.583 Z-0.309
N11625 X-169.512 Y46.132 Z-0.376
N11630 X-169.44 Y45.328 Z-0.484
N11635 X-169.374 Y44.495 Z-0.567
N11640 X-169.315 Y43.592 Z-0.633
N11645 X-169.239 Y42.067 Z-0.711
N11650 X-169.125 Y39.788 Z-0.793
N11655 X-168.956 Y36.38 Z-0.881
N11660 X-168.758 Y33.716 Z-0.936
N11665 X-168.534 Y31.575 Z-0.975
N11670 X-168.28 Y29.826 Z-1.006
N11675 X-168.164 Y29.049 Z-1.019
N11680 X-167.97 Y28.016 Z-1.038
N11685 X-167.749 Y26.964 Z-1.057
N11690 X-167.591 Y26.283 Z-1.07
N11695 X-167.349 Y25.339 Z-1.09
N11700 X-167.088 Y24.417 Z-1.109
N11705 X-166.802 Y23.492 Z-1.131
N11710 X-166.539 Y22.711 Z-1.15
N11715 X-166.267 Y21.976 Z-1.169
N11720 X-166.034 Y21.401 Z-1.185
N11725 X-165.683 Y20.609 Z-1.208
N11730 X-165.4 Y20.026 Z-1.227
N11735 X-165.11 Y19.483 Z-1.245
N11740 X-164.801 Y18.949 Z-1.265
N11745 X-164.486 Y18.453 Z-1.285
N11750 X-164.126 Y17.934 Z-1.308
N11755 X-163.814 Y17.524 Z-1.328
N11760 X-163.474 Y17.115 Z-1.349
N11765 X-163.036 Y16.636 Z-1.378
N11770 X-162.779 Y16.373 Z-1.396
N11775 X-162.56 Y16.162 Z-1.41
N11780 X-162.075 Y15.732 Z-1.444
N11785 X-161.582 Y15.322 Z-1.48
N11790 X-161.065 Y14.919 Z-1.519
N11795 X-160.523 Y14.524 Z-1.563
N11800 X-159.972 Y14.149 Z-1.61
N11805 X-159.297 Y13.716 Z-1.668
N11810 X-158.874 Y13.462 Z-1.706
N11815 X-158.324 Y13.141 Z-1.755
N11820 X-157.447 Y12.665 Z-1.835
N11825 X-156.724 Y12.293 Z-1.901
N11830 X-155.757 Y11.841 Z-1.989
N11835 X-155.2 Y11.595 Z-2.04
N11840 X-154.309 Y11.232 Z-2.121
N11845 X-153.501 Y10.932 Z-2.194
N11850 X-152.68 Y10.651 Z-2.269
N11855 X-151.857 Y10.397 Z-2.343
N11860 X-151.48 Y10.286 Z-2.377
N11865 X-150.6 Y10.056 Z-2.456
N11870 X-149.872 Y9.879 Z-2.522
N11875 X-149.117 Y9.712 Z-2.591
N11880 X-148.158 Y9.526 Z-2.678
N11885 X-147.14 Y9.354 Z-2.771
N11890 X-146.236 Y9.222 Z-2.853
N11895 X-145.078 Y9.087 Z-2.959
N11900 X-144.503 Y9.038 Z-3.01
N11905 X-142.729 Y8.91 Z-3.17
N11910 X-141.726 Y8.87 Z-3.258
N11915 X-141.017 Y8.853 Z-3.321
N11920 X-140.037 Y8.845 Z-3.406
N11925 X-139.116 Y8.856 Z-3.485
N11930 X-138.319 Y8.879 Z-3.553
N11935 X-137.513 Y8.916 Z-3.621
N11940 X-136.732 Y8.965 Z-3.686
N11945 X-136.137 Y9.013 Z-3.735
N11950 X-135.256 Y9.104 Z-3.806
N11955 X-134.714 Y9.173 Z-3.85
N11960 X-134.024 Y9.271 Z-3.904
N11965 X-133.329 Y9.386 Z-3.959
N11970 X-132.478 Y9.548 Z-4.026
N11975 X-131.594 Y9.74 Z-4.094
N11980 X-130.765 Y9.944 Z-4.158
N11985 X-129.919 Y10.177 Z-4.223
N11990 X-129.099 Y10.428 Z-4.285
N11995 X-128.325 Y10.689 Z-4.344
N12000 X-127.306 Y11.08 Z-4.421
N12005 X-126.576 Y11.391 Z-4.476
N12010 X-125.884 Y11.717 Z-4.528
N12015 X-125.355 Y11.981 Z-4.567
N12020 X-124.858 Y12.244 Z-4.604
N12025 X-124.419 Y12.491 Z-4.636
N12030 X-123.901 Y12.8 Z-4.674
N12035 X-123.246 Y13.214 Z-4.722
N12040 X-122.607 Y13.646 Z-4.769
N12045 X-121.985 Y14.094 Z-4.814
N12050 X-121.514 Y14.453 Z-4.848
N12055 X-121.046 Y14.828 Z-4.882
N12060 X-120.603 Y15.199 Z-4.914
N12065 X-120.007 Y15.727 Z-4.956
N12070 X-119.394 Y16.302 Z-5
N12075 X-118.92 Y16.77 Z-5.034
N12080 X-118.51 Y17.192 Z-5.064
N12085 X-118.144 Y17.586 Z-5.09
N12090 X-117.676 Y18.1 Z-5.123
N12095 X-117.134 Y18.739 Z-5.162
N12100 X-116.61 Y19.381 Z-5.199
N12105 X-116.144 Y19.973 Z-5.232
N12110 X-115.664 Y20.617 Z-5.265
N12115 X-115.179 Y21.296 Z-5.299
N12120 X-114.749 Y21.921 Z-5.328
N12125 X-114.284 Y22.627 Z-5.359
N12130 X-113.888 Y23.245 Z-5.386
N12135 X-113.427 Y23.994 Z-5.415
N12140 X-113.073 Y24.604 Z-5.438
N12145 X-112.288 Y25.998 Z-5.486
N12150 X-111.982 Y26.575 Z-5.505
N12155 X-111.442 Y27.65 Z-5.536
N12160 X-111.077 Y28.407 Z-5.556
N12165 X-110.712 Y29.195 Z-5.575
N12170 X-110.373 Y29.955 Z-5.592
N12175 X-109.285 Y32.567 Z-5.631
N12180 X-108.8 Y33.734 Z-5.639
N12185 X-107.904 Y36.097 Z-5.629
N12190 X-106.729 Y39.589 Z-5.59
N12195 X-106.104 Y41.538 Z-5.558
N12200 X-105.7 Y42.75 Z-5.535
N12205 X-105.43 Y43.487 Z-5.519
N12210 X-105.248 Y43.944 Z-5.509
N12215 X-105.118 Y44.248 Z-5.503
N12220 X-105.016 Y44.534 Z-5.496
N12225 X-104.934 Y44.831 Z-5.488
N12230 X-104.882 Y45.059 Z-5.477
N12235 X-104.824 Y45.225 Z-5.467
N12240 X-104.742 Y45.39 Z-5.457
N12245 X-104.657 Y45.521 Z-5.451
N12250 X-104.554 Y45.648 Z-5.445
N12255 X-104.45 Y45.751 Z-5.441
N12260 X-104.355 Y45.83 Z-5.438
N12265 X-104.222 Y45.921 Z-5.436
N12270 X-104.116 Y45.979 Z-5.435
N12275 X-103.943 Y46.051 Z-5.434
N12280 X-103.749 Y46.105
N12285 X-103.401 Y46.155 Z-5.436
N12290 X-103.234 Y46.188 Z-5.437
N12295 X-102.973 Y46.25 Z-5.438
N12300 X-102.368 Y46.421 Z-5.44
N12305 X-102.053 Y46.487 Z-5.441
N12310 X-101.697 Y46.538 Z-5.444
N12315 X-101.366 Y46.57 Z-5.447
N12320 X-101.091 Y46.586 Z-5.45
N12325 X-100.685 Y46.597 Z-5.455
N12330 X-99.768 Y46.594 Z-5.461
N12335 X-99.315 Y46.593 Z-5.455
N12340 X-98.907 Y46.578 Z-5.451
N12345 X-98.509 Y46.548 Z-5.447
N12350 X-98.146 Y46.504 Z-5.443
N12355 X-97.819 Y46.446 Z-5.441
N12360 X-97.574 Y46.386 Z-5.44
N12365 X-96.965 Y46.209 Z-5.439
N12370 X-96.519 Y46.101 Z-5.437
N12375 X-96.329 Y46.036
N12380 X-96.145 Y45.954 Z-5.439
N12385 X-95.97 Y45.854 Z-5.441
N12390 X-95.846 Y45.77 Z-5.443
N12395 X-95.682 Y45.638 Z-5.448
N12400 X-95.532 Y45.49 Z-5.454
N12405 X-95.39 Y45.319 Z-5.463
N12410 X-95.263 Y45.13 Z-5.474
N12415 X-95.166 Y44.948 Z-5.485
N12420 X-95.082 Y44.744 Z-5.492
N12425 X-94.98 Y44.406 Z-5.501
N12430 X-94.88 Y44.114 Z-5.508
N12435 X-94.723 Y43.736 Z-5.516
N12440 X-94.453 Y43.01 Z-5.531
N12445 X-94.292 Y42.547 Z-5.541
N12450 X-93.927 Y41.436 Z-5.562
N12455 X-93.09 Y38.844 Z-5.601
N12460 X-92.465 Y36.91 Z-5.624
N12465 X-91.539 Y34.351 Z-5.641
N12470 X-90.497 Y31.765 Z-5.624
N12475 X-90.277 Y31.225 Z-5.617
N12480 X-89.734 Y29.939 Z-5.595
N12485 X-89.34 Y29.053 Z-5.576
N12490 X-88.828 Y27.953 Z-5.549
N12495 X-88.443 Y27.164 Z-5.527
N12500 X-88.067 Y26.419 Z-5.505
N12505 X-87.771 Y25.865 Z-5.487
N12510 X-86.898 Y24.305 Z-5.433
N12515 X-86.608 Y23.814 Z-5.415
N12520 X-86.065 Y22.933 Z-5.38
N12525 X-85.581 Y22.183 Z-5.348
N12530 X-85.16 Y21.553 Z-5.319
N12535 X-84.59 Y20.736 Z-5.28
N12540 X-84.149 Y20.129 Z-5.249
N12545 X-83.788 Y19.657 Z-5.224
N12550 X-83.121 Y18.82 Z-5.177
N12555 X-82.605 Y18.198 Z-5.141
N12560 X-82.334 Y17.887 Z-5.122
N12565 X-81.727 Y17.219 Z-5.078
N12570 X-81.153 Y16.62 Z-5.038
N12575 X-80.548 Y16.024 Z-4.995
N12580 X-80.075 Y15.58 Z-4.961
N12585 X-79.641 Y15.189 Z-4.93
N12590 X-79.233 Y14.838 Z-4.901
N12595 X-78.602 Y14.319 Z-4.855
N12600 X-78.093 Y13.926 Z-4.819
N12605 X-77.382 Y13.413 Z-4.768
N12610 X-76.915 Y13.094 Z-4.734
N12615 X-76.43 Y12.779 Z-4.699
N12620 X-75.874 Y12.435 Z-4.659
N12625 X-75.275 Y12.088 Z-4.615
N12630 X-74.621 Y11.738 Z-4.567
N12635 X-73.946 Y11.403 Z-4.517
N12640 X-73.253 Y11.087 Z-4.465
N12645 X-72.564 Y10.797 Z-4.414
N12650 X-71.743 Y10.479 Z-4.353
N12655 X-71.101 Y10.259 Z-4.305
N12660 X-70.481 Y10.062 Z-4.258
N12665 X-69.863 Y9.88 Z-4.211
N12670 X-69.248 Y9.712 Z-4.164
N12675 X-68.636 Y9.558 Z-4.117
N12680 X-67.956 Y9.403 Z-4.065
N12685 X-67.083 Y9.225 Z-3.997
N12690 X-66.18 Y9.066 Z-3.927
N12695 X-65.299 Y8.936 Z-3.857
N12700 X-64.625 Y8.852 Z-3.803
N12705 X-63.673 Y8.756 Z-3.726
N12710 X-62.655 Y8.685 Z-3.643
N12715 X-61.601 Y8.635 Z-3.554
N12720 X-60.546 Y8.609 Z-3.465
N12725 X-59.569 Y8.606 Z-3.381
N12730 X-58.389 Y8.626 Z-3.278
N12735 X-57.304 Y8.669 Z-3.182
N12740 X-56.209 Y8.736 Z-3.085
N12745 X-55.121 Y8.827 Z-2.987
N12750 X-54.037 Y8.942 Z-2.89
N12755 X-53.345 Y9.032 Z-2.827
N12760 X-52.587 Y9.145 Z-2.759
N12765 X-51.848 Y9.271 Z-2.692
N12770 X-51.142 Y9.402 Z-2.628
N12775 X-50.479 Y9.538 Z-2.568
N12780 X-49.544 Y9.752 Z-2.484
N12785 X-48.91 Y9.917 Z-2.426
N12790 X-47.847 Y10.209 Z-2.331
N12795 X-47.038 Y10.462 Z-2.259
N12800 X-46.23 Y10.739 Z-2.187
N12805 X-45.454 Y11.028 Z-2.118
N12810 X-44.548 Y11.397 Z-2.036
N12815 X-43.654 Y11.798 Z-1.956
N12820 X-43.094 Y12.061 Z-1.905
N12825 X-42.493 Y12.368 Z-1.85
N12830 X-41.667 Y12.808 Z-1.776
N12835 X-41.099 Y13.131 Z-1.725
N12840 X-40.479 Y13.499 Z-1.67
N12845 X-39.726 Y13.979 Z-1.606
N12850 X-39.217 Y14.326 Z-1.564
N12855 X-38.669 Y14.722 Z-1.521
N12860 X-38.181 Y15.098 Z-1.484
N12865 X-37.816 Y15.395 Z-1.458
N12870 X-37.415 Y15.738 Z-1.43
N12875 X-37.065 Y16.055 Z-1.407
N12880 X-36.684 Y16.436 Z-1.382
N12885 X-36.252 Y16.902 Z-1.354
N12890 X-35.913 Y17.303 Z-1.333
N12895 X-35.607 Y17.697 Z-1.314
N12900 X-35.272 Y18.168 Z-1.293
N12905 X-34.964 Y18.635 Z-1.274
N12910 X-34.661 Y19.137 Z-1.255
N12915 X-34.357 Y19.683 Z-1.236
N12920 X-34.079 Y20.224 Z-1.219
N12925 X-33.809 Y20.799 Z-1.201
N12930 X-33.513 Y21.472 Z-1.182
N12935 X-33.242 Y22.154 Z-1.164
N12940 X-32.982 Y22.865 Z-1.146
N12945 X-32.701 Y23.705 Z-1.126
N12950 X-32.438 Y24.557 Z-1.107
N12955 X-32.183 Y25.454 Z-1.088
N12960 X-31.936 Y26.411 Z-1.068
N12965 X-31.704 Y27.435 Z-1.049
N12970 X-31.505 Y28.404 Z-1.032
N12975 X-31.332 Y29.354 Z-1.015
N12980 X-31.154 Y30.479 Z-0.995
N12985 X-31.038 Y31.397 Z-0.98
N12990 X-30.867 Y32.793 Z-0.955
N12995 X-30.598 Y35.846 Z-0.895
N13000 X-30.345 Y39.703 Z-0.798
N13005 X-30.193 Y42.022 Z-0.717
N13010 X-30.091 Y43.563 Z-0.638
N13015 X-30.022 Y44.34 Z-0.581
N13020 X-29.956 Y45.012 Z-0.517
N13025 X-29.864 Y45.765 Z-0.42
N13030 X-29.789 Y46.344 Z-0.327
N13035 X-29.698 Y46.948 Z-0.228
N13040 X-29.634 Y47.315 Z-0.175
N13045 X-29.564 Y47.701 Z-0.126
N13050 X-29.528 Y47.91 Z-0.103
N13055 X-29.448 Y48.293 Z-0.067
N13060 X-29.402 Y48.533 Z-0.048
N13065 X-29.354 Y48.755 Z-0.034
N13070 X-29.281 Y49.054 Z-0.019
N13075 X-29.222 Y49.281 Z-0.01
N13080 X-29.118 Y49.619 Z-0.005
N13085 X-29.021 Y49.898 Z-0.004
N13090 X-28.924 Y50.208
N13095 X-28.825 Y50.487
N13100 X-28.723 Y50.849
N13105 X-28.51 Y51.393
N13110 X-28.471 Y51.504
N13115 X-28.404 Y51.746
N13120 X-28.308 Y51.957
N13125 X-28.18 Y52.193
N13130 X-27.945 Y52.583
N13135 X-27.826 Y52.824
N13140 X-27.727 Y53.072
N13145 X-27.646 Y53.328
N13150 X-27.585 Y53.589
N13155 X-27.544 Y53.854
N13160 X-27.522 Y54.122
N13165 Y54.39
N13170 X-27.541 Y54.657
N13175 X-27.575 Y54.89 Z-0.006
N13180 X-27.639 Y55.179 Z-0.016
N13185 X-27.725 Y55.455 Z-0.03
N13190 X-27.811 Y55.675 Z-0.032
N13195 X-27.905 Y55.853
N13200 X-28.024 Y56.015
N13205 X-28.116 Y56.112
N13210 X-28.272 Y56.239
N13215 X-28.526 Y56.405
N13220 X-28.953 Y56.64
N13225 X-29.425 Y56.868
N13230 X-29.989 Y57.154 Z-0.04
N13235 X-30.204 Y57.246 Z-0.046
N13240 X-30.484 Y57.348 Z-0.058
N13245 X-30.852 Y57.494 Z-0.08
N13250 X-31.204 Y57.62 Z-0.105
N13255 X-31.805 Y57.829 Z-0.155
N13260 X-32.283 Y57.975 Z-0.201
N13265 X-32.78 Y58.119 Z-0.251
N13270 X-33.832 Y58.396 Z-0.365
N13275 X-34.719 Y58.635 Z-0.468
N13280 X-35.386 Y58.808 Z-0.548
N13285 X-36.043 Y58.967 Z-0.627
N13290 X-36.731 Y59.119 Z-0.709
N13295 X-37.625 Y59.293 Z-0.816
N13300 X-38.619 Y59.462 Z-0.936
N13305 X-39.41 Y59.58 Z-1.031
N13310 X-42.43 Y59.95 Z-1.381
N13315 X-46.878 Y60.381 Z-1.864
N13320 X-51.404 Y60.728 Z-2.329
N13325 X-54.316 Y60.872 Z-2.612
N13330 X-57.535 Y60.934 Z-2.913
N13335 X-60.926 Y60.902 Z-3.215
N13340 X-64.956 Y60.763 Z-3.546
N13345 X-65.596 Y60.74 Z-3.596
N13350 X-70.046 Y60.476 Z-3.92
N13355 X-70.742 Y60.422 Z-3.968
N13360 X-73.784 Y60.167 Z-4.168
N13365 X-78.325 Y59.674 Z-4.441
N13370 X-83.053 Y59.053 Z-4.701
N13375 X-87.13 Y58.412 Z-4.915
N13380 X-88.645 Y58.138 Z-4.992
N13385 X-89.467 Y57.98 Z-5.03
N13390 X-90.148 Y57.845 Z-5.058
N13395 X-91.237 Y57.616 Z-5.097
N13400 X-91.555 Y57.539 Z-5.107
N13405 X-91.767 Y57.48 Z-5.113
N13410 X-92.098 Y57.371 Z-5.122
N13415 X-92.34 Y57.305 Z-5.128
N13420 X-92.675 Y57.235 Z-5.137
N13425 X-93.014 Y57.188 Z-5.146
N13430 X-93.366 Y57.163 Z-5.154
N13435 X-93.836 Y57.162 Z-5.166
N13440 X-94.647 Y57.166 Z-5.182
N13445 X-95.542 Y57.138 Z-5.196
N13450 X-96.919 Y57.1 Z-5.211
N13455 X-97.582 Y57.073 Z-5.218
N13460 X-98.329 Y57.047 Z-5.224
N13465 X-99.402 Y57.026 Z-5.234
N13470 X-100.268 Z-5.237
N13475 X-101.341 Y57.048 Z-5.227
N13480 X-102.331 Y57.088 Z-5.218
N13485 X-102.736 Y57.104 Z-5.215
N13490 X-103.594 Y57.14 Z-5.206
N13495 X-104.774 Y57.184 Z-5.191
N13500 X-105.418 Y57.208 Z-5.181
N13505 X-106.402 Y57.214 Z-5.161
N13510 X-106.805 Y57.239 Z-5.151
N13515 X-107.163 Y57.277 Z-5.142
N13520 X-107.437 Y57.322 Z-5.135
N13525 X-107.704 Y57.382 Z-5.128
N13530 X-107.984 Y57.461 Z-5.121
N13535 X-108.32 Y57.571 Z-5.112
N13540 X-108.668 Y57.658 Z-5.101
N13545 X-108.887 Y57.706 Z-5.094
N13550 X-109.864 Y57.915 Z-5.059
N13555 X-111.026 Y58.146 Z-5.01
N13560 X-112.106 Y58.35 Z-4.957
N13565 X-115.815 Y58.974 Z-4.764
N13570 X-120.801 Y59.676 Z-4.494
N13575 X-125.183 Y60.193 Z-4.237
N13580 X-128.705 Y60.529 Z-4.011
N13585 X-133.322 Y60.854 Z-3.685
N13590 X-137.432 Y61.042 Z-3.361
N13595 X-138.28 Y61.078 Z-3.291
N13600 X-141.542 Y61.152 Z-3.008
N13605 X-145.094 Y61.136 Z-2.682
N13610 X-147.827 Y61.043 Z-2.42
N13615 X-152.199 Y60.77 Z-1.98
N13620 X-157.227 Y60.347 Z-1.443
N13625 X-157.666 Y60.309 Z-1.395
N13630 X-161.022 Y59.939 Z-1.009
N13635 X-161.968 Y59.806 Z-0.898
N13640 X-162.733 Y59.685 Z-0.806
N13645 X-163.517 Y59.548 Z-0.712
N13650 X-164.51 Y59.355 Z-0.594
N13655 X-165.449 Y59.148 Z-0.484
N13660 X-166.406 Y58.935 Z-0.377
N13665 X-167.324 Y58.728 Z-0.279
N13670 X-168.06 Y58.545 Z-0.206
N13675 X-168.477 Y58.431 Z-0.168
N13680 X-169.224 Y58.212 Z-0.107
N13685 X-169.701 Y58.053 Z-0.077
N13690 X-170.125 Y57.902 Z-0.057
N13695 X-170.527 Y57.748 Z-0.043
N13700 X-171.056 Y57.532 Z-0.034
N13705 X-171.406 Y57.378 Z-0.032
N13710 X-171.819 Y57.171
N13715 X-172.188 Y56.952
N13720 X-172.403 Y56.793
N13725 X-172.597 Y56.608
N13730 X-172.725 Y56.458
N13735 X-172.799 Y56.353
N13740 X-172.931 Y56.12
N13745 X-173.062 Y55.809
N13750 X-173.162 Y55.505 Z-0.028
N13755 X-173.244 Y55.186 Z-0.012
N13760 X-173.304 Y54.862 Z-0.004
N13765 X-173.338 Y54.578
N13770 X-173.362 Y54.311
N13775 X-173.375 Y54.043
N13780 X-173.376 Y53.573
N13785 X-173.36 Y53.178
N13790 X-173.334 Y53.047
N13795 X-173.275 Y52.894
N13800 X-173.172 Y52.722
N13805 X-172.787 Y52.148
N13810 X-172.637 Y51.926
N13815 X-172.494 Y51.699
N13820 X-172.359 Y51.467
N13825 X-172.133 Y51.032
N13830 X-171.901 Y50.56
N13835 X-171.846 Y50.438
N13840 X-171.742 Y50.142
N13845 X-171.622 Y49.868
N13850 X-171.533 Y49.626
N13855 X-171.416 Y49.336
N13860 X-171.3 Y49.011 Z-0.008
N13865 X-171.235 Y48.8 Z-0.016
N13870 X-171.157 Y48.537 Z-0.03
N13875 X-171.081 Y48.259 Z-0.05
N13880 X-171.007 Y47.939 Z-0.08
N13885 X-170.933 Y47.644 Z-0.114
N13890 X-170.845 Y47.217 Z-0.174
N13895 X-170.77 Y46.855 Z-0.232
N13900 X-170.674 Y46.291 Z-0.333
N13905 X-170.607 Y45.84 Z-0.411
N13910 X-170.521 Y45.18 Z-0.503
N13915 X-170.431 Y44.416 Z-0.58
N13920 X-170.342 Y43.528 Z-0.645
N13925 X-170.239 Y42.016 Z-0.722
N13930 X-170.085 Y39.781 Z-0.8
N13935 X-169.899 Y37.108 Z-0.869
N13940 X-169.635 Y33.633 Z-0.942
N13945 X-169.367 Y31.145 Z-0.986
N13950 X-169.217 Y30.071 Z-1.005
N13955 X-169.043 Y29.001 Z-1.023
N13960 X-168.848 Y27.948 Z-1.042
N13965 X-168.625 Y26.874 Z-1.062
N13970 X-168.461 Y26.165 Z-1.075
N13975 X-168.199 Y25.16 Z-1.096
N13980 X-167.949 Y24.288 Z-1.114
N13985 X-167.675 Y23.41 Z-1.134
N13990 X-167.379 Y22.541 Z-1.155
N13995 X-167.133 Y21.879 Z-1.172
N14000 X-166.876 Y21.24 Z-1.189
N14005 X-166.517 Y20.434 Z-1.212
N14010 X-166.226 Y19.835 Z-1.231
N14015 X-165.93 Y19.275 Z-1.25
N14020 X-165.594 Y18.693 Z-1.27
N14025 X-165.291 Y18.209 Z-1.289
N14030 X-164.94 Y17.695 Z-1.311
N14035 X-164.619 Y17.26 Z-1.33
N14040 X-164.278 Y16.839 Z-1.352
N14045 X-163.932 Y16.447 Z-1.373
N14050 X-163.496 Y15.99 Z-1.401
N14055 X-163.144 Y15.648 Z-1.424
N14060 X-162.648 Y15.215 Z-1.457
N14065 X-162.107 Y14.772 Z-1.496
N14070 X-161.581 Y14.369 Z-1.536
N14075 X-161.123 Y14.038 Z-1.572
N14080 X-160.717 Y13.757 Z-1.605
N14085 X-160.287 Y13.476 Z-1.64
N14090 X-159.675 Y13.09 Z-1.692
N14095 X-158.842 Y12.598 Z-1.765
N14100 X-158.08 Y12.181 Z-1.833
N14105 X-157.218 Y11.731 Z-1.911
N14110 X-156.578 Y11.423 Z-1.969
N14115 X-155.63 Y10.994 Z-2.054
N14120 X-154.749 Y10.632 Z-2.132
N14125 X-153.943 Y10.33 Z-2.204
N14130 X-153.326 Y10.115 Z-2.259
N14135 X-152.697 Y9.909 Z-2.314
N14140 X-152.161 Y9.745 Z-2.362
N14145 X-151.302 Y9.505 Z-2.438
N14150 X-150.213 Y9.232 Z-2.534
N14155 X-149.413 Y9.05 Z-2.606
N14160 X-148.268 Y8.825 Z-2.709
N14165 X-147.314 Y8.658 Z-2.796
N14170 X-146.214 Y8.497 Z-2.895
N14175 X-145.075 Y8.364 Z-2.997
N14180 X-143.918 Y8.254 Z-3.1
N14185 X-142.769 Y8.171 Z-3.202
N14190 X-141.61 Y8.111 Z-3.304
N14195 X-140.384 Y8.075 Z-3.411
N14200 X-139.366 Y8.068 Z-3.498
N14205 X-138.298 Y8.084 Z-3.589
N14210 X-137.244 Y8.123 Z-3.676
N14215 X-136.215 Y8.185 Z-3.761
N14220 X-135.189 Y8.279 Z-3.843
N14225 X-134.374 Y8.379 Z-3.907
N14230 X-133.462 Y8.511 Z-3.978
N14235 X-132.568 Y8.666 Z-4.046
N14240 X-131.718 Y8.836 Z-4.111
N14245 X-131.049 Y8.987 Z-4.162
N14250 X-130.428 Y9.14 Z-4.209
N14255 X-129.804 Y9.308 Z-4.256
N14260 X-129.178 Y9.491 Z-4.303
N14265 X-128.548 Y9.689 Z-4.349
N14270 X-128.002 Y9.873 Z-4.39
N14275 X-127.24 Y10.163 Z-4.446
N14280 X-126.703 Y10.382 Z-4.485
N14285 X-126.007 Y10.689 Z-4.535
N14290 X-125.325 Y11.017 Z-4.584
N14295 X-124.645 Y11.371 Z-4.632
N14300 X-124.06 Y11.701 Z-4.674
N14305 X-123.33 Y12.148 Z-4.725
N14310 X-122.818 Y12.48 Z-4.761
N14315 X-122.321 Y12.819 Z-4.796
N14320 X-121.84 Y13.163 Z-4.829
N14325 X-121.235 Y13.618 Z-4.871
N14330 X-120.633 Y14.107 Z-4.913
N14335 X-119.966 Y14.679 Z-4.959
N14340 X-119.499 Y15.098 Z-4.992
N14345 X-119.039 Y15.529 Z-5.023
N14350 X-118.555 Y16 Z-5.056
N14355 X-117.933 Y16.637 Z-5.099
N14360 X-117.267 Y17.357 Z-5.145
N14365 X-116.818 Y17.871 Z-5.176
N14370 X-116.28 Y18.516 Z-5.213
N14375 X-115.811 Y19.098 Z-5.245
N14380 X-115.402 Y19.621 Z-5.273
N14385 X-114.944 Y20.238 Z-5.304
N14390 X-114.349 Y21.075 Z-5.343
N14395 X-113.735 Y21.979 Z-5.383
N14400 X-113.3 Y22.658 Z-5.411
N14405 X-112.589 Y23.782 Z-5.456
N14410 X-111.495 Y25.686 Z-5.521
N14415 X-111.242 Y26.155 Z-5.536
N14420 X-110.818 Y26.972 Z-5.559
N14425 X-110.43 Y27.745 Z-5.58
N14430 X-110.016 Y28.598 Z-5.6
N14435 X-109.625 Y29.433 Z-5.617
N14440 X-109.453 Y29.815 Z-5.624
N14445 X-108.368 Y32.28 Z-5.657
N14450 X-107.451 Y34.496 Z-5.665
N14455 X-106.261 Y37.662 Z-5.648
N14460 X-105.152 Y40.805 Z-5.616
N14465 X-104.821 Y41.699 Z-5.605
N14470 X-104.642 Y42.17 Z-5.598
N14475 X-104.445 Y42.641 Z-5.592
N14480 X-104.237 Y43.093 Z-5.587
N14485 X-104.06 Y43.446 Z-5.583
N14490 X-103.844 Y43.83 Z-5.579
N14495 X-103.717 Y44.073 Z-5.577
N14500 X-103.644 Y44.186 Z-5.572
N14505 X-103.555 Y44.298 Z-5.56
N14510 X-103.452 Y44.407 Z-5.548
N14515 X-103.328 Y44.513 Z-5.538
N14520 X-103.241 Y44.576 Z-5.533
N14525 X-103.129 Y44.645 Z-5.527
N14530 X-102.988 Y44.715 Z-5.522
N14535 X-102.591 Y44.871 Z-5.512
N14540 X-102.334 Y44.966 Z-5.508
N14545 X-102.093 Y45.048 Z-5.505
N14550 X-101.85 Y45.119 Z-5.503
N14555 X-101.569 Y45.178 Z-5.502
N14560 X-101.235 Y45.221 Z-5.503
N14565 X-100.867 Y45.246 Z-5.506
N14570 X-100.426 Y45.255 Z-5.51
N14575 X-99.562 Y45.252
N14580 X-99.189 Y45.243 Z-5.507
N14585 X-98.784 Y45.214 Z-5.504
N14590 X-98.434 Y45.166 Z-5.503
N14595 X-98.202 Y45.115 Z-5.504
N14600 X-97.945 Y45.042 Z-5.505
N14605 X-97.675 Y44.948 Z-5.509
N14610 X-97.369 Y44.831 Z-5.515
N14615 X-97.034 Y44.692 Z-5.524
N14620 X-96.878 Y44.612 Z-5.53
N14625 X-96.741 Y44.522 Z-5.538
N14630 X-96.625 Y44.427 Z-5.547
N14635 X-96.536 Y44.342 Z-5.556
N14640 X-96.438 Y44.23 Z-5.568
N14645 X-96.349 Y44.107 Z-5.579
N14650 X-96.248 Y43.93 Z-5.581
N14655 X-96.128 Y43.701 Z-5.583
N14660 X-95.961 Y43.404 Z-5.586
N14665 X-95.726 Y42.921 Z-5.591
N14670 X-95.5 Y42.406 Z-5.598
N14675 X-95.319 Y41.946 Z-5.604
N14680 X-94.948 Y40.94 Z-5.617
N14685 X-93.409 Y36.555 Z-5.66
N14690 X-92.427 Y33.986 Z-5.668
N14695 X-91.153 Y30.955 Z-5.647
N14700 X-90.539 Y29.566 Z-5.625
N14705 X-90.118 Y28.657 Z-5.606
N14710 X-89.715 Y27.817 Z-5.587
N14715 X-89.33 Y27.04 Z-5.567
N14720 X-88.88 Y26.164 Z-5.542
N14725 X-88.579 Y25.603 Z-5.525
N14730 X-87.402 Y23.55 Z-5.455
N14735 X-86.511 Y22.137 Z-5.399
N14740 X-86.059 Y21.455 Z-5.37
N14745 X-85.6 Y20.787 Z-5.34
N14750 X-85.16 Y20.166 Z-5.311
N14755 X-84.746 Y19.604 Z-5.283
N14760 X-84.372 Y19.118 Z-5.258
N14765 X-83.879 Y18.498 Z-5.224
N14770 X-83.174 Y17.647 Z-5.176
N14775 X-82.693 Y17.104 Z-5.143
N14780 X-82.234 Y16.603 Z-5.112
N14785 X-81.759 Y16.107 Z-5.08
N14790 X-81.291 Y15.636 Z-5.047
N14795 X-80.797 Y15.16 Z-5.014
N14800 X-80.165 Y14.579 Z-4.97
N14805 X-79.581 Y14.074 Z-4.93
N14810 X-79.008 Y13.598 Z-4.892
N14815 X-78.615 Y13.289 Z-4.865
N14820 X-78.073 Y12.886 Z-4.827
N14825 X-77.435 Y12.435 Z-4.783
N14830 X-76.775 Y11.998 Z-4.737
N14835 X-76.037 Y11.539 Z-4.686
N14840 X-75.633 Y11.305 Z-4.658
N14845 X-75.137 Y11.034 Z-4.624
N14850 X-74.637 Y10.777 Z-4.588
N14855 X-74.144 Y10.538 Z-4.553
N14860 X-73.629 Y10.303 Z-4.516
N14865 X-72.931 Y10.008 Z-4.466
N14870 X-72.049 Y9.667 Z-4.402
N14875 X-71.204 Y9.385 Z-4.34
N14880 X-70.388 Y9.138 Z-4.279
N14885 X-69.556 Y8.911 Z-4.217
N14890 X-68.71 Y8.705 Z-4.154
N14895 X-67.821 Y8.514 Z-4.087
N14900 X-66.948 Y8.351 Z-4.02
N14905 X-66.044 Y8.208 Z-3.951
N14910 X-65.01 Y8.071 Z-3.871
N14915 X-63.954 Y7.967 Z-3.787
N14920 X-63.047 Y7.907 Z-3.713
N14925 X-61.994 Y7.86 Z-3.627
N14930 X-60.939 Y7.838 Z-3.538
N14935 X-59.791 Y7.839 Z-3.44
N14940 X-58.551 Y7.872 Z-3.333
N14945 X-57.404 Y7.927 Z-3.232
N14950 X-56.267 Y8.004 Z-3.132
N14955 X-55.119 Y8.107 Z-3.03
N14960 X-53.992 Y8.232 Z-2.93
N14965 X-53.23 Y8.333 Z-2.862
N14970 X-52.409 Y8.463 Z-2.788
N14975 X-51.653 Y8.595 Z-2.72
N14980 X-50.897 Y8.742 Z-2.652
N14985 X-50.137 Y8.902 Z-2.585
N14990 X-49.372 Y9.077 Z-2.517
N14995 X-48.531 Y9.287 Z-2.443
N15000 X-47.615 Y9.543 Z-2.362
N15005 X-46.791 Y9.8 Z-2.29
N15010 X-45.967 Y10.081 Z-2.218
N15015 X-45.161 Y10.378 Z-2.147
N15020 X-44.299 Y10.728 Z-2.071
N15025 X-43.379 Y11.137 Z-1.989
N15030 X-42.711 Y11.453 Z-1.93
N15035 X-41.84 Y11.902 Z-1.852
N15040 X-41.173 Y12.26 Z-1.793
N15045 X-40.668 Y12.546 Z-1.749
N15050 X-40.138 Y12.859 Z-1.703
N15055 X-39.29 Y13.392 Z-1.632
N15060 X-38.757 Y13.751 Z-1.589
N15065 X-38.218 Y14.133 Z-1.547
N15070 X-37.703 Y14.521 Z-1.509
N15075 X-37.203 Y14.921 Z-1.474
N15080 X-36.712 Y15.338 Z-1.441
N15085 X-36.396 Y15.632 Z-1.421
N15090 X-36.01 Y16.02 Z-1.396
N15095 X-35.636 Y16.418 Z-1.373
N15100 X-35.287 Y16.824 Z-1.351
N15105 X-34.964 Y17.233 Z-1.331
N15110 X-34.594 Y17.746 Z-1.309
N15115 X-34.278 Y18.217 Z-1.29
N15120 X-33.968 Y18.725 Z-1.271
N15125 X-33.654 Y19.274 Z-1.252
N15130 X-33.346 Y19.859 Z-1.232
N15135 X-33.057 Y20.458 Z-1.214
N15140 X-32.76 Y21.116 Z-1.195
N15145 X-32.498 Y21.764 Z-1.178
N15150 X-32.195 Y22.57 Z-1.157
N15155 X-31.919 Y23.36 Z-1.138
N15160 X-31.643 Y24.223 Z-1.119
N15165 X-31.389 Y25.091 Z-1.1
N15170 X-31.111 Y26.14 Z-1.079
N15175 X-30.931 Y26.908 Z-1.064
N15180 X-30.711 Y27.954 Z-1.045
N15185 X-30.522 Y28.954 Z-1.028
N15190 X-30.35 Y29.982 Z-1.01
N15195 X-30.2 Y31.019 Z-0.993
N15200 X-30.02 Y32.606 Z-0.965
N15205 X-29.906 Y33.63 Z-0.947
N15210 X-29.506 Y38.449 Z-0.844
N15215 X-29.286 Y41.138 Z-0.766
N15220 X-29.17 Y42.529 Z-0.711
N15225 X-29.064 Y43.54 Z-0.66
N15230 X-28.964 Y44.367 Z-0.603
N15235 X-28.879 Y44.962 Z-0.548
N15240 X-28.776 Y45.587 Z-0.47
N15245 X-28.67 Y46.136 Z-0.38
N15250 X-28.558 Y46.635 Z-0.28
N15255 X-28.451 Y47.067 Z-0.194
N15260 X-28.366 Y47.38 Z-0.14
N15265 X-28.24 Y47.76 Z-0.084
N15270 X-28.141 Y48.038 Z-0.052
N15275 X-28.008 Y48.372 Z-0.023
N15280 X-27.872 Y48.677 Z-0.009
N15285 X-27.728 Y48.974 Z-0.004
N15290 X-27.502 Y49.389
N15295 X-27.227 Y49.834
N15300 X-26.82 Y50.412
N15305 X-26.492 Y50.836
N15310 X-25.883 Y51.582
N15315 X-25.679 Y51.859
N15320 X-25.54 Y52.088
N15325 X-25.423 Y52.329
N15330 X-25.328 Y52.58
N15335 X-25.257 Y52.839
N15340 X-25.21 Y53.103
N15345 X-25.187 Y53.37
N15350 X-25.188 Y53.672
N15355 X-25.215 Y54.309
N15360 X-25.255 Y54.787 Z-0.013
N15365 X-25.304 Y55.21 Z-0.03
N15370 X-25.362 Y55.551 Z-0.032
N15375 X-25.458 Y55.966
N15380 X-25.563 Y56.303
N15385 X-25.662 Y56.552
N15390 X-25.81 Y56.853
N15395 X-25.939 Y57.074
N15400 X-26.089 Y57.296
N15405 X-26.254 Y57.507
N15410 X-26.433 Y57.707 Z-0.034
N15415 X-26.675 Y57.939 Z-0.035
N15420 X-26.936 Y58.15 Z-0.039
N15425 X-27.205 Y58.333 Z-0.043
N15430 X-27.46 Y58.478 Z-0.047
N15435 X-27.764 Y58.626 Z-0.053
N15440 X-28.148 Y58.787 Z-0.062
N15445 X-28.52 Y58.926 Z-0.073
N15450 X-28.88 Y59.047 Z-0.087
N15455 X-29.32 Y59.183 Z-0.108
N15460 X-29.721 Y59.298 Z-0.131
N15465 X-30.183 Y59.421 Z-0.162
N15470 X-30.774 Y59.564 Z-0.207
N15475 X-31.601 Y59.742 Z-0.28
N15480 X-32.298 Y59.881 Z-0.348
N15485 X-33.033 Y60.018 Z-0.423
N15490 X-34.355 Y60.24 Z-0.565
N15495 X-35.2 Y60.381 Z-0.662
N15500 X-37.022 Y60.646 Z-0.87
N15505 X-38.338 Y60.813 Z-1.024
N15510 X-40.177 Y61.015 Z-1.234
N15515 X-42.521 Y61.231 Z-1.496
N15520 X-44.674 Y61.408 Z-1.727
N15525 X-47.163 Y61.594 Z-1.986
N15530 X-49.309 Y61.738 Z-2.203
N15535 X-51.192 Y61.845 Z-2.39
N15540 X-52.804 Y61.916 Z-2.546
N15545 X-53.693 Y61.946 Z-2.63
N15550 X-54.294 Y61.963 Z-2.687
N15555 X-55.5 Y61.98 Z-2.798
N15560 X-56.642 Y61.984 Z-2.902
N15565 X-57.784 Y61.977 Z-3.004
N15570 X-59.607 Y61.946 Z-3.163
N15575 X-61.512 Y61.89 Z-3.324
N15580 X-63.679 Y61.805 Z-3.5
N15585 X-65.261 Y61.731 Z-3.623
N15590 X-66.874 Y61.643 Z-3.744
N15595 X-68.456 Y61.546 Z-3.858
N15600 X-70.063 Y61.435 Z-3.969
N15605 X-71.611 Y61.316 Z-4.073
N15610 X-73.474 Y61.151 Z-4.193
N15615 X-75.359 Y60.965 Z-4.309
N15620 X-77.463 Y60.736 Z-4.433
N15625 X-79.768 Y60.462 Z-4.563
N15630 X-82.331 Y60.135 Z-4.703
N15635 X-84.842 Y59.793 Z-4.838
N15640 X-88.43 Y59.282 Z-5.027
N15645 X-90.296 Y59.027 Z-5.106
N15650 X-92.242 Y58.783 Z-5.167
N15655 X-93.151 Y58.679 Z-5.189
N15660 X-93.801 Y58.608 Z-5.2
N15665 X-94.987 Y58.492 Z-5.215
N15670 X-95.965 Y58.41 Z-5.224
N15675 X-97.361 Y58.315 Z-5.234
N15680 X-98.754 Y58.235 Z-5.244
N15685 X-99.968 Y58.174 Z-5.253
N15690 X-100.262 Y58.185 Z-5.251
N15695 X-102.071 Y58.28 Z-5.238
N15700 X-103.468 Y58.371 Z-5.228
N15705 X-104.637 Y58.46 Z-5.218
N15710 X-105.79 Y58.567 Z-5.206
N15715 X-106.574 Y58.648 Z-5.194
N15720 X-107.644 Y58.769 Z-5.17
N15725 X-109.556 Y59.008 Z-5.111
N15730 X-111.117 Y59.219 Z-5.049
N15735 X-113.315 Y59.53 Z-4.937
N15740 X-115.644 Y59.861 Z-4.811
N15745 X-118.122 Y60.194 Z-4.679
N15750 X-120.722 Y60.523 Z-4.536
N15755 X-123.05 Y60.794 Z-4.403
N15760 X-125.228 Y61.025 Z-4.273
N15765 X-127.305 Y61.223 Z-4.143
N15770 X-129.183 Y61.378 Z-4.02
N15775 X-130.623 Y61.484 Z-3.922
N15780 X-132.205 Y61.588 Z-3.81
N15785 X-133.805 Y61.682 Z-3.694
N15790 X-135.523 Y61.769 Z-3.563
N15795 X-137.396 Y61.85 Z-3.414
N15800 X-139.41 Y61.92 Z-3.247
N15805 X-141.422 Y61.967 Z-3.074
N15810 X-142.765 Y61.981 Z-2.955
N15815 X-143.779 Y61.984 Z-2.864
N15820 X-144.79 Y61.977 Z-2.772
N15825 X-145.863 Y61.959 Z-2.672
N15830 X-146.953 Y61.929 Z-2.569
N15835 X-148.56 Y61.865 Z-2.415
N15840 X-150.25 Y61.778 Z-2.249
N15845 X-152.47 Y61.64 Z-2.025
N15850 X-154.622 Y61.49 Z-1.804
N15855 X-156.666 Y61.335 Z-1.588
N15860 X-158.281 Y61.201 Z-1.411
N15865 X-159.979 Y61.046 Z-1.222
N15870 X-161.085 Y60.932 Z-1.097
N15875 X-162.132 Y60.814 Z-0.976
N15880 X-163.387 Y60.655 Z-0.831
N15885 X-164.284 Y60.532 Z-0.729
N15890 X-165.348 Y60.375 Z-0.609
N15895 X-166.486 Y60.195 Z-0.484
N15900 X-167.404 Y60.04 Z-0.39
N15905 X-168.429 Y59.85 Z-0.289
N15910 X-169.463 Y59.633 Z-0.201
N15915 X-170.317 Y59.425 Z-0.14
N15920 X-170.491 Y59.381 Z-0.13
N15925 X-171.44 Y59.098 Z-0.084
N15930 X-171.894 Y58.933 Z-0.069
N15935 X-172.405 Y58.718 Z-0.056
N15940 X-172.765 Y58.535 Z-0.049
N15945 X-173.084 Y58.343 Z-0.045
N15950 X-173.315 Y58.182 Z-0.041
N15955 X-173.549 Y57.987 Z-0.038
N15960 X-173.733 Y57.811 Z-0.036
N15965 X-173.969 Y57.547 Z-0.034
N15970 X-174.119 Y57.344 Z-0.033
N15975 X-174.271 Y57.102 Z-0.032
N15980 X-174.398 Y56.865
N15985 X-174.485 Y56.677
N15990 X-174.624 Y56.302
N15995 X-174.733 Y55.919
N16000 X-174.821 Y55.514
N16005 X-174.888 Y55.079 Z-0.029
N16010 X-174.95 Y54.417 Z-0.008
N16015 X-174.974 Y54.144 Z-0.004
N16020 X-174.997 Y53.244
N16025 X-174.975 Y52.963
N16030 X-174.926 Y52.679
N16035 X-174.848 Y52.422
N16040 X-174.729 Y52.153
N16045 X-174.577 Y51.896
N16050 X-174.242 Y51.446
N16055 X-173.349 Y50.369
N16060 X-172.948 Y49.821
N16065 X-172.762 Y49.552
N16070 X-172.528 Y49.166
N16075 X-172.307 Y48.753 Z-0.005
N16080 X-172.14 Y48.401 Z-0.02
N16085 X-172.006 Y48.082 Z-0.046
N16090 X-171.896 Y47.797 Z-0.078
N16095 X-171.743 Y47.349 Z-0.145
N16100 X-171.632 Y46.96 Z-0.217
N16105 X-171.538 Y46.62 Z-0.286
