%
(front)
(everything)
(T1 D=6 CR=0 - ZMIN=-19 - flat end mill)
(T96 D=6 CR=0 - ZMIN=-10 - flat end mill)
N10 G90 G94
N15 G17
N20 G21
N25 M9
N30 G28

(pin holes)
N35 T1 M6
N40 T96
N45 S12000 M3
N50 G54
N55 G0 X-39.7 Y34.5
N60 G43 Z12
N65 Z5
N70 G98 G81 X-39.7 Y34.5 Z-19 R5 F200
N75 X-255.3
N80 G80
N85 G0 Z12

(frame front)
N90 X-133.221 Y27.469
N95 Z12
N100 Z1.092
N105 G1 Z-0.318 F600
N110 X-133.218 Y27.463 Z-0.411
N115 X-133.207 Y27.444 Z-0.502
N120 X-133.19 Y27.414 Z-0.588
N125 X-133.166 Y27.371 Z-0.668
N130 X-133.137 Y27.319 Z-0.739
N135 X-133.102 Y27.258 Z-0.8
N140 X-133.064 Y27.189 Z-0.85
N145 X-133.021 Y27.114 Z-0.886
N150 X-132.977 Y27.035 Z-0.909
N155 X-132.932 Y26.954 Z-0.918
N160 X-132.491 Y26.17 Z-0.931
N165 X-132.208 Y25.691 Z-0.94
N170 X-131.542 Y24.625 Z-0.96
N175 X-131.373 Y24.369 Z-0.966
N180 X-130.757 Y23.484 Z-0.988
N185 X-130.177 Y22.71 Z-1.011
N190 X-129.769 Y22.2 Z-1.026
N195 X-128.966 Y21.264 Z-1.057
N200 X-128.674 Y20.949 Z-1.068
N205 X-127.751 Y20.014 Z-1.103
N210 X-127.495 Y19.772 Z-1.112
N215 X-126.528 Y18.928 Z-1.15
N220 X-126.07 Y18.562 Z-1.168
N225 X-125.274 Y17.973 Z-1.2
N230 X-124.512 Y17.462 Z-1.231
N235 X-124.155 Y17.237 Z-1.245
N240 X-123.826 Y17.045 Z-1.259
N245 X-122.792 Y16.475 Z-1.301
N250 X-122.085 Y16.128 Z-1.331
N255 X-121.457 Y15.846 Z-1.357
N260 X-120.294 Y15.389 Z-1.406
N265 X-119.092 Y14.993 Z-1.458
N270 X-118.607 Y14.855 Z-1.479
N275 X-117.747 Y14.63 Z-1.516
N280 X-116.587 Y14.377 Z-1.567
N285 X-115.401 Y14.174 Z-1.62
N290 X-114.208 Y14.015 Z-1.674
N295 X-113.015 Y13.902 Z-1.729
N300 X-111.781 Y13.829 Z-1.787
N305 X-110.581 Y13.796 Z-1.844
N310 X-109.408 Y13.797 Z-1.9
N315 X-108.233 Y13.832 Z-1.958
N320 X-107.082 Y13.9 Z-2.015
N325 X-105.901 Y14.006 Z-2.074
N330 X-104.712 Y14.152 Z-2.135
N335 X-103.536 Y14.339 Z-2.197
N340 X-102.345 Y14.585 Z-2.261
N345 X-101.467 Y14.813 Z-2.308
N350 X-101.064 Y14.923 Z-2.331
N355 X-100.579 Y15.086 Z-2.358
N360 X-99.791 Y15.361 Z-2.402
N365 X-99.14 Y15.63 Z-2.439
N370 X-98.454 Y15.955 Z-2.479
N375 X-97.905 Y16.249 Z-2.511
N380 X-97.197 Y16.672 Z-2.553
N385 X-96.923 Y16.857 Z-2.569
N390 X-96.046 Y17.48 Z-2.622
N395 X-95.699 Y17.76 Z-2.643
N400 X-95.147 Y18.231 Z-2.676
N405 X-94.527 Y18.812 Z-2.714
N410 X-93.924 Y19.433 Z-2.75
N415 X-93.348 Y20.078 Z-2.784
N420 X-92.999 Y20.507 Z-2.805
N425 X-92.403 Y21.256 Z-2.84
N430 X-91.992 Y21.819 Z-2.864
N435 X-91.539 Y22.474 Z-2.891
N440 X-90.846 Y23.557 Z-2.932
N445 X-90.118 Y24.807 Z-2.974
N450 X-89.564 Y25.85 Z-3.007
N455 X-89.236 Y26.519 Z-3.028
N460 X-88.913 Y27.19 Z-3.047
N465 X-88.453 Y28.219 Z-3.076
N470 X-87.945 Y29.46 Z-3.109
N475 X-87.501 Y30.645 Z-3.14
N480 X-87.149 Y31.663 Z-3.165
N485 X-86.775 Y32.851 Z-3.193
N490 X-86.431 Y34.069 Z-3.221
N495 X-86.132 Y35.254 Z-3.248
N500 X-85.879 Y36.391 Z-3.273
N505 X-85.661 Y37.552 Z-3.297
N510 X-85.478 Y38.721 Z-3.321
N515 X-85.333 Y39.905 Z-3.344
N520 X-85.236 Y41.09 Z-3.365
N525 X-85.188 Y42.235 Z-3.385
N530 X-85.19 Y43.38 Z-3.402
N535 X-85.222 Y43.976 Z-3.411
N540 X-85.259 Y44.605 Z-3.42
N545 X-85.303 Y44.988 Z-3.424
N550 X-85.416 Y45.863 Z-3.435
N555 X-85.495 Y46.282
N560 X-85.668 Y47.129 Z-3.42
N565 X-85.751 Y47.449 Z-3.413
N570 X-85.906 Y47.983 Z-3.4
N575 X-86.133 Y48.635 Z-3.381
N580 X-86.315 Y49.081 Z-3.365
N585 X-86.692 Y49.875 Z-3.333
N590 X-86.882 Y50.221 Z-3.318
N595 X-87.105 Y50.591 Z-3.299
N600 X-87.328 Y50.929 Z-3.282
N605 X-87.531 Y51.212 Z-3.265
N610 X-87.786 Y51.543 Z-3.246
N615 X-88.08 Y51.89 Z-3.223
N620 X-88.405 Y52.238 Z-3.199
N625 X-88.768 Y52.593 Z-3.172
N630 X-89.165 Y52.946 Z-3.143
N635 X-89.718 Y53.375 Z-3.103
N640 X-89.968 Y53.559 Z-3.086
N645 X-90.604 Y53.972 Z-3.041
N650 X-91.102 Y54.261 Z-3.007
N655 X-91.584 Y54.513 Z-2.975
N660 X-92.037 Y54.727 Z-2.945
N665 X-93.161 Y55.19 Z-2.87
N670 X-93.571 Y55.332 Z-2.844
N675 X-94.219 Y55.546 Z-2.802
N680 X-94.644 Y55.668 Z-2.775
N685 X-95.723 Y55.941 Z-2.707
N690 X-96.685 Y56.136 Z-2.648
N695 X-97.075 Y56.209 Z-2.624
N700 X-98.188 Y56.384 Z-2.557
N705 X-99.376 Y56.529 Z-2.487
N710 X-100.561 Y56.643 Z-2.418
N715 X-101.739 Y56.729 Z-2.351
N720 X-102.912 Y56.79 Z-2.285
N725 X-104.108 Y56.831 Z-2.219
N730 X-105.302 Y56.852 Z-2.154
N735 X-106.497 Y56.856 Z-2.091
N740 X-107.668 Y56.844 Z-2.03
N745 X-108.88 Y56.816 Z-1.969
N750 X-110.067 Y56.775 Z-1.911
N755 X-111.465 Y56.712 Z-1.846
N760 X-113.082 Y56.615 Z-1.772
N765 X-114.516 Y56.511 Z-1.71
N770 X-115.695 Y56.411 Z-1.66
N775 X-116.837 Y56.302 Z-1.613
N780 X-117.905 Y56.187 Z-1.57
N785 X-118.899 Y56.069 Z-1.531
N790 X-120.006 Y55.922 Z-1.489
N795 X-121.038 Y55.769 Z-1.451
N800 X-122.184 Y55.581 Z-1.409
N805 X-123.307 Y55.371 Z-1.368
N810 X-124.392 Y55.146 Z-1.33
N815 X-125.567 Y54.869 Z-1.29
N820 X-126.734 Y54.556 Z-1.251
N825 X-127.453 Y54.335 Z-1.227
N830 X-127.98 Y54.165 Z-1.209
N835 X-129.106 Y53.754 Z-1.172
N840 X-129.716 Y53.49 Z-1.152
N845 X-130.352 Y53.208 Z-1.131
N850 X-131.029 Y52.859 Z-1.109
N855 X-131.546 Y52.556 Z-1.092
N860 X-131.848 Y52.371 Z-1.082
N865 X-132.24 Y52.108 Z-1.069
N870 X-132.628 Y51.824 Z-1.056
N875 X-133.141 Y51.407 Z-1.039
N880 X-133.444 Y51.13 Z-1.028
N885 X-133.694 Y50.891 Z-1.02
N890 X-134.05 Y50.516 Z-1.008
N895 X-134.253 Y50.276 Z-1.001
N900 X-134.611 Y49.828 Z-0.987
N905 X-134.878 Y49.455 Z-0.977
N910 X-135.013 Y49.249 Z-0.971
N915 X-135.176 Y48.99 Z-0.966
N920 X-135.294 Y48.781 Z-0.962
N925 X-135.516 Y48.381 Z-0.953
N930 X-139.101 Y50.371 Z-0.945
N935 X-139.168 Y50.335 Z-0.943
N940 X-139.897 Y50.671 Z-0.942
N945 X-140.509 Y50.923 Z-0.941
N950 X-141.123 Y51.141 Z-0.94
N955 X-141.772 Y51.335
N960 X-142.34 Y51.475 Z-0.939
N965 X-143.027 Y51.613 Z-0.937
N970 X-143.748 Y51.716 Z-0.936
N975 X-144.348 Y51.773 Z-0.935
N980 X-144.912 Y51.807 Z-0.934
N985 X-145.862 Y51.821 Z-0.932
N990 X-147.167 Y51.783 Z-0.93
N995 X-147.768 Y51.782
N1000 X-149.158 Y51.821 Z-0.932
N1005 X-150.088 Y51.807 Z-0.934
N1010 X-150.652 Y51.773 Z-0.935
N1015 X-151.187 Y51.724 Z-0.936
N1020 X-151.767 Y51.645 Z-0.937
N1025 X-152.269 Y51.558 Z-0.938
N1030 X-152.97 Y51.403 Z-0.939
N1035 X-153.623 Y51.221 Z-0.94
N1040 X-154.256 Y51.01 Z-0.941
N1045 X-154.854 Y50.778 Z-0.942
N1050 X-155.575 Y50.457 Z-0.943
N1055 X-155.832 Y50.335
N1060 X-155.899 Y50.371 Z-0.945
N1065 X-159.484 Y48.381 Z-0.953
N1070 X-159.785 Y48.924 Z-0.964
N1075 X-159.863 Y49.055 Z-0.967
N1080 X-160.087 Y49.403 Z-0.975
N1085 X-160.369 Y49.801 Z-0.987
N1090 X-160.757 Y50.288 Z-1.001
N1095 X-160.95 Y50.516 Z-1.008
N1100 X-161.346 Y50.93 Z-1.021
N1105 X-161.772 Y51.331 Z-1.036
N1110 X-162.084 Y51.591 Z-1.046
N1115 X-162.488 Y51.912 Z-1.06
N1120 X-162.92 Y52.218 Z-1.074
N1125 X-163.301 Y52.466 Z-1.087
N1130 X-163.932 Y52.837 Z-1.107
N1135 X-164.61 Y53.189 Z-1.13
N1140 X-165.073 Y53.397 Z-1.145
N1145 X-165.852 Y53.737 Z-1.171
N1150 X-166.623 Y54.02 Z-1.196
N1155 X-167.119 Y54.199 Z-1.212
N1160 X-168.06 Y54.495 Z-1.244
N1165 X-168.568 Y54.638 Z-1.261
N1170 X-169.546 Y54.897 Z-1.294
N1175 X-170.713 Y55.169 Z-1.334
N1180 X-171.903 Y55.412 Z-1.376
N1185 X-173.054 Y55.622 Z-1.417
N1190 X-174.232 Y55.811 Z-1.461
N1195 X-175.436 Y55.983 Z-1.506
N1200 X-176.603 Y56.131 Z-1.551
N1205 X-177.846 Y56.269 Z-1.6
N1210 X-179.076 Y56.391 Z-1.651
N1215 X-180.289 Y56.495 Z-1.702
N1220 X-181.704 Y56.6 Z-1.763
N1225 X-183.243 Y56.696 Z-1.832
N1230 X-184.546 Y56.759 Z-1.893
N1235 X-185.851 Y56.808 Z-1.956
N1240 X-187.018 Y56.838 Z-2.014
N1245 X-188.138 Y56.853 Z-2.072
N1250 X-189.213 Y56.855 Z-2.128
N1255 X-190.245 Y56.844 Z-2.184
N1260 X-191.308 Y56.819 Z-2.242
N1265 X-192.381 Y56.776 Z-2.301
N1270 X-193.542 Y56.711 Z-2.367
N1275 X-194.616 Y56.627 Z-2.428
N1280 X-195.734 Y56.517 Z-2.493
N1285 X-196.897 Y56.372 Z-2.562
N1290 X-198.099 Y56.179 Z-2.635
N1295 X-199.264 Y55.944 Z-2.706
N1300 X-200.425 Y55.65 Z-2.779
N1305 X-200.923 Y55.501 Z-2.811
N1310 X-201.743 Y55.226 Z-2.864
N1315 X-202.167 Y55.056 Z-2.892
N1320 X-203.003 Y54.71 Z-2.947
N1325 X-203.479 Y54.482 Z-2.979
N1330 X-203.988 Y54.212 Z-3.013
N1335 X-204.487 Y53.916 Z-3.048
N1340 X-205.069 Y53.532 Z-3.088
N1345 X-205.372 Y53.306 Z-3.11
N1350 X-205.835 Y52.946 Z-3.143
N1355 X-206.252 Y52.575 Z-3.173
N1360 X-206.65 Y52.183 Z-3.203
N1365 X-206.991 Y51.809 Z-3.228
N1370 X-207.337 Y51.388 Z-3.255
N1375 X-207.627 Y50.994 Z-3.278
N1380 X-207.886 Y50.607 Z-3.299
N1385 X-208.104 Y50.246 Z-3.317
N1390 X-208.297 Y49.895 Z-3.333
N1395 X-208.667 Y49.124 Z-3.364
N1400 X-208.825 Y48.74 Z-3.377
N1405 X-208.952 Y48.397 Z-3.388
N1410 X-209.136 Y47.849 Z-3.404
N1415 X-209.289 Y47.305 Z-3.417
N1420 X-209.372 Y46.933 Z-3.424
N1425 X-209.554 Y46.042 Z-3.437
N1430 X-209.602 Y45.73 Z-3.433
N1435 X-209.725 Y44.776 Z-3.422
N1440 X-209.755 Y44.367 Z-3.416
N1445 X-209.808 Y43.449 Z-3.404
N1450 X-209.813 Y42.538 Z-3.389
N1455 X-209.811 Y42.176 Z-3.384
N1460 X-209.758 Y40.992 Z-3.363
N1465 X-209.657 Y39.807 Z-3.342
N1470 X-209.511 Y38.638 Z-3.319
N1475 X-209.321 Y37.45 Z-3.295
N1480 X-209.104 Y36.308 Z-3.271
N1485 X-208.833 Y35.105 Z-3.244
N1490 X-208.552 Y34.005 Z-3.22
N1495 X-208.225 Y32.851 Z-3.193
N1500 X-207.847 Y31.65 Z-3.164
N1505 X-207.523 Y30.712 Z-3.141
N1510 X-207.184 Y29.805 Z-3.118
N1515 X-206.982 Y29.28 Z-3.105
N1520 X-206.506 Y28.124 Z-3.074
N1525 X-206.035 Y27.078 Z-3.044
N1530 X-205.48 Y25.935 Z-3.01
N1535 X-204.988 Y25.007 Z-2.981
N1540 X-204.792 Y24.651 Z-2.969
N1545 X-204.14 Y23.534 Z-2.931
N1550 X-203.461 Y22.474 Z-2.891
N1555 X-202.917 Y21.69 Z-2.859
N1560 X-202.538 Y21.179 Z-2.837
N1565 X-201.702 Y20.135 Z-2.787
N1570 X-201.158 Y19.523 Z-2.755
N1575 X-200.899 Y19.248 Z-2.739
N1580 X-200.399 Y18.739 Z-2.709
N1585 X-199.772 Y18.159 Z-2.671
N1590 X-199.136 Y17.624 Z-2.633
N1595 X-198.879 Y17.426 Z-2.617
N1600 X-197.948 Y16.766 Z-2.561
N1605 X-197.655 Y16.582 Z-2.544
N1610 X-197 Y16.196 Z-2.505
N1615 X-196.474 Y15.92 Z-2.475
N1620 X-195.823 Y15.613 Z-2.437
N1625 X-195.182 Y15.35 Z-2.4
N1630 X-194.014 Y14.947 Z-2.335
N1635 X-193.674 Y14.85 Z-2.316
N1640 X-192.675 Y14.589 Z-2.262
N1645 X-191.477 Y14.342 Z-2.197
N1650 X-190.462 Y14.179 Z-2.144
N1655 X-190.028 Y14.119 Z-2.122
N1660 X-189.019 Y13.998 Z-2.07
N1665 X-187.842 Y13.894 Z-2.011
N1670 X-186.666 Y13.827 Z-1.953
N1675 X-185.493 Y13.795 Z-1.895
N1680 X-184.29 Y13.798 Z-1.838
N1685 X-183.146 Y13.832 Z-1.783
N1690 X-181.957 Y13.904 Z-1.728
N1695 X-180.763 Y14.018 Z-1.673
N1700 X-179.569 Y14.178 Z-1.619
N1705 X-178.402 Y14.379 Z-1.567
N1710 X-177.253 Y14.63 Z-1.516
N1715 X-176.269 Y14.888 Z-1.473
N1720 X-175.874 Y15.004 Z-1.456
N1725 X-174.706 Y15.389 Z-1.406
N1730 X-173.543 Y15.846 Z-1.357
N1735 X-172.863 Y16.152 Z-1.329
N1740 X-172.196 Y16.481 Z-1.301
N1745 X-171.053 Y17.112 Z-1.254
N1750 X-170.576 Y17.403 Z-1.234
N1755 X-169.76 Y17.948 Z-1.201
N1760 X-169.032 Y18.487 Z-1.172
N1765 X-168.676 Y18.764 Z-1.158
N1770 X-168.402 Y18.988 Z-1.148
N1775 X-167.462 Y19.811 Z-1.11
N1780 X-167.202 Y20.061 Z-1.101
N1785 X-166.24 Y21.038 Z-1.065
N1790 X-165.945 Y21.366 Z-1.054
N1795 X-165.194 Y22.244 Z-1.025
N1800 X-164.744 Y22.814 Z-1.008
N1805 X-164.243 Y23.484 Z-0.988
N1810 X-163.608 Y24.396 Z-0.965
N1815 X-163.334 Y24.823 Z-0.957
N1820 X-162.719 Y25.81 Z-0.937
N1825 X-162.302 Y26.533 Z-0.925
N1830 X-161.99 Y27.102 Z-0.915
N1835 X-161.442 Y28.16 Z-0.897
N1840 X-161.117 Y28.836 Z-0.887
N1845 X-160.886 Y29.335 Z-0.88
N1850 X-160.394 Y30.455 Z-0.867
N1855 X-160.046 Y31.316 Z-0.861
N1860 X-159.914 Y31.657 Z-0.858
N1865 X-159.493 Y32.818 Z-0.85
N1870 X-159.116 Y33.968 Z-0.845
N1875 X-158.832 Y34.926 Z-0.842
N1880 X-158.57 Y35.931 Z-0.84
N1885 X-158.47 Y36.333 Z-0.839
N1890 X-158.215 Y37.533 Z-0.84
N1895 X-158.035 Y38.619 Z-0.842
N1900 X-157.958 Y39.284 Z-0.844
N1905 X-157.888 Y39.946 Z-0.847
N1910 X-157.85 Y40.816 Z-0.852
N1915 X-157.838 Y41.21 Z-0.854
N1920 X-157.855 Y41.814 Z-0.858
N1925 X-157.872 Y42.364 Z-0.862
N1930 X-157.885 Y42.546 Z-0.864
N1935 X-158.002 Y43.65 Z-0.873
N1940 X-158.097 Y44.25 Z-0.881
N1945 X-158.168 Y44.613 Z-0.886
N1950 X-158.262 Y45.05 Z-0.893
N1955 X-158.424 Y45.638 Z-0.902
N1960 X-158.586 Y46.214 Z-0.912
N1965 X-158.697 Y46.541 Z-0.918
N1970 X-158.954 Y47.24 Z-0.931
N1975 X-159.156 Y47.707 Z-0.94
N1980 X-159.416 Y48.25 Z-0.951
N1985 X-159.484 Y48.381 Z-0.953
N1990 X-155.899 Y50.371 Z-0.945
N1995 X-155.832 Y50.335 Z-0.943
N2000 X-155.103 Y50.671 Z-0.942
N2005 X-154.491 Y50.923 Z-0.941
N2010 X-153.853 Y51.148 Z-0.94
N2015 X-153.191 Y51.345 Z-0.939
N2020 X-152.581 Y51.492 Z-0.938
N2025 X-151.958 Y51.615 Z-0.937
N2030 X-151.252 Y51.716 Z-0.936
N2035 X-150.648 Y51.774 Z-0.935
N2040 X-150.088 Y51.807 Z-0.934
N2045 X-149.158 Y51.821 Z-0.932
N2050 X-147.833 Y51.783 Z-0.93
N2055 X-147.232 Y51.782
N2060 X-145.861 Y51.821 Z-0.932
N2065 X-144.912 Y51.807 Z-0.934
N2070 X-144.281 Y51.768 Z-0.935
N2075 X-143.722 Y51.713 Z-0.936
N2080 X-143.012 Y51.611 Z-0.937
N2085 X-142.292 Y51.465 Z-0.939
N2090 X-141.717 Y51.32 Z-0.94
N2095 X-141.075 Y51.125 Z-0.941
N2100 X-140.509 Y50.923
N2105 X-139.895 Y50.67 Z-0.942
N2110 X-139.168 Y50.335 Z-0.943
N2115 X-139.101 Y50.371 Z-0.945
N2120 X-135.516 Y48.381 Z-0.953
N2125 X-135.584 Y48.25 Z-0.951
N2130 X-135.864 Y47.664 Z-0.939
N2135 X-136.046 Y47.242 Z-0.931
N2140 X-136.294 Y46.566 Z-0.918
N2145 X-136.409 Y46.232 Z-0.912
N2150 X-136.718 Y45.128 Z-0.894
N2155 X-136.797 Y44.78 Z-0.888
N2160 X-136.892 Y44.318 Z-0.882
N2165 X-136.981 Y43.775 Z-0.875
N2170 X-137.029 Y43.366 Z-0.871
N2175 X-137.12 Y42.478 Z-0.863
N2180 X-137.136 Y42.095 Z-0.86
N2185 X-137.162 Y41.277 Z-0.855
N2190 X-137.161 Y41.098 Z-0.853
N2195 X-137.117 Y40.012 Z-0.847
N2200 X-137.067 Y39.503 Z-0.845
N2205 X-136.965 Y38.619 Z-0.842
N2210 X-136.763 Y37.419 Z-0.84
N2215 X-136.508 Y36.237 Z-0.839
N2220 X-136.189 Y35 Z-0.841
N2225 X-135.881 Y33.956 Z-0.845
N2230 X-135.482 Y32.743 Z-0.85
N2235 X-135.068 Y31.609 Z-0.858
N2240 X-134.758 Y30.831 Z-0.864
N2245 X-134.537 Y30.299 Z-0.869
N2250 X-134.092 Y29.287 Z-0.881
N2255 X-133.749 Y28.552 Z-0.891
N2260 X-133.487 Y28.02 Z-0.9
N2265 X-132.932 Y26.954 Z-0.918
N2270 X-132.443 Y26.085 Z-0.932
N2275 X-132.184 Y25.648 Z-0.94
N2280 X-131.534 Y24.607 Z-0.961
N2285 X-131.376 Y24.365 Z-0.966
N2290 X-130.885 Y23.658 Z-0.983
N2295 X-130.379 Y22.964 Z-1.003
N2300 X-129.93 Y22.384 Z-1.02
N2305 X-129.538 Y21.914 Z-1.035
N2310 X-129.014 Y21.311 Z-1.056
N2315 X-128.525 Y20.783 Z-1.074
N2320 X-128.03 Y20.28 Z-1.093
N2325 X-127.515 Y19.789 Z-1.111
N2330 X-127.005 Y19.331 Z-1.131
N2335 X-126.439 Y18.853 Z-1.154
N2340 X-125.852 Y18.39 Z-1.177
N2345 X-125.275 Y17.962 Z-1.2
N2350 X-124.66 Y17.537 Z-1.225
N2355 X-124.267 Y17.282 Z-1.241
N2360 X-123.897 Y17.061 Z-1.256
N2365 X-122.77 Y16.439 Z-1.303
N2370 X-122.075 Y16.097 Z-1.332
N2375 X-121.427 Y15.811 Z-1.359
N2380 X-120.466 Y15.429 Z-1.399
N2385 X-119.971 Y15.252 Z-1.42
N2390 X-119.162 Y14.995 Z-1.455
N2395 X-118.368 Y14.767 Z-1.489
N2400 X-117.582 Y14.566 Z-1.524
N2405 X-116.817 Y14.394 Z-1.557
N2410 X-116.123 Y14.261 Z-1.588
N2415 X-115.207 Y14.115 Z-1.629
N2420 X-114.302 Y13.995 Z-1.67
N2425 X-113.385 Y13.898 Z-1.712
N2430 X-112.494 Y13.827 Z-1.753
N2435 X-111.607 Y13.78 Z-1.795
N2440 X-110.602 Y13.754 Z-1.843
N2445 X-109.586 Y13.752 Z-1.892
N2450 X-108.554 Y13.774 Z-1.942
N2455 X-107.511 Y13.82 Z-1.993
N2460 X-106.845 Y13.866 Z-2.027
N2465 X-105.822 Y13.965 Z-2.078
N2470 X-104.84 Y14.084 Z-2.128
N2475 X-103.872 Y14.225 Z-2.179
N2480 X-103.249 Y14.338 Z-2.212
N2485 X-102.321 Y14.531 Z-2.261
N2490 X-101.566 Y14.726 Z-2.302
N2495 X-100.893 Y14.922 Z-2.339
N2500 X-100.237 Y15.138 Z-2.376
N2505 X-99.644 Y15.356 Z-2.409
N2510 X-99.114 Y15.573 Z-2.439
N2515 X-98.432 Y15.893 Z-2.479
N2520 X-97.904 Y16.181 Z-2.51
N2525 X-97.362 Y16.503 Z-2.542
N2530 X-96.841 Y16.839 Z-2.573
N2535 X-96.326 Y17.199 Z-2.603
N2540 X-95.814 Y17.586 Z-2.634
N2545 X-95.325 Y17.986 Z-2.663
N2550 X-94.857 Y18.398 Z-2.691
N2555 X-94.41 Y18.821 Z-2.718
N2560 X-93.903 Y19.337 Z-2.748
N2565 X-93.322 Y19.978 Z-2.782
N2570 X-93.055 Y20.3 Z-2.798
N2575 X-92.373 Y21.155 Z-2.838
N2580 X-91.962 Y21.703 Z-2.862
N2585 X-91.431 Y22.477 Z-2.893
N2590 X-90.947 Y23.224 Z-2.921
N2595 X-90.485 Y23.982 Z-2.948
N2600 X-90.028 Y24.767 Z-2.975
N2605 X-89.415 Y25.918 Z-3.011
N2610 X-88.873 Y27.042 Z-3.044
N2615 X-88.396 Y28.084 Z-3.074
N2620 X-87.867 Y29.365 Z-3.108
N2625 X-87.414 Y30.557 Z-3.138
N2630 X-87.077 Y31.525 Z-3.162
N2635 X-86.709 Y32.673 Z-3.19
N2640 X-86.434 Y33.611 Z-3.211
N2645 X-86.264 Y34.229 Z-3.226
N2650 X-85.91 Y35.656 Z-3.257
N2655 X-85.697 Y36.648 Z-3.279
N2660 X-85.514 Y37.615 Z-3.299
N2665 X-85.36 Y38.539 Z-3.318
N2670 X-85.245 Y39.382 Z-3.334
N2675 X-85.152 Y40.237 Z-3.35
N2680 X-85.079 Y41.132 Z-3.366
N2685 X-85.029 Y42.044 Z-3.382
N2690 X-85.015 Y42.678 Z-3.392
N2695 X-85.014 Y43.487 Z-3.404
N2700 X-85.047 Y44.497 Z-3.418
N2705 X-85.083 Y45.046 Z-3.425
N2710 X-85.175 Y46.019 Z-3.436
N2715 X-85.26 Y46.652 Z-3.431
N2720 X-85.319 Y47.169 Z-3.422
N2725 X-85.34 Y47.461 Z-3.417
N2730 X-85.428 Y47.989 Z-3.406
N2735 X-85.446 Y48.165 Z-3.402
N2740 X-85.582 Y48.681 Z-3.388
N2745 X-85.663 Y48.91 Z-3.382
N2750 X-85.777 Y49.149 Z-3.373
N2755 X-85.958 Y49.456 Z-3.362
N2760 X-86.281 Y50.017 Z-3.339
N2765 X-86.423 Y50.208 Z-3.33
N2770 X-86.617 Y50.494 Z-3.317
N2775 X-86.81 Y50.771 Z-3.303
N2780 X-87.054 Y51.101 Z-3.285
N2785 X-87.386 Y51.519 Z-3.261
N2790 X-87.717 Y51.899 Z-3.237
N2795 X-88.041 Y52.234 Z-3.214
N2800 X-88.453 Y52.627 Z-3.185
N2805 X-88.88 Y53.002 Z-3.155
N2810 X-89.165 Y53.224 Z-3.135
N2815 X-89.69 Y53.606 Z-3.099
N2820 X-90.119 Y53.888 Z-3.069
N2825 X-90.567 Y54.162 Z-3.039
N2830 X-91.058 Y54.434 Z-3.006
N2835 X-91.559 Y54.685 Z-2.973
N2840 X-91.989 Y54.88 Z-2.944
N2845 X-92.861 Y55.227 Z-2.888
N2850 X-93.494 Y55.455 Z-2.847
N2855 X-94.132 Y55.66 Z-2.806
N2860 X-94.783 Y55.845 Z-2.764
N2865 X-95.641 Y56.06 Z-2.711
N2870 X-96.261 Y56.189 Z-2.673
N2875 X-97.206 Y56.36 Z-2.615
N2880 X-98.139 Y56.506 Z-2.559
N2885 X-99.086 Y56.631 Z-2.503
N2890 X-100.084 Y56.738 Z-2.445
N2895 X-101.137 Y56.829 Z-2.385
N2900 X-102.309 Y56.906 Z-2.318
N2905 X-103.316 Y56.954 Z-2.262
N2910 X-106.22 Y57.017 Z-2.106
N2915 X-109.614 Y56.964 Z-1.934
N2920 X-112.996 Y56.801 Z-1.777
N2925 X-116.455 Y56.528 Z-1.63
N2930 X-118.718 Y56.283 Z-1.54
N2935 X-120.774 Y56.002 Z-1.462
N2940 X-122.027 Y55.801 Z-1.416
N2945 X-123.153 Y55.595 Z-1.375
N2950 X-124.296 Y55.361 Z-1.335
N2955 X-125.397 Y55.107 Z-1.298
N2960 X-126.161 Y54.908 Z-1.272
N2965 X-127.002 Y54.672 Z-1.244
N2970 X-127.854 Y54.409 Z-1.216
N2975 X-128.439 Y54.203 Z-1.197
N2980 X-129.23 Y53.912 Z-1.171
N2985 X-129.99 Y53.586 Z-1.146
N2990 X-130.537 Y53.335 Z-1.129
N2995 X-131.086 Y53.057 Z-1.111
N3000 X-131.635 Y52.754 Z-1.093
N3005 X-132.173 Y52.429 Z-1.076
N3010 X-132.529 Y52.193 Z-1.065
N3015 X-132.989 Y51.86 Z-1.05
N3020 X-133.456 Y51.496 Z-1.036
N3025 X-133.862 Y51.157 Z-1.023
N3030 X-134.046 Y50.973 Z-1.017
N3035 X-134.378 Y50.6 Z-1.005
N3040 X-134.789 Y50.099 Z-0.99
N3045 X-135.081 Y49.702 Z-0.978
N3050 X-135.287 Y49.389 Z-0.97
N3055 X-135.476 Y49.079 Z-0.964
N3060 X-135.526 Y49.014 Z-0.962
N3065 X-135.591 Y48.965 Z-0.961
N3070 X-135.671 Y48.932 Z-0.959
N3075 X-135.756 Y48.923 Z-0.958
N3080 X-135.832 Y48.934 Z-0.957
N3085 X-135.903 Y48.963
N3090 X-138.107 Y50.198 Z-0.953
N3095 X-138.922 Y50.629 Z-0.951
N3100 X-139.003 Y50.658 Z-0.95
N3105 X-139.111 Y50.663 Z-0.949
N3110 X-139.178 Y50.672
N3115 X-139.261 Y50.705
N3120 X-139.46 Y50.809
N3125 X-139.708 Y50.92 Z-0.948
N3130 X-140.254 Y51.133 Z-0.947
N3135 X-141.457 Y51.522 Z-0.945
N3140 X-142.75 Y51.819 Z-0.943
N3145 X-143.046 Y51.87 Z-0.942
N3150 X-144.359 Y52.022 Z-0.94
N3155 X-145.711 Y52.069 Z-0.937
N3160 X-146.326 Y52.058 Z-0.936
N3165 X-147.297 Y52.035 Z-0.935
N3170 X-148.104 Y52.044
N3175 X-149.111 Y52.071 Z-0.937
N3180 X-149.616 Y52.072 Z-0.938
N3185 X-150.976 Y52.007 Z-0.941
N3190 X-152.03 Y51.874 Z-0.943
N3195 X-152.19 Y51.847
N3200 X-153.465 Y51.567 Z-0.946
N3205 X-154.707 Y51.18 Z-0.948
N3210 X-155.371 Y50.925 Z-0.949
N3215 X-155.553 Y50.844
N3220 X-155.722 Y50.763 Z-0.95
N3225 X-156.161 Y50.6 Z-0.951
N3230 X-156.56 Y50.423 Z-0.952
N3235 X-156.923 Y50.236 Z-0.953
N3240 X-157.87 Y49.708 Z-0.955
N3245 X-159.078 Y49.043 Z-0.958
N3250 X-159.172 Y49.009 Z-0.959
N3255 X-159.272 Y49.007 Z-0.96
N3260 X-159.337 Y49.023 Z-0.961
N3265 X-159.412 Y49.062 Z-0.962
N3270 X-159.473 Y49.119 Z-0.964
N3275 X-159.526 Y49.202 Z-0.965
N3280 X-159.715 Y49.507 Z-0.972
N3285 X-159.898 Y49.784 Z-0.98
N3290 X-160.162 Y50.146 Z-0.99
N3295 X-160.625 Y50.714 Z-1.008
N3300 X-160.895 Y51.021 Z-1.017
N3305 X-161.055 Y51.182 Z-1.023
N3310 X-161.386 Y51.46 Z-1.033
N3315 X-161.859 Y51.831 Z-1.047
N3320 X-162.364 Y52.198 Z-1.063
N3325 X-162.731 Y52.445 Z-1.075
N3330 X-163.27 Y52.772 Z-1.092
N3335 X-163.81 Y53.074 Z-1.109
N3340 X-164.391 Y53.37 Z-1.127
N3345 X-164.967 Y53.638 Z-1.146
N3350 X-165.737 Y53.971 Z-1.171
N3355 X-166.609 Y54.295 Z-1.199
N3360 X-167.18 Y54.495 Z-1.218
N3365 X-168.024 Y54.758 Z-1.246
N3370 X-168.878 Y54.999 Z-1.274
N3375 X-169.854 Y55.249 Z-1.307
N3380 X-170.815 Y55.472 Z-1.34
N3385 X-171.904 Y55.698 Z-1.378
N3390 X-173.077 Y55.915 Z-1.421
N3395 X-173.703 Y56.013 Z-1.443
N3400 X-176.268 Y56.389 Z-1.54
N3405 X-179.352 Y56.72 Z-1.664
N3410 X-182.468 Y56.957 Z-1.799
N3415 X-185.568 Y57.105 Z-1.943
N3420 X-188.816 Y57.159 Z-2.108
N3425 X-191.658 Y57.101 Z-2.261
N3430 X-192.825 Y57.045 Z-2.326
N3435 X-194.018 Y56.963 Z-2.394
N3440 X-195.215 Y56.857 Z-2.462
N3445 X-196.415 Y56.725 Z-2.532
N3450 X-197.091 Y56.637 Z-2.573
N3455 X-198.088 Y56.477 Z-2.632
N3460 X-198.872 Y56.327 Z-2.68
N3465 X-199.668 Y56.15 Z-2.729
N3470 X-200.451 Y55.95 Z-2.778
N3475 X-201.226 Y55.728 Z-2.827
N3480 X-201.988 Y55.484 Z-2.875
N3485 X-202.73 Y55.221 Z-2.923
N3490 X-203.254 Y55.018 Z-2.956
N3495 X-203.795 Y54.778 Z-2.992
N3500 X-204.312 Y54.523 Z-3.025
N3505 X-204.81 Y54.255 Z-3.058
N3510 X-205.445 Y53.878 Z-3.1
N3515 X-205.904 Y53.573 Z-3.13
N3520 X-206.345 Y53.264 Z-3.159
N3525 X-206.798 Y52.916 Z-3.189
N3530 X-207.233 Y52.548 Z-3.218
N3535 X-207.837 Y51.981 Z-3.257
N3540 X-208.084 Y51.728 Z-3.273
N3545 X-208.323 Y51.475 Z-3.289
N3550 X-208.545 Y51.219 Z-3.303
N3555 X-208.692 Y51.052 Z-3.312
N3560 X-208.848 Y50.864 Z-3.322
N3565 X-209.141 Y50.554 Z-3.338
N3570 X-209.786 Y49.821 Z-3.373
N3575 X-209.919 Y49.657 Z-3.379
N3580 X-210.065 Y49.491 Z-3.386
N3585 X-210.168 Y49.339 Z-3.391
N3590 X-210.247 Y49.185 Z-3.396
N3595 X-210.319 Y48.991 Z-3.4
N3600 X-210.359 Y48.808 Z-3.404
N3605 X-210.377 Y48.616 Z-3.408
N3610 X-210.384 Y48.45 Z-3.41
N3615 X-210.361 Y48.198 Z-3.414
N3620 X-210.358 Y47.962 Z-3.417
N3625 X-210.335 Y47.72 Z-3.421
N3630 X-210.3 Y47.343 Z-3.426
N3635 X-210.293 Y47.026 Z-3.43
N3640 X-210.3 Y46.616 Z-3.436
N3645 X-210.323 Y46.154 Z-3.438
N3650 X-210.333 Y45.678 Z-3.433
N3655 X-210.359 Y44.819 Z-3.423
N3660 X-210.365 Y43.499 Z-3.405
N3665 X-210.341 Y42.54 Z-3.391
N3670 X-210.307 Y41.718 Z-3.377
N3675 X-210.25 Y40.851 Z-3.363
N3680 X-210.169 Y39.975 Z-3.347
N3685 X-210.066 Y39.12 Z-3.331
N3690 X-209.955 Y38.362 Z-3.316
N3695 X-209.787 Y37.403 Z-3.297
N3700 X-209.584 Y36.389 Z-3.275
N3705 X-209.366 Y35.416 Z-3.255
N3710 X-209.13 Y34.46 Z-3.233
N3715 X-208.907 Y33.632 Z-3.215
N3720 X-208.601 Y32.583 Z-3.191
N3725 X-208.247 Y31.472 Z-3.164
N3730 X-207.914 Y30.504 Z-3.141
N3735 X-207.513 Y29.431 Z-3.114
N3740 X-207.189 Y28.621 Z-3.093
N3745 X-206.875 Y27.862 Z-3.072
N3750 X-206.365 Y26.743 Z-3.041
N3755 X-205.894 Y25.758 Z-3.012
N3760 X-205.3 Y24.634 Z-2.977
N3765 X-204.874 Y23.89 Z-2.953
N3770 X-204.421 Y23.138 Z-2.927
N3775 X-203.943 Y22.393 Z-2.899
N3780 X-203.433 Y21.641 Z-2.87
N3785 X-203.104 Y21.188 Z-2.851
N3790 X-202.617 Y20.562 Z-2.823
N3795 X-202.119 Y19.955 Z-2.794
N3800 X-201.656 Y19.426 Z-2.768
N3805 X-201.184 Y18.923 Z-2.741
N3810 X-200.69 Y18.43 Z-2.712
N3815 X-200.198 Y17.971 Z-2.683
N3820 X-199.764 Y17.599 Z-2.658
N3825 X-199.264 Y17.202 Z-2.628
N3830 X-198.762 Y16.833 Z-2.599
N3835 X-198.223 Y16.464 Z-2.568
N3840 X-197.719 Y16.147 Z-2.539
N3845 X-197.191 Y15.842 Z-2.508
N3850 X-196.654 Y15.56 Z-2.478
N3855 X-196.111 Y15.301 Z-2.447
N3860 X-195.564 Y15.066 Z-2.417
N3865 X-195.012 Y14.853 Z-2.386
N3870 X-194.352 Y14.627 Z-2.35
N3875 X-193.675 Y14.42 Z-2.313
N3880 X-192.991 Y14.235 Z-2.276
N3885 X-192.3 Y14.072 Z-2.239
N3890 X-191.519 Y13.913 Z-2.198
N3895 X-190.698 Y13.772 Z-2.156
N3900 X-189.985 Y13.668 Z-2.119
N3905 X-189.042 Y13.558 Z-2.072
N3910 X-188.098 Y13.472 Z-2.024
N3915 X-187.142 Y13.408 Z-1.977
N3920 X-186.205 Y13.368 Z-1.932
N3925 X-185.257 Y13.351 Z-1.886
N3930 X-184.329 Y13.356 Z-1.842
N3935 X-183.391 Y13.384 Z-1.798
N3940 X-182.441 Y13.436 Z-1.754
N3945 X-181.51 Y13.509 Z-1.711
N3950 X-180.743 Y13.588 Z-1.676
N3955 X-179.773 Y13.719 Z-1.633
N3960 X-178.957 Y13.852 Z-1.597
N3965 X-178.22 Y13.992 Z-1.565
N3970 X-177.461 Y14.159 Z-1.532
N3975 X-176.711 Y14.345 Z-1.499
N3980 X-175.956 Y14.557 Z-1.467
N3985 X-175.183 Y14.798 Z-1.434
N3990 X-174.573 Y15.004 Z-1.409
N3995 X-173.615 Y15.376 Z-1.369
N4000 X-173.043 Y15.617 Z-1.345
N4005 X-172.237 Y15.996 Z-1.312
N4010 X-171.77 Y16.237 Z-1.293
N4015 X-170.821 Y16.757 Z-1.255
N4020 X-170.304 Y17.069 Z-1.235
N4025 X-169.716 Y17.461 Z-1.211
N4030 X-169.099 Y17.9 Z-1.187
N4035 X-168.497 Y18.358 Z-1.163
N4040 X-167.907 Y18.835 Z-1.14
N4045 X-167.454 Y19.223 Z-1.121
N4050 X-167.15 Y19.494 Z-1.109
N4055 X-166.588 Y20.02 Z-1.089
N4060 X-166.072 Y20.533 Z-1.071
N4065 X-165.55 Y21.085 Z-1.052
N4070 X-165.042 Y21.657 Z-1.032
N4075 X-164.556 Y22.239 Z-1.014
N4080 X-164.118 Y22.797 Z-0.996
N4085 X-163.681 Y23.388 Z-0.978
N4090 X-163.159 Y24.132 Z-0.961
N4095 X-162.841 Y24.621 Z-0.95
N4100 X-162.245 Y25.572 Z-0.931
N4105 X-161.748 Y26.442 Z-0.916
N4110 X-161.268 Y27.327 Z-0.902
N4115 X-160.917 Y28.005 Z-0.89
N4120 X-160.506 Y28.857 Z-0.877
N4125 X-160.239 Y29.44 Z-0.87
N4130 X-159.87 Y30.275 Z-0.861
N4135 X-159.629 Y30.852 Z-0.856
N4140 X-158.984 Y32.498 Z-0.844
N4145 X-158.603 Y33.581 Z-0.838
N4150 X-158.294 Y34.523 Z-0.835
N4155 X-158.009 Y35.478 Z-0.832
N4160 X-157.772 Y36.351 Z-0.831
N4165 X-157.583 Y37.133
N4170 X-157.382 Y38.089 Z-0.832
N4175 X-157.224 Y38.976 Z-0.835
N4180 X-157.11 Y39.737 Z-0.838
N4185 X-157.044 Y40.355 Z-0.841
N4190 X-156.987 Y41.054 Z-0.845
N4195 X-156.952 Y41.647 Z-0.849
N4200 X-156.931 Y42.229 Z-0.853
N4205 X-156.947 Y42.429 Z-0.854
N4210 X-157.052 Y43.013 Z-0.86
N4215 X-157.171 Y43.804 Z-0.867
N4220 X-157.295 Y44.498 Z-0.874
N4225 X-157.428 Y45.217 Z-0.885
N4230 X-157.484 Y45.422 Z-0.889
N4235 X-157.675 Y45.958 Z-0.898
N4240 X-157.825 Y46.404 Z-0.906
N4245 X-157.917 Y46.715 Z-0.912
N4250 X-158.064 Y47.11 Z-0.919
N4255 X-158.218 Y47.509 Z-0.926
N4260 X-158.256 Y47.637 Z-0.929
N4265 X-158.265 Y47.704 Z-0.93
N4270 X-158.263 Y47.819 Z-0.931
N4275 X-158.237 Y47.947 Z-0.933
N4280 X-158.179 Y48.076 Z-0.934
N4285 X-158.097 Y48.187 Z-0.935
N4290 X-158.024 Y48.255
N4295 X-157.941 Y48.31
N4300 X-155.814 Y49.504 Z-0.929
N4305 X-155.544 Y49.639
N4310 X-155.267 Y49.781 Z-0.928
N4315 X-154.633 Y50.121
N4320 X-154.13 Y50.358
N4325 X-153.818 Y50.486
N4330 X-152.827 Y50.824 Z-0.929
N4335 X-152.197 Y50.981 Z-0.93
N4340 X-151.769 Y51.066 Z-0.931
N4345 X-151.008 Y51.177 Z-0.93
N4350 X-150.596 Y51.206 Z-0.929
N4355 X-149.736 Y51.254 Z-0.927
N4360 X-149.129 Y51.258
N4365 X-147.766 Y51.215
N4370 X-146.968 Y51.219
N4375 X-145.794 Y51.253
N4380 X-144.424 Y51.205 Z-0.929
N4385 X-143.302 Y51.063 Z-0.931
N4390 X-142.808 Y50.964 Z-0.93
N4395 X-141.791 Y50.684 Z-0.928
N4400 X-141.324 Y50.516 Z-0.927
N4405 X-140.83 Y50.308
N4410 X-140.309 Y50.055
N4415 X-139.583 Y49.654 Z-0.928
N4420 X-139.344 Y49.537
N4425 X-138.844 Y49.247 Z-0.93
N4430 X-137.256 Y48.307 Z-0.932
N4435 X-137.147 Y48.23 Z-0.933
N4440 X-137.052 Y48.134 Z-0.932
N4445 X-136.976 Y48.025 Z-0.931
N4450 X-136.919 Y47.903 Z-0.93
N4455 X-136.883 Y47.774 Z-0.929
N4460 X-136.87 Y47.641 Z-0.927
N4465 X-136.881 Y47.497 Z-0.925
N4470 X-136.895 Y47.433 Z-0.924
N4475 X-136.961 Y47.249 Z-0.921
N4480 X-137.151 Y46.75 Z-0.911
N4485 X-137.242 Y46.446 Z-0.906
N4490 X-137.362 Y46.098 Z-0.9
N4495 X-137.525 Y45.647 Z-0.892
N4500 X-137.617 Y45.398 Z-0.887
N4505 X-137.666 Y45.209 Z-0.884
N4510 X-137.826 Y44.362 Z-0.872
N4515 X-137.937 Y43.749 Z-0.866
N4520 X-138.076 Y42.904 Z-0.858
N4525 X-138.168 Y42.432 Z-0.853
N4530 X-138.186 Y42.232 Z-0.852
N4535 X-138.16 Y41.58 Z-0.847
N4540 X-138.132 Y41.111 Z-0.844
N4545 X-138.076 Y40.433 Z-0.84
N4550 X-138.019 Y39.9 Z-0.837
N4555 X-137.922 Y39.168 Z-0.834
N4560 X-137.778 Y38.308 Z-0.832
N4565 X-137.642 Y37.614 Z-0.83
N4570 X-137.448 Y36.764
N4575 X-137.194 Y35.78
N4580 X-136.898 Y34.751 Z-0.833
N4585 X-136.551 Y33.677 Z-0.836
N4590 X-136.135 Y32.487 Z-0.843
N4595 X-135.688 Y31.312 Z-0.851
N4600 X-135.328 Y30.436 Z-0.858
N4605 X-135.029 Y29.747 Z-0.865
N4610 X-134.659 Y28.923 Z-0.874
N4615 X-134.24 Y28.042 Z-0.888
N4620 X-133.918 Y27.408 Z-0.898
N4625 X-133.461 Y26.55 Z-0.911
N4630 X-132.942 Y25.627 Z-0.927
N4635 X-132.671 Y25.184 Z-0.936
N4640 X-132.115 Y24.296 Z-0.954
N4645 X-131.929 Y24.018 Z-0.96
N4650 X-131.43 Y23.301 Z-0.977
N4655 X-130.983 Y22.692 Z-0.996
N4660 X-130.607 Y22.208 Z-1.011
N4665 X-130.405 Y21.966 Z-1.019
N4670 X-129.535 Y20.945 Z-1.052
N4675 X-129.263 Y20.648 Z-1.062
N4680 X-129.067 Y20.447 Z-1.069
N4685 X-128.586 Y19.972 Z-1.086
N4690 X-128.038 Y19.456 Z-1.105
N4695 X-127.652 Y19.111 Z-1.12
N4700 X-127.202 Y18.727 Z-1.14
N4705 X-126.608 Y18.247 Z-1.164
N4710 X-125.993 Y17.781 Z-1.188
N4715 X-125.382 Y17.347 Z-1.212
N4720 X-124.799 Y16.958 Z-1.235
N4725 X-124.252 Y16.626 Z-1.256
N4730 X-123.215 Y16.057 Z-1.298
N4735 X-122.718 Y15.804 Z-1.318
N4740 X-121.945 Y15.443 Z-1.35
N4745 X-121.413 Y15.219 Z-1.371
N4750 X-120.485 Y14.856 Z-1.41
N4755 X-119.799 Y14.621 Z-1.438
N4760 X-119.016 Y14.374 Z-1.472
N4765 X-118.242 Y14.156 Z-1.505
N4770 X-117.473 Y13.965 Z-1.538
N4775 X-116.665 Y13.787 Z-1.573
N4780 X-115.857 Y13.634 Z-1.608
N4785 X-115.02 Y13.5 Z-1.645
N4790 X-114.165 Y13.382 Z-1.684
N4795 X-113.32 Y13.294 Z-1.722
N4800 X-112.368 Y13.218 Z-1.765
N4805 X-111.4 Y13.164 Z-1.81
N4810 X-110.415 Y13.134 Z-1.857
N4815 X-109.442 Y13.127 Z-1.903
N4820 X-108.427 Y13.151 Z-1.952
N4825 X-107.477 Y13.197 Z-1.998
N4830 X-106.511 Y13.267 Z-2.046
N4835 X-105.66 Y13.352 Z-2.088
N4840 X-104.74 Y13.468 Z-2.134
N4845 X-103.874 Y13.602 Z-2.179
N4850 X-103.109 Y13.743 Z-2.218
N4855 X-102.353 Y13.907 Z-2.258
N4860 X-101.58 Y14.099 Z-2.299
N4865 X-100.941 Y14.282 Z-2.333
N4870 X-100.33 Y14.481 Z-2.366
N4875 X-99.724 Y14.704 Z-2.399
N4880 X-99.141 Y14.942 Z-2.431
N4885 X-98.563 Y15.203 Z-2.463
N4890 X-97.99 Y15.488 Z-2.495
N4895 X-97.421 Y15.798 Z-2.527
N4900 X-96.878 Y16.119 Z-2.558
N4905 X-96.338 Y16.465 Z-2.589
N4910 X-95.823 Y16.823 Z-2.618
N4915 X-95.309 Y17.208 Z-2.647
N4920 X-94.811 Y17.611 Z-2.676
N4925 X-94.34 Y18.02 Z-2.702
N4930 X-93.868 Y18.462 Z-2.729
N4935 X-93.396 Y18.937 Z-2.756
N4940 X-93.077 Y19.281 Z-2.773
N4945 X-92.359 Y20.107 Z-2.814
N4950 X-91.821 Y20.775 Z-2.844
N4955 X-91.385 Y21.355 Z-2.868
N4960 X-90.94 Y21.99 Z-2.893
N4965 X-90.46 Y22.716 Z-2.92
N4970 X-90.004 Y23.449 Z-2.946
N4975 X-89.466 Y24.365 Z-2.976
N4980 X-88.883 Y25.454 Z-3.01
N4985 X-88.681 Y25.854 Z-3.022
N4990 X-88.172 Y26.922 Z-3.052
N4995 X-87.749 Y27.856 Z-3.078
N5000 X-87.229 Y29.119 Z-3.111
N5005 X-86.958 Y29.842 Z-3.129
N5010 X-86.472 Y31.17 Z-3.162
N5015 X-86.118 Y32.245 Z-3.187
N5020 X-85.826 Y33.199 Z-3.209
N5025 X-85.55 Y34.161 Z-3.231
N5030 X-85.289 Y35.139 Z-3.253
N5035 X-85.015 Y36.285 Z-3.277
N5040 X-84.81 Y37.234 Z-3.297
N5045 X-84.632 Y38.162 Z-3.316
N5050 X-84.482 Y39.067 Z-3.333
N5055 X-84.368 Y39.883 Z-3.349
N5060 X-84.279 Y40.701 Z-3.363
N5065 X-84.206 Y41.573 Z-3.378
N5070 X-84.149 Y42.42 Z-3.392
N5075 X-84.097 Y43.362 Z-3.406
N5080 X-84.068 Y43.84 Z-3.412
N5085 X-84.02 Y44.678 Z-3.424
N5090 X-83.989 Y45.003 Z-3.428
N5095 X-83.927 Y45.991 Z-3.439
N5100 X-83.865 Y46.572 Z-3.443
N5105 X-83.844 Y46.815 Z-3.442
N5110 X-83.812 Y46.963 Z-3.441
N5115 X-83.536 Y47.861 Z-3.437
N5120 X-83.446 Y48.192 Z-3.436
N5125 X-83.358 Y48.55
N5130 X-83.273 Y48.835 Z-3.438
N5135 X-83.241 Y49.033 Z-3.439
N5140 X-83.239 Y49.234 Z-3.44
N5145 X-83.265 Y49.434
N5150 X-83.32 Y49.627 Z-3.439
N5155 X-83.39 Y49.788 Z-3.436
N5160 X-83.484 Y49.943 Z-3.432
N5165 X-83.603 Y50.092 Z-3.426
N5170 X-83.867 Y50.362 Z-3.414
N5175 X-84.009 Y50.477 Z-3.407
N5180 X-84.869 Y51.097 Z-3.367
N5185 X-85.248 Y51.396 Z-3.348
N5190 X-85.401 Y51.535 Z-3.34
N5195 X-85.61 Y51.734 Z-3.329
N5200 X-85.939 Y52.035 Z-3.31
N5205 X-86.179 Y52.237 Z-3.297
N5210 X-86.398 Y52.43 Z-3.284
N5215 X-86.578 Y52.57 Z-3.274
N5220 X-86.855 Y52.796 Z-3.257
N5225 X-87.272 Y53.109 Z-3.232
N5230 X-87.744 Y53.447 Z-3.204
N5235 X-88.211 Y53.758 Z-3.175
N5240 X-88.503 Y53.935 Z-3.157
N5245 X-89.137 Y54.306 Z-3.117
N5250 X-89.797 Y54.657 Z-3.075
N5255 X-90.361 Y54.932 Z-3.04
N5260 X-90.979 Y55.207 Z-3.001
N5265 X-91.574 Y55.446 Z-2.963
N5270 X-92.222 Y55.676 Z-2.922
N5275 X-93.042 Y55.94 Z-2.871
N5280 X-93.866 Y56.181 Z-2.819
N5285 X-94.695 Y56.399 Z-2.767
N5290 X-95.509 Y56.589 Z-2.717
N5295 X-96.36 Y56.763 Z-2.666
N5300 X-97.196 Y56.91 Z-2.616
N5305 X-98.299 Y57.069 Z-2.551
N5310 X-98.976 Y57.158 Z-2.511
N5315 X-100.098 Y57.281 Z-2.446
N5320 X-101.163 Y57.376 Z-2.386
N5325 X-103.933 Y57.54 Z-2.233
N5330 X-106.318 Y57.594 Z-2.106
N5335 X-109.638 Y57.56 Z-1.938
N5340 X-113.038 Y57.408 Z-1.782
N5345 X-116.517 Y57.136 Z-1.634
N5350 X-118.796 Y56.885 Z-1.544
N5355 X-120.638 Y56.631 Z-1.474
N5360 X-121.823 Y56.441 Z-1.431
N5365 X-122.894 Y56.248 Z-1.393
N5370 X-123.986 Y56.028 Z-1.354
N5375 X-124.94 Y55.814 Z-1.322
N5380 X-125.887 Y55.579 Z-1.29
N5385 X-126.866 Y55.311 Z-1.258
N5390 X-127.612 Y55.085 Z-1.233
N5395 X-128.259 Y54.873 Z-1.213
N5400 X-129.415 Y54.453 Z-1.176
N5405 X-130.08 Y54.175 Z-1.155
N5410 X-130.757 Y53.883 Z-1.134
N5415 X-131.493 Y53.524 Z-1.112
N5420 X-132.24 Y53.135 Z-1.09
N5425 X-132.814 Y52.812 Z-1.074
N5430 X-133.474 Y52.413 Z-1.056
N5435 X-134.116 Y52.008 Z-1.04
N5440 X-134.382 Y51.82 Z-1.032
N5445 X-134.589 Y51.646 Z-1.025
N5450 X-134.755 Y51.481 Z-1.019
N5455 X-134.907 Y51.307 Z-1.014
N5460 X-135.141 Y51.013 Z-1.004
N5465 X-135.457 Y50.655 Z-0.992
N5470 X-135.606 Y50.46 Z-0.986
N5475 X-135.687 Y50.378 Z-0.983
N5480 X-135.783 Y50.309 Z-0.98
N5485 X-135.896 Y50.254 Z-0.977
N5490 X-136.03 Y50.219 Z-0.974
N5495 X-136.104 Y50.211 Z-0.973
N5500 X-136.195 Y50.212 Z-0.972
N5505 X-136.334 Y50.238 Z-0.971
N5510 X-136.428 Y50.272 Z-0.97
N5515 X-137.215 Y50.697 Z-0.969
N5520 X-137.534 Y50.887
N5525 X-137.825 Y51.04 Z-0.968
N5530 X-138.598 Y51.4 Z-0.967
N5535 X-138.822 Y51.476 Z-0.966
N5540 X-139.054 Y51.526 Z-0.965
N5545 X-139.182 Y51.567 Z-0.964
N5550 X-139.424 Y51.668
N5555 X-140.025 Y51.853 Z-0.962
N5560 X-141.461 Y52.233 Z-0.959
N5565 X-142.991 Y52.515 Z-0.956
N5570 X-144.39 Y52.657 Z-0.953
N5575 X-145.13 Y52.69 Z-0.951
N5580 X-146.003 Y52.697 Z-0.949
N5585 X-147.253 Y52.668 Z-0.948
N5590 X-148.115 Y52.676
N5595 X-149.176 Y52.702 Z-0.95
N5600 X-149.822 Y52.699 Z-0.951
N5605 X-150.312 Y52.683 Z-0.952
N5610 X-151.694 Y52.57 Z-0.955
N5615 X-153.118 Y52.344 Z-0.958
N5620 X-154.685 Y51.971 Z-0.962
N5625 X-155.638 Y51.685 Z-0.965
N5630 X-155.846 Y51.604
N5635 X-156.002 Y51.541 Z-0.966
N5640 X-156.131 Y51.506
N5645 X-156.387 Y51.464 Z-0.968
N5650 X-156.546 Y51.414
N5655 X-156.934 Y51.224 Z-0.969
N5660 X-157.348 Y51.013 Z-0.97
N5665 X-157.745 Y50.776
N5670 X-158.552 Y50.347 Z-0.971
N5675 X-158.676 Y50.297 Z-0.972
N5680 X-158.808 Y50.273 Z-0.973
N5685 X-158.907 Z-0.974
N5690 X-159.038 Y50.298 Z-0.977
N5695 X-159.133 Y50.334 Z-0.979
N5700 X-159.234 Y50.394 Z-0.982
N5705 X-159.334 Y50.484 Z-0.985
N5710 X-159.454 Y50.643 Z-0.99
N5715 X-159.548 Y50.754 Z-0.994
N5720 X-159.805 Y51.042 Z-1.004
N5725 X-159.982 Y51.269 Z-1.011
N5730 X-160.055 Y51.367 Z-1.014
N5735 X-160.09 Y51.405 Z-1.016
N5740 X-160.439 Y51.743 Z-1.028
N5745 X-160.622 Y51.9 Z-1.034
N5750 X-160.833 Y52.054 Z-1.04
N5755 X-161.017 Y52.173 Z-1.045
N5760 X-161.535 Y52.493 Z-1.058
N5765 X-162.244 Y52.916 Z-1.077
N5770 X-162.845 Y53.248 Z-1.094
N5775 X-163.639 Y53.658 Z-1.118
N5780 X-164.272 Y53.963 Z-1.137
N5785 X-165.225 Y54.371 Z-1.166
N5790 X-165.941 Y54.654 Z-1.188
N5795 X-166.857 Y54.985 Z-1.218
N5800 X-167.755 Y55.274 Z-1.247
N5805 X-168.528 Y55.498 Z-1.272
N5810 X-169.555 Y55.769 Z-1.306
N5815 X-170.566 Y56.012 Z-1.34
N5820 X-171.596 Y56.236 Z-1.376
N5825 X-172.669 Y56.444 Z-1.414
N5830 X-173.486 Y56.587 Z-1.444
N5835 X-176.27 Y56.998 Z-1.548
N5840 X-179.297 Y57.325 Z-1.669
N5845 X-182.424 Y57.559 Z-1.804
N5850 X-185.55 Y57.697 Z-1.95
N5855 X-188.82 Y57.731 Z-2.115
N5860 X-191.806 Y57.649 Z-2.275
N5865 X-193.159 Y57.571 Z-2.349
N5870 X-194.292 Y57.483 Z-2.413
N5875 X-195.38 Y57.38 Z-2.475
N5880 X-197.637 Y57.093 Z-2.607
N5885 X-198.526 Y56.945 Z-2.66
N5890 X-199.423 Y56.772 Z-2.714
N5895 X-200.311 Y56.575 Z-2.768
N5900 X-201.187 Y56.356 Z-2.823
N5905 X-202.058 Y56.112 Z-2.877
N5910 X-202.924 Y55.846 Z-2.931
N5915 X-203.583 Y55.622 Z-2.972
N5920 X-204.221 Y55.378 Z-3.012
N5925 X-204.874 Y55.102 Z-3.053
N5930 X-205.448 Y54.838 Z-3.089
N5935 X-206.093 Y54.519 Z-3.129
N5940 X-206.892 Y54.086 Z-3.178
N5945 X-207.28 Y53.855 Z-3.202
N5950 X-207.657 Y53.623 Z-3.225
N5955 X-208.247 Y53.233 Z-3.26
N5960 X-208.622 Y52.975 Z-3.281
N5965 X-208.861 Y52.796 Z-3.295
N5970 X-209.044 Y52.667 Z-3.305
N5975 X-209.414 Y52.381 Z-3.326
N5980 X-209.638 Y52.204 Z-3.338
N5985 X-209.771 Y52.091 Z-3.346
N5990 X-209.917 Y51.982 Z-3.354
N5995 X-210.183 Y51.763 Z-3.368
N6000 X-210.398 Y51.612 Z-3.379
N6005 X-210.843 Y51.349 Z-3.406
N6010 X-211.263 Y51.102 Z-3.435
N6015 X-211.457 Y50.967 Z-3.448
N6020 X-211.608 Y50.839 Z-3.458
N6025 X-211.772 Y50.673 Z-3.468
N6030 X-211.871 Y50.555 Z-3.474
N6035 X-211.969 Y50.421 Z-3.479
N6040 X-212.08 Y50.241 Z-3.485
N6045 X-212.171 Y50.058 Z-3.489
N6050 X-212.236 Y49.898 Z-3.491
N6055 X-212.305 Y49.674 Z-3.492
N6060 X-212.334 Y49.543
N6065 X-212.356 Y49.411 Z-3.491
N6070 X-212.377 Y49.169 Z-3.488
N6075 X-212.376 Y48.974 Z-3.484
N6080 X-212.359 Y48.786 Z-3.48
N6085 X-212.319 Y48.558 Z-3.472
N6090 X-212.258 Y48.34 Z-3.463
N6095 X-212.178 Y48.13 Z-3.452
N6100 X-212.08 Y47.933 Z-3.449
N6105 X-212.003 Y47.789 Z-3.447
N6110 X-211.895 Y47.543 Z-3.446
N6115 X-211.748 Y47.101 Z-3.447
N6120 X-211.7 Y46.906
N6125 X-211.631 Y46.448 Z-3.446
N6130 X-211.556 Y46.034 Z-3.442
N6135 X-211.494 Y45.541 Z-3.437
N6140 X-211.424 Y44.907 Z-3.429
N6145 X-211.382 Y44.58 Z-3.425
N6150 X-211.282 Y43.412 Z-3.409
N6155 X-211.218 Y42.514 Z-3.396
N6160 X-211.141 Y41.454 Z-3.379
N6165 X-211.056 Y40.519 Z-3.363
N6170 X-210.96 Y39.694 Z-3.349
N6175 X-210.818 Y38.764 Z-3.331
N6180 X-210.65 Y37.814 Z-3.313
N6185 X-210.46 Y36.882 Z-3.294
N6190 X-210.233 Y35.886 Z-3.273
N6195 X-209.956 Y34.777 Z-3.249
N6200 X-209.638 Y33.622 Z-3.223
N6205 X-209.303 Y32.496 Z-3.198
N6210 X-209.116 Y31.916 Z-3.185
N6215 X-208.518 Y30.15 Z-3.143
N6220 X-208.04 Y28.888 Z-3.111
N6225 X-207.539 Y27.66 Z-3.08
N6230 X-207.061 Y26.601 Z-3.051
N6235 X-206.61 Y25.65 Z-3.024
N6240 X-206.315 Y25.068 Z-3.007
N6245 X-205.832 Y24.168 Z-2.979
N6250 X-205.304 Y23.261 Z-2.95
N6255 X-204.86 Y22.543 Z-2.925
N6260 X-204.401 Y21.845 Z-2.9
N6265 X-203.95 Y21.2 Z-2.875
N6270 X-203.503 Y20.602 Z-2.85
N6275 X-203.02 Y19.997 Z-2.824
N6280 X-202.582 Y19.476 Z-2.8
N6285 X-202.109 Y18.949 Z-2.774
N6290 X-201.635 Y18.457 Z-2.748
N6295 X-201.169 Y18.003 Z-2.723
N6300 X-200.68 Y17.561 Z-2.696
N6305 X-200.172 Y17.135 Z-2.668
N6310 X-199.673 Y16.746 Z-2.64
N6315 X-199.148 Y16.366 Z-2.611
N6320 X-198.622 Y16.013 Z-2.581
N6325 X-198.068 Y15.669 Z-2.551
N6330 X-197.512 Y15.351 Z-2.52
N6335 X-196.925 Y15.043 Z-2.488
N6340 X-196.335 Y14.76 Z-2.456
N6345 X-195.735 Y14.5 Z-2.424
N6350 X-195.131 Y14.263 Z-2.391
N6355 X-194.429 Y14.016 Z-2.354
N6360 X-193.872 Y13.845 Z-2.324
N6365 X-193.102 Y13.639 Z-2.284
N6370 X-192.309 Y13.451 Z-2.243
N6375 X-191.508 Y13.285 Z-2.202
N6380 X-190.688 Y13.139 Z-2.16
N6385 X-190.018 Y13.04 Z-2.126
N6390 X-188.8 Y12.897 Z-2.066
N6395 X-187.841 Y12.817 Z-2.019
N6400 X-186.899 Y12.761 Z-1.973
N6405 X-185.963 Y12.728 Z-1.928
N6410 X-185.277 Y12.72 Z-1.896
N6415 X-184.294 Y12.734 Z-1.849
N6420 X-183.346 Y12.771 Z-1.805
N6425 X-182.417 Y12.829 Z-1.763
N6430 X-181.475 Y12.911 Z-1.72
N6435 X-180.716 Y12.995 Z-1.686
N6440 X-179.801 Y13.126 Z-1.645
N6445 X-178.997 Y13.26 Z-1.61
N6450 X-178.185 Y13.419 Z-1.575
N6455 X-177.368 Y13.601 Z-1.54
N6460 X-176.574 Y13.802 Z-1.506
N6465 X-176.004 Y13.962 Z-1.482
N6470 X-175.298 Y14.18 Z-1.453
N6475 X-174.449 Y14.466 Z-1.418
N6480 X-173.746 Y14.737 Z-1.389
N6485 X-173.104 Y14.994 Z-1.363
N6490 X-172.601 Y15.218 Z-1.343
N6495 X-171.952 Y15.524 Z-1.316
N6500 X-171.559 Y15.723 Z-1.299
N6505 X-171.258 Y15.885 Z-1.287
N6510 X-170.31 Y16.409 Z-1.252
N6515 X-169.847 Y16.692 Z-1.234
N6520 X-169.304 Y17.044 Z-1.213
N6525 X-168.858 Y17.348 Z-1.195
N6530 X-168.24 Y17.791 Z-1.17
N6535 X-167.653 Y18.255 Z-1.146
N6540 X-167.205 Y18.628 Z-1.127
N6545 X-166.83 Y18.953 Z-1.111
N6550 X-166.231 Y19.497 Z-1.09
N6555 X-165.792 Y19.917 Z-1.075
N6560 X-165.427 Y20.277 Z-1.062
N6565 X-165.068 Y20.662 Z-1.048
N6570 X-164.063 Y21.818 Z-1.01
N6575 X-163.692 Y22.281 Z-0.995
N6580 X-163.22 Y22.906 Z-0.976
N6585 X-162.777 Y23.522 Z-0.961
N6590 X-162.417 Y24.053 Z-0.949
N6595 X-162.15 Y24.473 Z-0.94
N6600 X-161.346 Y25.786 Z-0.914
N6605 X-160.919 Y26.551 Z-0.9
N6610 X-160.486 Y27.378 Z-0.887
N6615 X-160.11 Y28.115 Z-0.876
N6620 X-159.853 Y28.653 Z-0.869
N6625 X-159.446 Y29.535 Z-0.86
N6630 X-159.034 Y30.467 Z-0.85
N6635 X-158.355 Y32.129 Z-0.837
N6640 X-157.999 Y33.068 Z-0.832
N6645 X-157.668 Y33.982 Z-0.829
N6650 X-157.441 Y34.646 Z-0.827
N6655 X-157.078 Y35.791 Z-0.825
N6660 X-156.774 Y36.858
N6665 X-156.561 Y37.702
N6670 X-156.344 Y38.686
N6675 X-156.177 Y39.575 Z-0.827
N6680 X-156.047 Y40.403 Z-0.831
N6685 X-155.918 Y41.401 Z-0.837
N6690 X-155.891 Y41.65 Z-0.839
N6695 X-155.883 Y41.925 Z-0.841
N6700 X-155.903 Y42.432 Z-0.845
N6705 X-155.928 Y42.699 Z-0.847
N6710 X-155.981 Y42.977 Z-0.85
N6715 X-156.064 Y43.333 Z-0.854
N6720 X-156.238 Y44.273 Z-0.863
N6725 X-156.445 Y45.416 Z-0.876
N6730 X-156.484 Y45.577 Z-0.879
N6735 X-156.545 Y45.74 Z-0.882
N6740 X-156.673 Y46.027 Z-0.888
N6745 X-156.869 Y46.568 Z-0.898
N6750 X-156.953 Y46.802 Z-0.902
N6755 X-156.993 Y46.945 Z-0.904
N6760 X-157.008 Y47.046 Z-0.906
N6765 X-157.012 Y47.127 Z-0.907
N6770 X-157.009 Y47.217 Z-0.909
N6775 X-156.998 Y47.307 Z-0.91
N6780 X-156.976 Y47.409 Z-0.911
N6785 X-156.942 Y47.508 Z-0.912
N6790 X-156.885 Y47.629 Z-0.913
N6795 X-156.812 Y47.742 Z-0.914
N6800 X-156.701 Y47.867 Z-0.915
N6805 X-156.56 Y47.979
N6810 X-155.501 Y48.606 Z-0.912
N6815 X-155.235 Y48.783 Z-0.911
N6820 X-154.512 Y49.277 Z-0.912
N6825 X-154.103 Y49.529 Z-0.914
N6830 X-153.747 Y49.721 Z-0.916
N6835 X-153.46 Y49.86 Z-0.917
N6840 X-153.179 Y49.98 Z-0.919
N6845 X-152.293 Y50.279 Z-0.923
N6850 X-151.867 Y50.386 Z-0.926
N6855 X-151.536 Y50.449 Z-0.927
N6860 X-150.894 Y50.551 Z-0.928
N6865 X-150.372 Y50.6 Z-0.927
N6870 X-149.705 Y50.626
N6875 X-149.077 Y50.628
N6880 X-147.799 Y50.583
N6885 X-147.263 Y50.581
N6890 X-145.819 Y50.624
N6895 X-145.223 Y50.617
N6900 X-144.629 Y50.59
N6905 X-144.033 Y50.53 Z-0.928
N6910 X-143.336 Y50.413 Z-0.926
N6915 X-143.006 Y50.339 Z-0.925
N6920 X-142.072 Y50.054 Z-0.92
N6925 X-141.685 Y49.898 Z-0.918
N6930 X-141.39 Y49.761 Z-0.916
N6935 X-140.974 Y49.54 Z-0.914
N6940 X-140.614 Y49.32 Z-0.912
N6945 X-139.951 Y48.867 Z-0.911
N6950 X-139.616 Y48.629
N6955 X-138.685 Y48.061 Z-0.914
N6960 X-138.488 Y47.939
N6965 X-138.384 Y47.854
N6970 X-138.271 Y47.731 Z-0.913
N6975 X-138.176 Y47.582 Z-0.912
N6980 X-138.115 Y47.436 Z-0.91
N6985 X-138.077 Y47.279 Z-0.909
N6990 X-138.065 Y47.127 Z-0.906
N6995 X-138.076 Y46.974 Z-0.904
N7000 X-138.108 Y46.836 Z-0.902
N7005 X-138.293 Y46.339 Z-0.892
N7010 X-138.45 Y45.928 Z-0.885
N7015 X-138.544 Y45.727 Z-0.881
N7020 X-138.601 Y45.569 Z-0.878
N7025 X-138.628 Y45.453 Z-0.876
N7030 X-138.923 Y43.869 Z-0.858
N7035 X-139.053 Y43.23 Z-0.852
N7040 X-139.16 Y42.798 Z-0.847
N7045 X-139.196 Y42.6 Z-0.845
N7050 X-139.227 Y42.333 Z-0.843
N7055 X-139.238 Y42.024 Z-0.841
N7060 X-139.224 Y41.731 Z-0.838
N7065 X-139.143 Y41.049 Z-0.834
N7070 X-139.012 Y40.084 Z-0.829
N7075 X-138.877 Y39.279 Z-0.825
N7080 X-138.707 Y38.428
N7085 X-138.466 Y37.382
N7090 X-138.193 Y36.345
N7095 X-137.889 Y35.325
N7100 X-137.565 Y34.326 Z-0.827
N7105 X-137.146 Y33.15 Z-0.831
N7110 X-136.74 Y32.075 Z-0.837
N7115 X-136.069 Y30.425 Z-0.849
N7120 X-135.662 Y29.498 Z-0.859
N7125 X-135.173 Y28.436 Z-0.87
N7130 X-134.863 Y27.796 Z-0.879
N7135 X-134.264 Y26.632 Z-0.896
N7140 X-133.866 Y25.906 Z-0.909
N7145 X-133.26 Y24.873 Z-0.929
N7150 X-132.687 Y23.971 Z-0.948
N7155 X-132.365 Y23.493 Z-0.959
N7160 X-132.009 Y22.992 Z-0.971
N7165 X-131.69 Y22.56 Z-0.983
N7170 X-131.308 Y22.064 Z-0.999
N7175 X-130.958 Y21.631 Z-1.012
N7180 X-130.548 Y21.145 Z-1.028
N7185 X-130.091 Y20.629 Z-1.046
N7190 X-129.756 Y20.264 Z-1.058
N7195 X-129.539 Y20.043 Z-1.066
N7200 X-129.027 Y19.547 Z-1.084
N7205 X-128.45 Y19.014 Z-1.104
N7210 X-128.081 Y18.688 Z-1.118
N7215 X-127.602 Y18.282 Z-1.139
N7220 X-127.122 Y17.892 Z-1.159
N7225 X-126.836 Y17.669 Z-1.171
N7230 X-126.129 Y17.164 Z-1.199
N7235 X-125.682 Y16.862 Z-1.217
N7240 X-125.109 Y16.493 Z-1.239
N7245 X-124.753 Y16.278 Z-1.253
N7250 X-123.669 Y15.677 Z-1.293
N7255 X-123.233 Y15.45 Z-1.312
N7260 X-122.821 Y15.25 Z-1.33
N7265 X-122.082 Y14.91 Z-1.36
N7270 X-121.529 Y14.682 Z-1.382
N7275 X-120.647 Y14.337 Z-1.418
N7280 X-119.91 Y14.083 Z-1.448
N7285 X-119.23 Y13.863 Z-1.477
N7290 X-118.533 Y13.661 Z-1.506
N7295 X-117.902 Y13.494 Z-1.533
N7300 X-117.1 Y13.305 Z-1.567
N7305 X-116.274 Y13.132 Z-1.603
N7310 X-115.427 Y12.978 Z-1.64
N7315 X-114.454 Y12.829 Z-1.683
N7320 X-113.694 Y12.735 Z-1.717
N7325 X-112.903 Y12.655 Z-1.753
N7330 X-112.156 Y12.594 Z-1.787
N7335 X-110.882 Y12.528 Z-1.846
N7340 X-110.053 Y12.51 Z-1.885
N7345 X-109.294 Y12.506 Z-1.921
N7350 X-107.936 Y12.545 Z-1.986
N7355 X-106.926 Y12.608 Z-2.034
N7360 X-106.045 Y12.683 Z-2.078
N7365 X-105.032 Y12.802 Z-2.128
N7370 X-104.186 Y12.928 Z-2.17
N7375 X-103.35 Y13.078 Z-2.212
N7380 X-102.522 Y13.251 Z-2.254
N7385 X-101.703 Y13.448 Z-2.297
N7390 X-100.898 Y13.665 Z-2.339
N7395 X-100.448 Y13.808 Z-2.362
N7400 X-99.478 Y14.152 Z-2.413
N7405 X-98.881 Y14.39 Z-2.445
N7410 X-98.301 Y14.648 Z-2.476
N7415 X-97.804 Y14.89 Z-2.503
N7420 X-97.208 Y15.211 Z-2.535
N7425 X-96.641 Y15.543 Z-2.565
N7430 X-96.077 Y15.9 Z-2.596
N7435 X-95.532 Y16.272 Z-2.626
N7440 X-94.992 Y16.668 Z-2.655
N7445 X-94.476 Y17.076 Z-2.683
N7450 X-93.958 Y17.515 Z-2.711
N7455 X-93.51 Y17.922 Z-2.735
N7460 X-92.997 Y18.425 Z-2.763
N7465 X-92.487 Y18.958 Z-2.79
N7470 X-92.081 Y19.412 Z-2.812
N7475 X-91.483 Y20.129 Z-2.844
N7480 X-91.028 Y20.711 Z-2.868
N7485 X-90.597 Y21.297 Z-2.891
N7490 X-90.13 Y21.975 Z-2.916
N7495 X-89.669 Y22.685 Z-2.941
N7500 X-89.253 Y23.37 Z-2.963
N7505 X-88.838 Y24.082 Z-2.986
N7510 X-88.287 Y25.11 Z-3.017
N7515 X-88.063 Y25.565 Z-3.03
N7520 X-87.497 Y26.74 Z-3.063
N7525 X-87.122 Y27.581 Z-3.086
N7530 X-86.264 Y29.728 Z-3.14
N7535 X-85.59 Y31.637 Z-3.185
N7540 X-85.218 Y32.803 Z-3.211
N7545 X-84.881 Y33.935 Z-3.237
N7550 X-84.556 Y35.105 Z-3.262
N7555 X-84.283 Y36.166 Z-3.285
N7560 X-84.041 Y37.201 Z-3.307
N7565 X-83.838 Y38.176 Z-3.326
N7570 X-83.673 Y39.086 Z-3.343
N7575 X-83.552 Y39.858 Z-3.358
N7580 X-83.445 Y40.713 Z-3.372
N7585 X-83.323 Y41.933 Z-3.392
N7590 X-83.139 Y43.754 Z-3.419
N7595 X-83.049 Y44.396 Z-3.428
N7600 X-82.937 Y45.024 Z-3.436
N7605 X-82.787 Y45.777 Z-3.445
N7610 X-82.644 Y46.37 Z-3.452
N7615 X-82.516 Y46.845 Z-3.456
N7620 X-82.476 Y46.988 Z-3.462
N7625 X-82.41 Y47.177 Z-3.471
N7630 X-82.337 Y47.349 Z-3.48
N7635 X-82.197 Y47.636 Z-3.496
N7640 X-82.071 Y47.865 Z-3.511
N7645 X-81.93 Y48.096 Z-3.527
N7650 X-81.689 Y48.463 Z-3.554
N7655 X-81.48 Y48.806 Z-3.577
N7660 X-81.309 Y49.109 Z-3.597
N7665 X-81.108 Y49.503 Z-3.622
N7670 X-81.057 Y49.622 Z-3.628
N7675 X-81.009 Y49.783 Z-3.635
N7680 X-80.982 Y49.949 Z-3.641
N7685 X-80.976 Y50.117 Z-3.645
N7690 X-80.988 Y50.266 Z-3.647
N7695 X-81.031 Y50.463
N7700 X-81.076 Y50.589 Z-3.646
N7705 X-81.133 Y50.71 Z-3.643
N7710 X-81.197 Y50.818 Z-3.64
N7715 X-81.286 Y50.937 Z-3.635
N7720 X-81.387 Y51.045 Z-3.629
N7725 X-81.521 Y51.158 Z-3.62
N7730 X-81.707 Y51.278 Z-3.608
N7735 X-81.967 Y51.424 Z-3.589
N7740 X-82.18 Y51.528 Z-3.574
N7745 X-82.515 Y51.679 Z-3.549
N7750 X-82.836 Y51.81 Z-3.526
N7755 X-83.169 Y51.932 Z-3.501
N7760 X-83.396 Y52.019 Z-3.484
N7765 X-83.652 Y52.14 Z-3.466
N7770 X-83.821 Y52.234 Z-3.454
N7775 X-84.011 Y52.354 Z-3.441
N7780 X-84.396 Y52.621 Z-3.416
N7785 X-84.658 Y52.801 Z-3.399
N7790 X-85.297 Y53.224 Z-3.358
N7795 X-85.889 Y53.592 Z-3.319
N7800 X-86.443 Y53.917 Z-3.284
N7805 X-87.174 Y54.32 Z-3.239
N7810 X-87.784 Y54.634 Z-3.201
N7815 X-88.617 Y55.028 Z-3.149
N7820 X-89.39 Y55.364 Z-3.101
N7825 X-90.095 Y55.646 Z-3.058
N7830 X-90.851 Y55.923 Z-3.01
N7835 X-91.545 Y56.152 Z-2.967
N7840 X-92.45 Y56.42 Z-2.911
N7845 X-93.399 Y56.675 Z-2.852
N7850 X-94.356 Y56.908 Z-2.793
N7855 X-95.297 Y57.113 Z-2.735
N7860 X-96.23 Y57.293 Z-2.679
N7865 X-97.173 Y57.451 Z-2.624
N7870 X-97.829 Y57.54 Z-2.585
N7875 X-99.652 Y57.776 Z-2.48
N7880 X-100.562 Y57.868 Z-2.428
N7885 X-101.239 Y57.929 Z-2.39
N7890 X-103.921 Y58.101 Z-2.243
N7895 X-106.322 Y58.172 Z-2.117
N7900 X-109.622 Y58.157 Z-1.952
N7905 X-112.605 Y58.042 Z-1.814
N7910 X-115.748 Y57.82 Z-1.678
N7915 X-118.874 Y57.488 Z-1.553
N7920 X-120.646 Y57.239 Z-1.486
N7925 X-121.41 Y57.118 Z-1.458
N7930 X-122.517 Y56.925 Z-1.418
N7935 X-123.764 Y56.678 Z-1.374
N7940 X-124.789 Y56.448 Z-1.339
N7945 X-125.794 Y56.2 Z-1.305
N7950 X-126.815 Y55.924 Z-1.272
N7955 X-127.386 Y55.755 Z-1.253
N7960 X-128.361 Y55.442 Z-1.223
N7965 X-129.577 Y55.002 Z-1.185
N7970 X-130.168 Y54.754 Z-1.167
N7975 X-131.453 Y54.209 Z-1.13
N7980 X-131.987 Y53.958 Z-1.113
N7985 X-132.478 Y53.713 Z-1.1
N7990 X-134.461 Y52.712 Z-1.049
N7995 X-134.904 Y52.478 Z-1.038
N8000 X-135.065 Y52.376 Z-1.033
N8005 X-135.21 Y52.264 Z-1.029
N8010 X-135.362 Y52.123 Z-1.024
N8015 X-135.462 Y52.013 Z-1.02
N8020 X-135.545 Y51.911 Z-1.017
N8025 X-135.587 Y51.861 Z-1.015
N8030 X-135.721 Y51.733 Z-1.01
N8035 X-135.85 Y51.637 Z-1.006
N8040 X-135.967 Y51.573 Z-1.003
N8045 X-136.091 Y51.524 Z-1.001
N8050 X-136.233 Y51.488 Z-0.998
N8055 X-136.316 Y51.477 Z-0.996
N8060 X-136.475 Y51.473 Z-0.994
N8065 X-136.654 Y51.497 Z-0.992
N8070 X-136.796 Y51.539 Z-0.991
N8075 X-136.921 Y51.595
N8080 X-137.178 Y51.729 Z-0.99
N8085 X-137.993 Y52.065 Z-0.987
N8090 X-138.282 Y52.183
N8095 X-138.409 Y52.229 Z-0.986
N8100 X-138.538 Y52.262 Z-0.985
N8105 X-138.808 Y52.304 Z-0.983
N8110 X-138.927 Y52.337
N8115 X-139.09 Y52.398 Z-0.982
N8120 X-141.072 Y52.853 Z-0.974
N8125 X-142.808 Y53.142 Z-0.969
N8130 X-143.726 Y53.242 Z-0.967
N8135 X-144.61 Y53.301 Z-0.965
N8140 X-145.366 Y53.322 Z-0.963
N8145 X-146.015 Y53.326 Z-0.962
N8150 X-146.991 Y53.303 Z-0.961
N8155 X-148.007 Y53.304
N8160 X-149.024 Y53.331 Z-0.962
N8165 X-149.836 Y53.328 Z-0.964
N8170 X-150.39 Y53.311 Z-0.965
N8175 X-151.257 Y53.256 Z-0.967
N8180 X-152.323 Y53.127 Z-0.969
N8185 X-152.916 Y53.055 Z-0.971
N8190 X-154.742 Y52.709 Z-0.978
N8195 X-156.02 Y52.407 Z-0.984
N8200 X-156.335 Y52.337 Z-0.986
N8205 X-156.594 Y52.266 Z-0.987
N8210 X-156.873 Y52.167 Z-0.988
N8215 X-157.772 Y51.809 Z-0.991
N8220 X-157.923 Y51.74 Z-0.992
N8225 X-158.221 Y51.588
N8230 X-158.348 Y51.544 Z-0.993
N8235 X-158.479 Y51.518 Z-0.994
N8240 X-158.63 Y51.511 Z-0.996
N8245 X-158.763 Y51.524 Z-0.999
N8250 X-158.844 Y51.542 Z-1
N8255 X-158.974 Y51.587 Z-1.003
N8260 X-159.096 Y51.65 Z-1.006
N8265 X-159.189 Y51.715 Z-1.009
N8270 X-159.279 Y51.796 Z-1.012
N8275 X-159.348 Y51.875 Z-1.014
N8280 X-159.418 Y51.969 Z-1.017
N8285 X-159.581 Y52.118 Z-1.023
N8290 X-159.809 Y52.319 Z-1.03
N8295 X-160.023 Y52.481 Z-1.037
N8300 X-160.234 Y52.615 Z-1.043
N8305 X-160.365 Y52.688 Z-1.046
N8310 X-162.841 Y53.936 Z-1.11
N8315 X-163.296 Y54.154 Z-1.124
N8320 X-163.603 Y54.294 Z-1.133
N8325 X-165.337 Y55.033 Z-1.184
N8330 X-166.477 Y55.452 Z-1.219
N8335 X-167.011 Y55.631 Z-1.236
N8340 X-167.901 Y55.915 Z-1.265
N8345 X-168.698 Y56.14 Z-1.29
N8350 X-169.708 Y56.404 Z-1.324
N8355 X-170.752 Y56.654 Z-1.36
N8360 X-171.494 Y56.815 Z-1.386
N8365 X-172.681 Y57.049 Z-1.428
N8370 X-173.912 Y57.264 Z-1.472
N8375 X-174.486 Y57.351 Z-1.493
N8380 X-177.155 Y57.714 Z-1.596
N8385 X-180.292 Y58.019 Z-1.725
N8390 X-183.609 Y58.224 Z-1.872
N8395 X-186.583 Y58.307 Z-2.014
N8400 X-189.728 Y58.285 Z-2.175
N8405 X-192.316 Y58.174 Z-2.314
N8410 X-194.32 Y58.022 Z-2.425
N8415 X-195.292 Y57.926 Z-2.48
N8420 X-197.108 Y57.711 Z-2.584
N8425 X-198.402 Y57.513 Z-2.66
N8430 X-199.484 Y57.323 Z-2.725
N8435 X-200.577 Y57.106 Z-2.792
N8440 X-201.354 Y56.934 Z-2.84
N8445 X-202.381 Y56.67 Z-2.903
N8450 X-203.484 Y56.36 Z-2.972
N8455 X-204.266 Y56.117 Z-3.021
N8460 X-205.066 Y55.843 Z-3.071
N8465 X-205.872 Y55.54 Z-3.122
N8470 X-206.695 Y55.205 Z-3.174
N8475 X-207.402 Y54.891 Z-3.22
N8480 X-207.863 Y54.681 Z-3.25
N8485 X-208.448 Y54.394 Z-3.288
N8490 X-209.066 Y54.073 Z-3.329
N8495 X-209.694 Y53.729 Z-3.37
N8500 X-210.366 Y53.34 Z-3.415
N8505 X-210.893 Y53.02 Z-3.45
N8510 X-211.429 Y52.688 Z-3.485
N8515 X-211.626 Y52.586 Z-3.499
N8520 X-211.777 Y52.524 Z-3.51
N8525 X-212.082 Y52.428 Z-3.533
N8530 X-212.649 Y52.245 Z-3.575
N8535 X-213.691 Y51.885 Z-3.654
N8540 X-213.861 Y51.817 Z-3.667
N8545 X-214.103 Y51.706 Z-3.685
N8550 X-214.251 Y51.622 Z-3.697
N8555 X-214.429 Y51.541 Z-3.711
N8560 X-214.559 Y51.466 Z-3.72
N8565 X-214.655 Y51.396 Z-3.727
N8570 X-214.759 Y51.299 Z-3.734
N8575 X-214.848 Y51.193 Z-3.74
N8580 X-214.919 Y51.084 Z-3.744
N8585 X-214.991 Y50.938 Z-3.747
N8590 X-215.027 Y50.835 Z-3.748
N8595 X-215.064 Y50.662
N8600 X-215.075 Y50.528 Z-3.746
N8605 X-215.073 Y50.446 Z-3.744
N8610 X-215.046 Y49.917 Z-3.731
N8615 X-215.032 Y49.829 Z-3.728
N8620 X-215 Y49.743 Z-3.723
N8625 X-214.948 Y49.662 Z-3.717
N8630 X-214.879 Y49.594 Z-3.709
N8635 X-214.778 Y49.527 Z-3.699
N8640 X-214.708 Y49.464 Z-3.691
N8645 X-214.667 Y49.414 Z-3.687
N8650 X-214.392 Y49.018 Z-3.655
N8655 X-214.295 Y48.857 Z-3.644
N8660 X-214.122 Y48.536 Z-3.623
N8665 X-213.992 Y48.319 Z-3.608
N8670 X-213.891 Y48.179 Z-3.598
N8675 X-213.765 Y48.02 Z-3.584
N8680 X-213.596 Y47.838 Z-3.567
N8685 X-213.505 Y47.739 Z-3.557
N8690 X-213.411 Y47.612 Z-3.547
N8695 X-213.323 Y47.456 Z-3.537
N8700 X-213.013 Y46.814 Z-3.501
N8705 X-212.907 Y46.557 Z-3.487
N8710 X-212.815 Y46.285 Z-3.475
N8715 X-212.687 Y45.836 Z-3.458
N8720 X-212.613 Y45.553 Z-3.45
N8725 X-212.474 Y44.967 Z-3.442
N8730 X-212.337 Y44.275 Z-3.432
N8735 X-212.224 Y43.578 Z-3.422
N8740 X-212.122 Y42.787 Z-3.41
N8745 X-211.951 Y41.027 Z-3.383
N8750 X-211.856 Y40.231 Z-3.37
N8755 X-211.747 Y39.465 Z-3.357
N8760 X-211.595 Y38.575 Z-3.34
N8765 X-211.333 Y37.304 Z-3.315
N8770 X-211.162 Y36.571 Z-3.3
N8775 X-210.794 Y35.116 Z-3.269
N8780 X-210.508 Y34.082 Z-3.247
N8785 X-210.114 Y32.754 Z-3.217
N8790 X-209.725 Y31.534 Z-3.19
N8795 X-209.299 Y30.311 Z-3.161
N8800 X-209.04 Y29.578 Z-3.144
N8805 X-208.181 Y27.41 Z-3.09
N8810 X-207.816 Y26.615 Z-3.069
N8815 X-207.171 Y25.222 Z-3.032
N8820 X-206.758 Y24.427 Z-3.009
N8825 X-206.386 Y23.763 Z-2.988
N8830 X-205.956 Y23.006 Z-2.965
N8835 X-205.547 Y22.34 Z-2.943
N8840 X-205.103 Y21.661 Z-2.92
N8845 X-204.642 Y20.999 Z-2.895
N8850 X-204.196 Y20.397 Z-2.872
N8855 X-203.727 Y19.803 Z-2.848
N8860 X-203.14 Y19.107 Z-2.817
N8865 X-202.719 Y18.645 Z-2.795
N8870 X-202.192 Y18.102 Z-2.768
N8875 X-201.686 Y17.61 Z-2.742
N8880 X-201.251 Y17.22 Z-2.719
N8885 X-200.704 Y16.763 Z-2.69
N8890 X-200.152 Y16.332 Z-2.661
N8895 X-199.601 Y15.931 Z-2.632
N8900 X-198.946 Y15.486 Z-2.597
N8905 X-198.478 Y15.193 Z-2.572
N8910 X-197.879 Y14.853 Z-2.541
N8915 X-197.205 Y14.499 Z-2.505
N8920 X-196.747 Y14.281 Z-2.482
N8925 X-196.207 Y14.041 Z-2.453
N8930 X-195.715 Y13.843 Z-2.428
N8935 X-195.006 Y13.581 Z-2.391
N8940 X-194.342 Y13.353 Z-2.357
N8945 X-193.675 Y13.163 Z-2.323
N8950 X-192.866 Y12.954 Z-2.282
N8955 X-192.049 Y12.767 Z-2.241
N8960 X-191.203 Y12.598 Z-2.198
N8965 X-190.454 Y12.469 Z-2.161
N8970 X-189.434 Y12.331 Z-2.111
N8975 X-188.56 Y12.24 Z-2.068
N8980 X-188.135 Y12.202 Z-2.048
N8985 X-186.706 Y12.118 Z-1.979
N8990 X-186.042 Y12.102 Z-1.948
N8995 X-185.451 Y12.093 Z-1.92
N9000 X-184.633 Y12.105 Z-1.882
N9005 X-183.975 Y12.125 Z-1.851
N9010 X-183.251 Y12.161 Z-1.817
N9015 X-182.528 Y12.211 Z-1.784
N9020 X-181.893 Y12.266 Z-1.754
N9025 X-181.175 Y12.342 Z-1.722
N9030 X-180.606 Y12.412 Z-1.697
N9035 X-179.919 Y12.516 Z-1.667
N9040 X-179.254 Y12.628 Z-1.638
N9045 X-178.614 Y12.749 Z-1.61
N9050 X-177.789 Y12.925 Z-1.575
N9055 X-177.072 Y13.096 Z-1.544
N9060 X-176.433 Y13.263 Z-1.515
N9065 X-175.883 Y13.418 Z-1.492
N9070 X-175.208 Y13.629 Z-1.465
N9075 X-174.351 Y13.92 Z-1.431
N9080 X-173.616 Y14.198 Z-1.402
N9085 X-172.986 Y14.45 Z-1.376
N9090 X-172.591 Y14.62 Z-1.359
N9095 X-171.882 Y14.946 Z-1.329
N9100 X-171.409 Y15.178 Z-1.308
N9105 X-170.986 Y15.399 Z-1.29
N9110 X-170.331 Y15.752 Z-1.266
N9115 X-169.845 Y16.032 Z-1.247
N9120 X-169.279 Y16.382 Z-1.226
N9125 X-168.808 Y16.684 Z-1.208
N9130 X-168.411 Y16.958 Z-1.192
N9135 X-167.861 Y17.344 Z-1.17
N9140 X-167.353 Y17.741 Z-1.149
N9145 X-166.866 Y18.136 Z-1.128
N9150 X-166.455 Y18.483 Z-1.111
N9155 X-165.821 Y19.043 Z-1.089
N9160 X-165.201 Y19.622 Z-1.067
N9165 X-164.856 Y19.964 Z-1.054
N9170 X-164.34 Y20.521 Z-1.035
N9175 X-163.813 Y21.121 Z-1.015
N9180 X-163.313 Y21.724 Z-0.996
N9185 X-162.895 Y22.256 Z-0.98
N9190 X-162.475 Y22.818 Z-0.964
N9195 X-162.017 Y23.467 Z-0.948
N9200 X-161.59 Y24.108 Z-0.934
N9205 X-161.136 Y24.827 Z-0.919
N9210 X-160.557 Y25.82 Z-0.9
N9215 X-160.158 Y26.548 Z-0.888
N9220 X-159.518 Y27.786 Z-0.871
N9225 X-159.194 Y28.481 Z-0.863
N9230 X-158.246 Y30.536 Z-0.843
N9235 X-157.145 Y33.224 Z-0.828
N9240 X-156.362 Y35.37 Z-0.825
N9245 X-156.012 Y36.463
N9250 X-155.713 Y37.494
N9255 X-155.492 Y38.339
N9260 X-155.25 Y39.39
N9265 X-155.058 Y40.345 Z-0.826
N9270 X-154.878 Y41.362 Z-0.83
N9275 X-154.804 Y41.756 Z-0.832
N9280 X-154.779 Y42.023 Z-0.833
N9285 Y42.291 Z-0.835
N9290 X-154.803 Y42.558 Z-0.837
N9295 X-154.852 Y42.822 Z-0.839
N9300 X-154.928 Y43.087 Z-0.842
N9305 X-155.058 Y43.519 Z-0.847
N9310 X-155.147 Y43.893 Z-0.851
N9315 X-155.281 Y44.521 Z-0.858
N9320 X-155.397 Y45.173 Z-0.865
N9325 X-155.472 Y45.66 Z-0.87
N9330 X-155.521 Y45.849 Z-0.873
N9335 X-155.603 Y46.059 Z-0.876
N9340 X-155.673 Y46.256 Z-0.88
N9345 X-155.709 Y46.419 Z-0.883
N9350 X-155.725 Y46.568 Z-0.885
N9355 X-155.722 Y46.739 Z-0.888
N9360 X-155.695 Y46.922 Z-0.89
N9365 X-155.646 Y47.096 Z-0.892
N9370 X-155.561 Y47.284 Z-0.894
N9375 X-155.453 Y47.453
N9380 X-155.321 Y47.605 Z-0.895
N9385 X-155.17 Y47.734
N9390 X-154.849 Y47.977
N9395 X-154.155 Y48.559 Z-0.899
N9400 X-153.808 Y48.82 Z-0.902
N9405 X-153.531 Y49.005 Z-0.905
N9410 X-153.273 Y49.156 Z-0.907
N9415 X-152.924 Y49.334 Z-0.91
N9420 X-152.62 Y49.465 Z-0.913
N9425 X-152.229 Y49.608 Z-0.916
N9430 X-151.774 Y49.74 Z-0.92
N9435 X-151.468 Y49.808 Z-0.922
N9440 X-150.879 Y49.914 Z-0.926
N9445 X-150.324 Y49.971 Z-0.927
N9450 X-149.761 Y49.996
N9455 X-148.862 Y49.991
N9460 X-147.789 Y49.963
N9465 X-146.716 Y49.969
N9470 X-146.14 Y49.986
N9475 X-145.232 Y49.988
N9480 X-144.677 Y49.962
N9485 X-144.124 Y49.902 Z-0.926
N9490 X-143.471 Y49.783 Z-0.921
N9495 X-143.166 Y49.707 Z-0.919
N9500 X-142.723 Y49.573 Z-0.915
N9505 X-142.337 Y49.426 Z-0.912
N9510 X-142.016 Y49.281 Z-0.909
N9515 X-141.743 Y49.138 Z-0.907
N9520 X-141.426 Y48.946 Z-0.904
N9525 X-141.124 Y48.735 Z-0.901
N9530 X-140.865 Y48.534 Z-0.899
N9535 X-140.133 Y47.911 Z-0.894
N9540 X-139.833 Y47.68
N9545 X-139.689 Y47.54
N9550 X-139.567 Y47.38 Z-0.893
N9555 X-139.469 Y47.204 Z-0.892
N9560 X-139.399 Y47.016 Z-0.891
N9565 X-139.367 Y46.885 Z-0.889
N9570 X-139.347 Y46.723 Z-0.887
N9575 X-139.343 Y46.626 Z-0.885
N9580 X-139.347 Y46.529 Z-0.884
N9585 X-139.358 Y46.433 Z-0.882
N9590 X-139.395 Y46.257 Z-0.879
N9595 X-139.435 Y46.135 Z-0.877
N9600 X-139.537 Y45.876 Z-0.872
N9605 X-139.595 Y45.661 Z-0.87
N9610 X-139.705 Y44.982 Z-0.862
N9615 X-139.832 Y44.338 Z-0.855
N9620 X-139.985 Y43.67 Z-0.848
N9625 X-140.096 Y43.284 Z-0.843
N9630 X-140.197 Y42.963 Z-0.84
N9635 X-140.257 Y42.702 Z-0.837
N9640 X-140.294 Y42.436 Z-0.835
N9645 X-140.308 Y42.135 Z-0.833
N9650 X-140.294 Y41.834 Z-0.832
N9655 X-140.257 Y41.568 Z-0.83
N9660 X-140.151 Y40.99 Z-0.828
N9665 X-139.972 Y40.003 Z-0.825
N9670 X-139.752 Y38.961
N9675 X-139.59 Y38.27
N9680 X-139.3 Y37.185
N9685 X-138.995 Y36.156
N9690 X-138.83 Y35.655
N9695 X-138.279 Y34.061 Z-0.826
N9700 X-137.457 Y31.948 Z-0.833
N9705 X-136.452 Y29.593 Z-0.85
N9710 X-135.652 Y27.883 Z-0.869
N9715 X-135.281 Y27.146 Z-0.878
N9720 X-134.848 Y26.313 Z-0.89
N9725 X-134.446 Y25.586 Z-0.902
N9730 X-133.909 Y24.666 Z-0.919
N9735 X-133.392 Y23.852 Z-0.937
N9740 X-132.944 Y23.187 Z-0.952
N9745 X-132.507 Y22.576 Z-0.967
N9750 X-132.121 Y22.065 Z-0.982
N9755 X-131.608 Y21.419 Z-1.001
N9760 X-131.087 Y20.801 Z-1.021
N9765 X-130.55 Y20.201 Z-1.042
N9770 X-130.153 Y19.78 Z-1.057
N9775 X-129.695 Y19.335 Z-1.073
N9780 X-129.064 Y18.755 Z-1.096
N9785 X-128.523 Y18.283 Z-1.115
N9790 X-128.048 Y17.887 Z-1.136
N9795 X-127.558 Y17.494 Z-1.156
N9800 X-127.175 Y17.2 Z-1.172
N9805 X-126.467 Y16.703 Z-1.2
N9810 X-126.061 Y16.434 Z-1.216
N9815 X-125.498 Y16.079 Z-1.238
N9820 X-125.019 Y15.793 Z-1.256
N9825 X-124.545 Y15.524 Z-1.274
N9830 X-124.035 Y15.249 Z-1.292
N9835 X-123.6 Y15.023 Z-1.312
N9840 X-123.147 Y14.802 Z-1.331
N9845 X-122.45 Y14.48 Z-1.361
N9850 X-122.039 Y14.303 Z-1.379
N9855 X-121.335 Y14.02 Z-1.408
N9860 X-120.84 Y13.83 Z-1.428
N9865 X-120.398 Y13.672 Z-1.446
N9870 X-119.46 Y13.359 Z-1.483
N9875 X-118.743 Y13.147 Z-1.512
N9880 X-118.081 Y12.968 Z-1.542
N9885 X-117.44 Y12.809 Z-1.571
N9890 X-116.566 Y12.613 Z-1.608
N9895 X-115.71 Y12.444 Z-1.645
N9900 X-114.796 Y12.289 Z-1.685
N9905 X-114.173 Y12.197 Z-1.712
N9910 X-113.403 Y12.106 Z-1.747
N9915 X-112.783 Y12.044 Z-1.775
N9920 X-112.072 Y11.986 Z-1.809
N9925 X-111.357 Y11.94 Z-1.842
N9930 X-110.63 Y11.908 Z-1.876
N9935 X-109.923 Y11.89 Z-1.909
N9940 X-109.394 Y11.884 Z-1.934
N9945 X-108.444 Y11.899 Z-1.978
N9950 X-107.828 Y11.924 Z-2.008
N9955 X-107.068 Y11.968 Z-2.044
N9960 X-106.502 Y12.012 Z-2.071
N9965 X-105.861 Y12.075 Z-2.104
N9970 X-105.226 Y12.152 Z-2.135
N9975 X-104.587 Y12.243 Z-2.166
N9980 X-103.953 Y12.346 Z-2.197
N9985 X-103.324 Y12.463 Z-2.229
N9990 X-102.693 Y12.594 Z-2.26
N9995 X-102.059 Y12.74 Z-2.292
N10000 X-101.424 Y12.9 Z-2.324
N10005 X-100.767 Y13.081 Z-2.357
N10010 X-100.37 Y13.207 Z-2.377
N10015 X-99.538 Y13.499 Z-2.42
N10020 X-98.884 Y13.751 Z-2.453
N10025 X-98.365 Y13.973 Z-2.48
N10030 X-97.81 Y14.228 Z-2.508
N10035 X-97.129 Y14.576 Z-2.543
N10040 X-96.494 Y14.927 Z-2.576
N10045 X-95.995 Y15.225 Z-2.602
N10050 X-95.217 Y15.752 Z-2.642
N10055 X-94.626 Y16.18 Z-2.673
N10060 X-94.054 Y16.624 Z-2.703
N10065 X-93.484 Y17.096 Z-2.732
N10070 X-93.106 Y17.431 Z-2.751
N10075 X-92.568 Y17.948 Z-2.779
N10080 X-92.064 Y18.464 Z-2.804
N10085 X-91.559 Y19.014 Z-2.83
N10090 X-91.081 Y19.57 Z-2.854
N10095 X-90.632 Y20.125 Z-2.877
N10100 X-90.185 Y20.716 Z-2.9
N10105 X-89.706 Y21.39 Z-2.925
N10110 X-89.259 Y22.059 Z-2.948
N10115 X-88.847 Y22.712 Z-2.969
N10120 X-88.534 Y23.251 Z-2.986
N10125 X-87.994 Y24.2 Z-3.014
N10130 X-87.607 Y24.931 Z-3.035
N10135 X-86.873 Y26.458 Z-3.077
N10140 X-86.497 Y27.304 Z-3.099
N10145 X-85.624 Y29.487 Z-3.152
N10150 X-84.892 Y31.553 Z-3.2
N10155 X-84.224 Y33.659 Z-3.247
N10160 X-83.463 Y36.386 Z-3.307
N10165 X-83.23 Y37.335 Z-3.326
N10170 X-83.034 Y38.208 Z-3.344
N10175 X-82.879 Y38.995 Z-3.359
N10180 X-82.737 Y39.822 Z-3.374
N10185 X-82.611 Y40.704 Z-3.389
N10190 X-82.49 Y41.769 Z-3.406
N10195 X-82.374 Y42.724 Z-3.421
N10200 X-82.258 Y43.45 Z-3.433
N10205 X-82.201 Y43.746 Z-3.44
N10210 X-82.134 Y44.06 Z-3.449
N10215 X-82.019 Y44.515 Z-3.465
N10220 X-81.941 Y44.805 Z-3.475
N10225 X-81.788 Y45.295 Z-3.495
N10230 X-81.665 Y45.655 Z-3.51
N10235 X-81.576 Y45.901 Z-3.521
N10240 X-81.457 Y46.2 Z-3.536
N10245 X-81.367 Y46.387 Z-3.546
N10250 X-81.289 Y46.52 Z-3.555
N10255 X-81.187 Y46.668 Z-3.566
N10260 X-81.009 Y46.889 Z-3.585
N10265 X-80.91 Y47.007 Z-3.595
N10270 X-80.788 Y47.13 Z-3.607
N10275 X-80.674 Y47.25 Z-3.619
N10280 X-80.477 Y47.488 Z-3.639
N10285 X-80.37 Y47.641 Z-3.651
N10290 X-80.231 Y47.861 Z-3.667
N10295 X-80.11 Y48.027 Z-3.68
N10300 X-80.002 Y48.15 Z-3.692
N10305 X-79.867 Y48.27 Z-3.706
N10310 X-79.751 Y48.352 Z-3.718
N10315 X-79.603 Y48.435 Z-3.733
N10320 X-79.435 Y48.503 Z-3.749
N10325 X-79.262 Y48.561 Z-3.766
N10330 X-79.128 Y48.631 Z-3.779
N10335 X-79.015 Y48.714 Z-3.791
N10340 X-78.92 Y48.807 Z-3.801
N10345 X-78.846 Y48.903 Z-3.81
N10350 X-78.777 Y49.023 Z-3.818
N10355 X-78.738 Y49.116 Z-3.823
N10360 X-78.702 Y49.241 Z-3.829
N10365 X-78.685 Y49.362 Z-3.833
N10370 X-78.679 Y49.561 Z-3.837
N10375 X-78.641 Y51.626 Z-3.883
N10380 X-78.646 Y51.752 Z-3.886
N10385 X-78.661 Y51.851 Z-3.887
N10390 X-78.708 Y52.011 Z-3.886
N10395 X-78.763 Y52.133 Z-3.884
N10400 X-78.827 Y52.236 Z-3.881
N10405 X-78.911 Y52.341 Z-3.876
N10410 X-79.024 Y52.447 Z-3.868
N10415 X-79.148 Y52.532 Z-3.859
N10420 X-79.285 Y52.6 Z-3.849
N10425 X-79.433 Y52.647 Z-3.837
N10430 X-79.564 Y52.669 Z-3.826
N10435 X-79.835 Y52.701 Z-3.802
N10440 X-80.079 Y52.74 Z-3.782
N10445 X-80.327 Y52.792 Z-3.761
N10450 X-80.578 Y52.856 Z-3.741
N10455 X-80.834 Y52.934 Z-3.72
N10460 X-81.094 Y53.027 Z-3.699
N10465 X-81.347 Y53.132 Z-3.68
N10470 X-81.576 Y53.226 Z-3.662
N10475 X-81.813 Y53.309 Z-3.644
N10480 X-82.069 Y53.385 Z-3.625
N10485 X-82.318 Y53.445 Z-3.606
N10490 X-82.547 Y53.488 Z-3.588
N10495 X-82.817 Y53.528 Z-3.567
N10500 X-82.994 Y53.569 Z-3.554
N10505 X-83.213 Y53.637 Z-3.538
N10510 X-83.378 Y53.703 Z-3.526
N10515 X-83.608 Y53.814 Z-3.51
N10520 X-83.883 Y53.952 Z-3.491
N10525 X-84.023 Y54.022 Z-3.482
N10530 X-84.975 Y54.481 Z-3.417
N10535 X-85.334 Y54.646 Z-3.393
N10540 X-86.034 Y54.955 Z-3.345
N10545 X-86.253 Y55.046 Z-3.33
N10550 X-87.147 Y55.413 Z-3.27
N10555 X-88.065 Y55.758 Z-3.207
N10560 X-88.754 Y56.001 Z-3.162
N10565 X-89.441 Y56.23 Z-3.117
N10570 X-90.137 Y56.448 Z-3.072
N10575 X-90.842 Y56.654 Z-3.027
N10580 X-91.533 Y56.842 Z-2.983
N10585 X-92.477 Y57.083 Z-2.923
N10590 X-93.159 Y57.245 Z-2.88
N10595 X-94.892 Y57.608 Z-2.773
N10600 X-95.69 Y57.755 Z-2.725
N10605 X-96.625 Y57.911 Z-2.669
N10610 X-97.298 Y58.015 Z-2.63
N10615 X-99.973 Y58.354 Z-2.476
N10620 X-101.625 Y58.497 Z-2.382
N10625 X-102.722 Y58.592 Z-2.324
N10630 X-105.253 Y58.72 Z-2.19
N10635 X-108.206 Y58.764 Z-2.038
N10640 X-108.519 Y58.767 Z-2.023
N10645 X-111.583 Y58.699 Z-1.879
N10650 X-114.714 Y58.517 Z-1.739
N10655 X-115.098 Y58.482 Z-1.723
N10660 X-117.727 Y58.237 Z-1.617
N10665 X-120.068 Y57.938 Z-1.524
N10670 X-121.036 Y57.789 Z-1.488
N10675 X-122.011 Y57.624 Z-1.453
N10680 X-122.705 Y57.495 Z-1.429
N10685 X-123.776 Y57.28 Z-1.391
N10690 X-124.581 Y57.1 Z-1.364
N10695 X-125.356 Y56.912 Z-1.337
N10700 X-126.125 Y56.713 Z-1.311
N10705 X-126.848 Y56.513 Z-1.286
N10710 X-127.302 Y56.381 Z-1.272
N10715 X-127.688 Y56.255 Z-1.26
N10720 X-129.263 Y55.727 Z-1.212
N10725 X-131.335 Y54.905 Z-1.15
N10730 X-132.149 Y54.552 Z-1.125
N10735 X-132.985 Y54.181 Z-1.102
N10740 X-133.952 Y53.758 Z-1.079
N10745 X-134.45 Y53.551 Z-1.067
N10750 X-134.706 Y53.442 Z-1.061
N10755 X-135.177 Y53.254 Z-1.05
N10760 X-135.387 Y53.151 Z-1.045
N10765 X-135.557 Y53.052 Z-1.041
N10770 X-135.834 Y52.865 Z-1.033
N10775 X-135.95 Y52.781 Z-1.029
N10780 X-136.065 Y52.713 Z-1.026
N10785 X-136.191 Y52.658 Z-1.024
N10790 X-136.341 Y52.615 Z-1.021
N10795 X-136.496 Y52.593 Z-1.018
N10800 X-136.643 Z-1.016
N10805 X-136.813 Y52.617 Z-1.014
N10810 X-136.916 Y52.646
N10815 X-137.986 Y52.997 Z-1.008
N10820 X-138.115 Y53.035
N10825 X-138.246 Y53.064 Z-1.007
N10830 X-138.478 Y53.095 Z-1.005
N10835 X-138.703 Y53.116 Z-1.003
N10840 X-138.882 Y53.161 Z-1.002
N10845 X-139.109 Y53.208 Z-1.001
N10850 X-139.587 Y53.295 Z-0.998
N10855 X-142.019 Y53.694 Z-0.986
N10860 X-143.59 Y53.867 Z-0.981
N10865 X-144.313 Y53.915 Z-0.979
N10870 X-145.037 Y53.946 Z-0.978
N10875 X-145.801 Y53.956 Z-0.976
N10880 X-148.123 Y53.938 Z-0.974
N10885 X-149.039 Y53.96 Z-0.976
N10890 X-150.027 Y53.953 Z-0.978
N10895 X-150.868 Y53.916 Z-0.98
N10900 X-151.44 Y53.878 Z-0.982
N10905 X-153.284 Y53.672 Z-0.988
N10910 X-155.422 Y53.326 Z-0.998
N10915 X-156.279 Y53.179 Z-1.004
N10920 X-156.709 Y53.109 Z-1.008
N10925 X-156.97 Y53.049 Z-1.009
N10930 X-157.459 Y52.903 Z-1.012
N10935 X-157.917 Y52.763 Z-1.014
N10940 X-158.082 Y52.731 Z-1.016
N10945 X-158.282 Y52.714 Z-1.018
N10950 X-158.447 Y52.718 Z-1.02
N10955 X-158.627 Y52.741 Z-1.023
N10960 X-158.778 Y52.776 Z-1.026
N10965 X-158.912 Y52.82 Z-1.028
N10970 X-159.09 Y52.898 Z-1.033
N10975 X-159.253 Y52.993 Z-1.037
N10980 X-159.465 Y53.131 Z-1.043
N10985 X-159.669 Y53.243 Z-1.048
N10990 X-159.914 Y53.352 Z-1.054
N10995 X-160.351 Y53.524 Z-1.063
N11000 X-160.945 Y53.773 Z-1.077
N11005 X-161.28 Y53.917 Z-1.085
N11010 X-162.49 Y54.445 Z-1.115
N11015 X-163.964 Y55.089 Z-1.161
N11020 X-165.719 Y55.782 Z-1.213
N11025 X-167.551 Y56.404 Z-1.269
N11030 X-167.995 Y56.537 Z-1.283
N11035 X-168.723 Y56.743 Z-1.308
N11040 X-169.77 Y57.018 Z-1.344
N11045 X-170.575 Y57.213 Z-1.371
N11050 X-171.26 Y57.368 Z-1.395
N11055 X-172.479 Y57.615 Z-1.438
N11060 X-173.242 Y57.754 Z-1.465
N11065 X-174.081 Y57.897 Z-1.495
N11070 X-174.559 Y57.966 Z-1.512
N11075 X-177.084 Y58.316 Z-1.613
N11080 X-179.62 Y58.573 Z-1.715
N11085 X-181.547 Y58.708 Z-1.798
N11090 X-182.358 Y58.765 Z-1.836
N11095 X-185.527 Y58.88 Z-1.981
N11100 X-187.884 Z-2.097
N11105 X-188.695 Y58.879 Z-2.14
N11110 X-191.867 Y58.753 Z-2.306
N11115 X-194.268 Y58.56 Z-2.436
N11120 X-194.736 Y58.523 Z-2.464
N11125 X-197.182 Y58.237 Z-2.604
N11130 X-198.36 Y58.064 Z-2.673
N11135 X-199.291 Y57.913 Z-2.729
N11140 X-200.21 Y57.751 Z-2.784
N11145 X-200.756 Y57.646 Z-2.819
N11150 X-201.889 Y57.415 Z-2.889
N11155 X-202.733 Y57.224 Z-2.943
N11160 X-203.721 Y56.986 Z-3.006
N11165 X-204.474 Y56.792 Z-3.054
N11170 X-204.954 Y56.658 Z-3.085
N11175 X-206.035 Y56.347 Z-3.156
N11180 X-206.819 Y56.103 Z-3.208
N11185 X-207.598 Y55.848 Z-3.262
N11190 X-208.987 Y55.355 Z-3.358
N11195 X-209.597 Y55.12 Z-3.4
N11200 X-210.07 Y54.938 Z-3.433
N11205 X-210.335 Y54.828 Z-3.451
N11210 X-211.169 Y54.487 Z-3.509
N11215 X-211.279 Y54.437 Z-3.517
N11220 X-211.684 Y54.27 Z-3.545
N11225 X-211.876 Y54.203 Z-3.559
N11230 X-212.133 Y54.135 Z-3.578
N11235 X-212.293 Y54.104 Z-3.591
N11240 X-212.613 Y54.058 Z-3.615
N11245 X-212.903 Y54.003 Z-3.638
N11250 X-213.175 Y53.939 Z-3.658
N11255 X-213.43 Y53.866 Z-3.679
N11260 X-213.679 Y53.783 Z-3.698
N11265 X-213.947 Y53.69 Z-3.72
N11270 X-214.205 Y53.612 Z-3.74
N11275 X-214.468 Y53.546 Z-3.762
N11280 X-214.729 Y53.493 Z-3.783
N11285 X-215.092 Y53.437 Z-3.814
N11290 X-215.677 Y53.351 Z-3.863
N11295 X-215.833 Y53.318 Z-3.876
N11300 X-216.015 Y53.259 Z-3.891
N11305 X-216.147 Y53.201 Z-3.901
N11310 X-216.279 Y53.13 Z-3.911
N11315 X-216.438 Y53.021 Z-3.922
N11320 X-216.558 Y52.919 Z-3.931
N11325 X-216.692 Y52.78 Z-3.939
N11330 X-216.812 Y52.621 Z-3.946
N11335 X-216.915 Y52.446 Z-3.951
N11340 X-216.976 Y52.312 Z-3.953
N11345 X-217.018 Y52.199 Z-3.955
N11350 X-217.051 Y52.082
N11355 X-217.078 Y51.951 Z-3.954
N11360 X-217.094 Y51.818 Z-3.953
N11365 X-217.1 Y51.652 Z-3.95
N11370 X-217.064 Y48.824 Z-3.89
N11375 X-217.056 Y48.711 Z-3.887
N11380 X-217.03 Y48.589 Z-3.882
N11385 X-216.985 Y48.466 Z-3.876
N11390 X-216.917 Y48.342 Z-3.868
N11395 X-216.83 Y48.23 Z-3.858
N11400 X-216.731 Y48.137 Z-3.847
N11405 X-216.614 Y48.057 Z-3.835
N11410 X-216.493 Y47.998 Z-3.824
N11415 X-216.373 Y47.961 Z-3.812
N11420 X-216.196 Y47.913 Z-3.795
N11425 X-216.041 Y47.86 Z-3.781
N11430 X-215.889 Y47.797 Z-3.766
N11435 X-215.725 Y47.714 Z-3.75
N11440 X-215.566 Y47.619 Z-3.734
N11445 X-215.379 Y47.485 Z-3.715
N11450 X-215.197 Y47.326 Z-3.696
N11455 X-215.033 Y47.153 Z-3.678
N11460 X-214.907 Y46.995 Z-3.664
N11465 X-214.841 Y46.916 Z-3.657
N11470 X-214.747 Y46.817 Z-3.648
N11475 X-214.615 Y46.672 Z-3.634
N11480 X-214.422 Y46.487 Z-3.615
N11485 X-214.263 Y46.313 Z-3.599
N11490 X-214.124 Y46.128 Z-3.584
N11495 X-214.003 Y45.932 Z-3.571
N11500 X-213.914 Y45.754 Z-3.561
N11505 X-213.827 Y45.563 Z-3.551
N11510 X-213.777 Y45.444 Z-3.545
N11515 X-213.647 Y45.125 Z-3.53
N11520 X-213.594 Y44.991 Z-3.523
N11525 X-213.434 Y44.531 Z-3.504
N11530 X-213.336 Y44.197 Z-3.491
N11535 X-213.24 Y43.857 Z-3.479
N11540 X-213.141 Y43.436 Z-3.466
N11545 X-213.048 Y42.939 Z-3.452
N11550 X-212.968 Y42.434 Z-3.44
N11555 X-212.87 Y41.652 Z-3.424
N11560 X-212.782 Y40.885 Z-3.41
N11565 X-212.683 Y40.167 Z-3.397
N11570 X-212.568 Y39.456 Z-3.383
N11575 X-212.403 Y38.569 Z-3.365
N11580 X-212.219 Y37.707 Z-3.347
N11585 X-211.981 Y36.717 Z-3.326
N11590 X-211.82 Y36.126 Z-3.313
N11595 X-211.099 Y33.556 Z-3.257
N11600 X-210.244 Y30.898 Z-3.197
N11605 X-209.76 Y29.534 Z-3.165
N11610 X-209.33 Y28.41 Z-3.139
N11615 X-208.825 Y27.16 Z-3.109
N11620 X-208.426 Y26.261 Z-3.086
N11625 X-208.001 Y25.359 Z-3.063
N11630 X-207.566 Y24.487 Z-3.039
N11635 X-207.116 Y23.633 Z-3.015
N11640 X-206.783 Y23.045 Z-2.998
N11645 X-206.3 Y22.242 Z-2.973
N11650 X-205.858 Y21.556 Z-2.951
N11655 X-205.416 Y20.913 Z-2.929
N11660 X-204.943 Y20.267 Z-2.905
N11665 X-204.47 Y19.658 Z-2.881
N11670 X-203.965 Y19.047 Z-2.856
N11675 X-203.501 Y18.518 Z-2.833
N11680 X-202.975 Y17.968 Z-2.807
N11685 X-202.412 Y17.414 Z-2.779
N11690 X-201.978 Y17.012 Z-2.758
N11695 X-201.431 Y16.549 Z-2.73
N11700 X-200.845 Y16.084 Z-2.701
N11705 X-200.261 Y15.649 Z-2.671
N11710 X-199.648 Y15.222 Z-2.64
N11715 X-199.123 Y14.878 Z-2.614
N11720 X-198.65 Y14.597 Z-2.59
N11725 X-198.045 Y14.263 Z-2.56
N11730 X-197.343 Y13.903 Z-2.525
N11735 X-196.936 Y13.711 Z-2.504
N11740 X-196.464 Y13.503 Z-2.481
N11745 X-196 Y13.314 Z-2.458
N11750 X-195.442 Y13.102 Z-2.429
N11755 X-194.909 Y12.911 Z-2.402
N11760 X-194.519 Y12.777 Z-2.383
N11765 X-194.096 Y12.652 Z-2.361
N11770 X-193.456 Y12.476 Z-2.329
N11775 X-192.812 Y12.313 Z-2.297
N11780 X-192.162 Y12.163 Z-2.265
N11785 X-191.567 Y12.037 Z-2.236
N11790 X-190.967 Y11.922 Z-2.207
N11795 X-190.492 Y11.84 Z-2.184
N11800 X-189.504 Y11.705 Z-2.135
N11805 X-188.873 Y11.636 Z-2.103
N11810 X-188.301 Y11.583 Z-2.073
N11815 X-187.725 Y11.541 Z-2.046
N11820 X-187.046 Y11.504 Z-2.014
N11825 X-186.333 Y11.479 Z-1.98
N11830 X-185.552 Y11.466 Z-1.944
N11835 X-184.848 Y11.476 Z-1.911
N11840 X-184.176 Y11.498 Z-1.88
N11845 X-183.487 Y11.532 Z-1.848
N11850 X-182.822 Y11.577 Z-1.816
N11855 X-182.099 Y11.64 Z-1.781
N11860 X-181.487 Y11.704 Z-1.753
N11865 X-180.744 Y11.795 Z-1.721
N11870 X-180.196 Y11.877 Z-1.697
N11875 X-179.295 Y12.031 Z-1.658
N11880 X-178.472 Y12.194 Z-1.623
N11885 X-177.817 Y12.337 Z-1.594
N11890 X-177.162 Y12.495 Z-1.565
N11895 X-176.496 Y12.668 Z-1.534
N11900 X-175.948 Y12.821 Z-1.51
N11905 X-175.431 Y12.976 Z-1.489
N11910 X-174.707 Y13.215 Z-1.461
N11915 X-174.201 Y13.391 Z-1.44
N11920 X-173.621 Y13.609 Z-1.417
N11925 X-172.907 Y13.892 Z-1.387
N11930 X-172.432 Y14.091 Z-1.367
N11935 X-171.844 Y14.358 Z-1.342
N11940 X-171.305 Y14.616 Z-1.319
N11945 X-170.633 Y14.957 Z-1.29
N11950 X-170.148 Y15.218 Z-1.272
N11955 X-169.671 Y15.487 Z-1.255
N11960 X-169.13 Y15.808 Z-1.234
N11965 X-168.542 Y16.173 Z-1.212
N11970 X-168.103 Y16.468 Z-1.195
N11975 X-167.456 Y16.928 Z-1.168
N11980 X-166.942 Y17.314 Z-1.148
N11985 X-166.456 Y17.698 Z-1.127
N11990 X-166.04 Y18.039 Z-1.11
N11995 X-165.433 Y18.562 Z-1.089
N12000 X-164.83 Y19.114 Z-1.066
N12005 X-164.481 Y19.449 Z-1.053
N12010 X-164.047 Y19.902 Z-1.036
N12015 X-163.497 Y20.508 Z-1.016
N12020 X-162.978 Y21.115 Z-0.997
N12025 X-162.491 Y21.716 Z-0.979
N12030 X-162.033 Y22.314 Z-0.963
N12035 X-161.562 Y22.965 Z-0.947
N12040 X-161.121 Y23.611 Z-0.932
N12045 X-160.661 Y24.325 Z-0.918
N12050 X-160.287 Y24.953 Z-0.906
N12055 X-159.792 Y25.826 Z-0.891
N12060 X-159.289 Y26.757 Z-0.878
N12065 X-158.806 Y27.704 Z-0.866
N12070 X-158.563 Y28.204 Z-0.86
N12075 X-157.421 Y30.673 Z-0.838
N12080 X-156.232 Y33.483 Z-0.826
N12085 X-155.784 Y34.62 Z-0.825
N12090 X-155.413 Y35.628
N12095 X-155.066 Y36.644
N12100 X-154.714 Y37.769
N12105 X-154.445 Y38.728
N12110 X-154.121 Y39.995
N12115 X-153.781 Y41.452 Z-0.829
N12120 X-153.719 Y41.735 Z-0.83
N12125 X-153.685 Y42.001 Z-0.831
N12130 X-153.676 Y42.269 Z-0.832
N12135 X-153.695 Y42.553 Z-0.834
N12140 X-153.735 Y42.801 Z-0.835
N12145 X-153.801 Y43.061 Z-0.837
N12150 X-153.892 Y43.313 Z-0.838
N12155 X-154.038 Y43.7 Z-0.841
N12160 X-154.155 Y44.085 Z-0.845
N12165 X-154.293 Y44.649 Z-0.85
N12170 X-154.38 Y45.089 Z-0.856
N12175 X-154.428 Y45.409 Z-0.859
N12180 X-154.471 Y45.763 Z-0.864
N12185 X-154.518 Y45.968 Z-0.866
N12190 X-154.559 Y46.163 Z-0.869
N12195 X-154.573 Y46.372 Z-0.871
N12200 X-154.563 Y46.538 Z-0.873
N12205 X-154.533 Y46.707 Z-0.875
N12210 X-154.48 Y46.88 Z-0.877
N12215 X-154.4 Y47.057 Z-0.879
N12220 X-154.293 Y47.228 Z-0.881
N12225 X-154.204 Y47.339 Z-0.882
N12230 X-153.824 Y47.742 Z-0.886
N12235 X-153.533 Y48.032 Z-0.89
N12240 X-153.279 Y48.255 Z-0.893
N12245 X-153.032 Y48.446 Z-0.896
N12250 X-152.779 Y48.612 Z-0.899
N12255 X-152.542 Y48.745 Z-0.902
N12260 X-152.307 Y48.857 Z-0.905
N12265 X-151.996 Y48.984 Z-0.909
N12270 X-151.574 Y49.118 Z-0.914
N12275 X-151.183 Y49.214 Z-0.918
N12280 X-150.798 Y49.282 Z-0.922
N12285 X-150.28 Y49.343 Z-0.927
N12290 X-149.751 Y49.367
N12295 X-149.025 Y49.368
N12300 X-148.089 Y49.336
N12305 X-147.284 Y49.33
N12310 X-146.479 Y49.344
N12315 X-145.844 Y49.365
N12320 X-145.243 Y49.36
N12325 X-144.689 Y49.33 Z-0.926
N12330 X-144.157 Y49.263 Z-0.922
N12335 X-143.795 Y49.196 Z-0.918
N12340 X-143.393 Y49.093 Z-0.913
N12345 X-142.99 Y48.961 Z-0.909
N12350 X-142.664 Y48.824 Z-0.905
N12355 X-142.376 Y48.678 Z-0.901
N12360 X-142.183 Y48.563 Z-0.899
N12365 X-141.937 Y48.394 Z-0.895
N12370 X-141.699 Y48.202 Z-0.892
N12375 X-141.452 Y47.975 Z-0.889
N12380 X-141.205 Y47.723 Z-0.886
N12385 X-141.066 Y47.558 Z-0.884
N12390 X-140.915 Y47.336 Z-0.881
N12395 X-140.789 Y47.099 Z-0.878
N12400 X-140.69 Y46.85 Z-0.876
N12405 X-140.635 Y46.657 Z-0.874
N12410 X-140.595 Y46.46 Z-0.871
N12415 X-140.568 Y46.196 Z-0.868
N12420 X-140.57 Y45.929 Z-0.865
N12425 X-140.612 Y45.555 Z-0.861
N12430 X-140.676 Y45.111 Z-0.855
N12435 X-140.784 Y44.59 Z-0.849
N12440 X-140.921 Y44.06 Z-0.844
N12445 X-141.039 Y43.693 Z-0.841
N12450 X-141.178 Y43.302 Z-0.838
N12455 X-141.265 Y42.978 Z-0.836
N12460 X-141.314 Y42.714 Z-0.834
N12465 X-141.344 Y42.447 Z-0.833
N12470 X-141.357 Y42.18 Z-0.832
N12475 X-141.351 Y41.911 Z-0.83
N12480 X-141.326 Y41.644 Z-0.829
N12485 X-141.284 Y41.38 Z-0.828
N12490 X-141.055 Y40.379 Z-0.825
N12495 X-140.766 Y39.195
N12500 X-140.491 Y38.164
N12505 X-140.3 Y37.518
N12510 X-139.973 Y36.496
N12515 X-139.624 Y35.482
N12520 X-139.194 Y34.315
N12525 X-138.808 Y33.338 Z-0.826
N12530 X-137.447 Y30.137 Z-0.841
N12535 X-136.268 Y27.616 Z-0.866
N12540 X-135.873 Y26.836 Z-0.876
N12545 X-135.374 Y25.899 Z-0.889
N12550 X-134.871 Y25.001 Z-0.904
N12555 X-134.476 Y24.327 Z-0.916
N12560 X-134.064 Y23.677 Z-0.929
N12565 X-133.621 Y23.017 Z-0.944
N12570 X-133.15 Y22.356 Z-0.96
N12575 X-132.657 Y21.705 Z-0.977
N12580 X-132.139 Y21.06 Z-0.995
N12585 X-131.597 Y20.423 Z-1.015
N12590 X-131.061 Y19.83 Z-1.035
N12595 X-130.606 Y19.354 Z-1.052
N12600 X-130.169 Y18.935 Z-1.069
N12605 X-129.551 Y18.375 Z-1.092
N12610 X-128.966 Y17.874 Z-1.113
N12615 X-128.481 Y17.479 Z-1.134
N12620 X-127.846 Y16.988 Z-1.159
N12625 X-127.186 Y16.508 Z-1.185
N12630 X-126.599 Y16.106 Z-1.209
N12635 X-126.039 Y15.755 Z-1.231
N12640 X-125.5 Y15.433 Z-1.252
N12645 X-124.969 Y15.13 Z-1.271
N12650 X-124.445 Y14.846 Z-1.29
N12655 X-123.883 Y14.557 Z-1.315
N12660 X-123.299 Y14.273 Z-1.34
N12665 X-122.74 Y14.015 Z-1.364
N12670 X-122.271 Y13.813 Z-1.384
N12675 X-121.579 Y13.533 Z-1.412
N12680 X-120.962 Y13.297 Z-1.437
N12685 X-120.46 Y13.117 Z-1.458
N12690 X-119.644 Y12.843 Z-1.49
N12695 X-119.136 Y12.687 Z-1.51
N12700 X-118.495 Y12.505 Z-1.539
N12705 X-117.813 Y12.325 Z-1.57
N12710 X-117.169 Y12.169 Z-1.599
N12715 X-116.522 Y12.024 Z-1.628
N12720 X-115.837 Y11.884 Z-1.658
N12725 X-114.925 Y11.72 Z-1.697
N12730 X-114.435 Y11.64 Z-1.718
N12735 X-113.667 Y11.539 Z-1.752
N12740 X-113.047 Y11.468 Z-1.78
N12745 X-112.374 Y11.403 Z-1.812
N12750 X-111.658 Y11.348 Z-1.847
N12755 X-110.958 Y11.307 Z-1.88
N12760 X-110.24 Y11.279 Z-1.914
N12765 X-109.477 Y11.263 Z-1.949
N12770 X-108.712 Y11.272 Z-1.985
N12775 X-108.062 Y11.29 Z-2.015
N12780 X-107.399 Y11.321 Z-2.046
N12785 X-106.79 Y11.361 Z-2.075
N12790 X-106.185 Y11.414 Z-2.106
N12795 X-105.504 Y11.485 Z-2.141
N12800 X-104.612 Y11.607 Z-2.186
N12805 X-104.011 Y11.705 Z-2.215
N12810 X-103.389 Y11.819 Z-2.245
N12815 X-102.765 Y11.948 Z-2.275
N12820 X-102.159 Y12.087 Z-2.305
N12825 X-101.584 Y12.232 Z-2.334
N12830 X-101.006 Y12.39 Z-2.363
N12835 X-100.448 Y12.553 Z-2.391
N12840 X-100.003 Y12.704 Z-2.413
N12845 X-99.402 Y12.919 Z-2.445
N12850 X-98.831 Y13.138 Z-2.473
N12855 X-98.352 Y13.335 Z-2.497
N12860 X-97.898 Y13.535 Z-2.52
N12865 X-97.495 Y13.726 Z-2.54
N12870 X-96.93 Y14.012 Z-2.568
N12875 X-96.473 Y14.256 Z-2.591
N12880 X-96.054 Y14.492 Z-2.612
N12885 X-95.688 Y14.712 Z-2.631
N12890 X-95.198 Y15.032 Z-2.655
N12895 X-94.764 Y15.328 Z-2.676
N12900 X-94.298 Y15.662 Z-2.7
N12905 X-93.832 Y16.012 Z-2.723
N12910 X-93.39 Y16.361 Z-2.745
N12915 X-92.902 Y16.765 Z-2.769
N12920 X-92.546 Y17.085 Z-2.787
N12925 X-91.956 Y17.648 Z-2.816
N12930 X-91.382 Y18.231 Z-2.844
N12935 X-91.004 Y18.647 Z-2.863
N12940 X-90.493 Y19.242 Z-2.888
N12945 X-89.986 Y19.872 Z-2.913
N12950 X-89.506 Y20.505 Z-2.937
N12955 X-89.054 Y21.141 Z-2.959
N12960 X-88.584 Y21.847 Z-2.982
N12965 X-88.313 Y22.273 Z-2.996
N12970 X-87.912 Y22.941 Z-3.016
N12975 X-87.556 Y23.572 Z-3.035
N12980 X-87.074 Y24.47 Z-3.06
N12985 X-86.844 Y24.931 Z-3.072
N12990 X-86.293 Y26.083 Z-3.101
N12995 X-85.873 Y27.026 Z-3.125
N13000 X-85.328 Y28.356 Z-3.156
N13005 X-84.893 Y29.531 Z-3.182
N13010 X-84.398 Y30.875 Z-3.214
N13015 X-83.552 Y33.444 Z-3.275
N13020 X-82.629 Y36.606 Z-3.354
N13025 X-82.389 Y37.544 Z-3.377
N13030 X-82.244 Y38.157 Z-3.392
N13035 X-82.113 Y38.763 Z-3.406
N13040 X-81.989 Y39.398 Z-3.42
N13045 X-81.883 Y39.999 Z-3.432
N13050 X-81.796 Y40.54 Z-3.444
N13055 X-81.666 Y41.514 Z-3.463
N13060 X-81.572 Y42.17 Z-3.477
N13065 X-81.499 Y42.6 Z-3.487
N13070 X-81.434 Y42.914 Z-3.496
N13075 X-81.361 Y43.221 Z-3.505
N13080 X-81.268 Y43.549 Z-3.517
N13085 X-81.195 Y43.77 Z-3.526
N13090 X-81.064 Y44.126 Z-3.541
N13095 X-81 Y44.278 Z-3.549
N13100 X-80.855 Y44.603 Z-3.565
N13105 X-80.766 Y44.769 Z-3.575
N13110 X-80.637 Y45.015 Z-3.589
N13115 X-80.512 Y45.221 Z-3.602
N13120 X-80.416 Y45.363 Z-3.612
N13125 X-80.284 Y45.523 Z-3.626
N13130 X-80.034 Y45.777 Z-3.651
N13135 X-79.876 Y45.918 Z-3.666
N13140 X-79.723 Y46.06 Z-3.682
N13145 X-79.622 Y46.147 Z-3.693
N13150 X-79.49 Y46.293 Z-3.707
N13155 X-79.408 Y46.374 Z-3.716
N13160 X-79.291 Y46.479 Z-3.728
N13165 X-79.218 Y46.548 Z-3.735
N13170 X-79.136 Y46.606 Z-3.744
N13175 X-79.048 Y46.655 Z-3.752
N13180 X-78.837 Y46.743 Z-3.773
N13185 X-78.667 Y46.799 Z-3.789
N13190 X-78.238 Y46.914 Z-3.829
N13195 X-77.911 Y46.988 Z-3.86
N13200 X-77.56 Y47.054 Z-3.893
N13205 X-77.349 Y47.089 Z-3.912
N13210 X-77.209 Y47.132 Z-3.926
N13215 X-77.073 Y47.197 Z-3.939
N13220 X-76.963 Y47.272 Z-3.95
N13225 X-76.882 Y47.343 Z-3.958
N13230 X-76.789 Y47.45 Z-3.968
N13235 X-76.714 Y47.566 Z-3.977
N13240 X-76.658 Y47.689 Z-3.984
N13245 X-76.621 Y47.816 Z-3.99
N13250 X-76.601 Y47.943 Z-3.994
N13255 X-76.598 Y48.046 Z-3.996
N13260 X-76.68 Y51.635 Z-4.058
N13265 X-76.716 Y53.206 Z-4.09
N13270 X-76.727 Y53.345 Z-4.092
N13275 X-76.748 Y53.457 Z-4.093
N13280 X-76.801 Y53.629 Z-4.092
N13285 X-76.856 Y53.751 Z-4.09
N13290 X-76.921 Y53.863 Z-4.087
N13295 X-77.007 Y53.978 Z-4.082
N13300 X-77.107 Y54.084 Z-4.076
N13305 X-77.22 Y54.178 Z-4.069
N13310 X-77.346 Y54.26 Z-4.06
N13315 X-77.461 Y54.318 Z-4.051
N13320 X-77.612 Y54.373 Z-4.039
N13325 X-77.775 Y54.409 Z-4.026
N13330 X-77.983 Y54.43 Z-4.008
N13335 X-79.046 Y54.529 Z-3.917
N13340 X-79.585 Y54.589 Z-3.871
N13345 X-79.972 Y54.646 Z-3.839
N13350 X-80.364 Y54.717 Z-3.806
N13355 X-80.756 Y54.801 Z-3.774
N13360 X-81.145 Y54.899 Z-3.743
N13365 X-81.511 Y54.989 Z-3.714
N13370 X-81.906 Y55.072 Z-3.681
N13375 X-82.231 Y55.13 Z-3.655
N13380 X-82.593 Y55.186 Z-3.627
N13385 X-82.875 Y55.243 Z-3.606
N13390 X-83.15 Y55.313 Z-3.586
N13395 X-83.63 Y55.456 Z-3.551
N13400 X-83.722 Y55.487 Z-3.544
N13405 X-84.73 Y55.787 Z-3.472
N13410 X-84.9 Y55.838 Z-3.46
N13415 X-85.854 Y56.112 Z-3.392
N13420 X-86.448 Y56.276 Z-3.35
N13425 X-86.983 Y56.424 Z-3.312
N13430 X-89.168 Y56.972 Z-3.159
N13435 X-90.003 Y57.182 Z-3.104
N13440 X-93.24 Y57.875 Z-2.895
N13445 X-95.627 Y58.303 Z-2.746
N13450 X-97.905 Y58.645 Z-2.613
N13455 X-100.791 Y58.982 Z-2.446
N13460 X-102.493 Y59.115 Z-2.352
N13465 X-103.854 Y59.222 Z-2.281
N13470 X-106.291 Y59.328 Z-2.155
N13475 X-108.522 Y59.346 Z-2.041
N13480 X-109.485 Y59.353 Z-1.995
N13485 X-112.666 Y59.257 Z-1.85
N13490 X-114.981 Y59.098 Z-1.746
N13495 X-115.857 Y59.038 Z-1.711
N13500 X-119.035 Y58.693 Z-1.584
N13505 X-120.614 Y58.465 Z-1.521
N13510 X-121.327 Y58.349 Z-1.495
N13515 X-122.149 Y58.204 Z-1.466
N13520 X-122.979 Y58.043 Z-1.436
N13525 X-123.825 Y57.865 Z-1.407
N13530 X-124.641 Y57.68 Z-1.38
N13535 X-125.474 Y57.477 Z-1.351
N13540 X-126.54 Y57.196 Z-1.313
N13545 X-127.272 Y56.99 Z-1.289
N13550 X-128.059 Y56.742 Z-1.264
N13555 X-128.806 Y56.493 Z-1.242
N13560 X-129.734 Y56.16 Z-1.216
N13565 X-130.095 Y56.026 Z-1.205
N13570 X-132.68 Y54.991 Z-1.126
N13575 X-133.259 Y54.765 Z-1.11
N13580 X-134.069 Y54.469 Z-1.092
N13585 X-134.639 Y54.286 Z-1.08
N13590 X-134.839 Y54.224 Z-1.076
N13595 X-135.42 Y54.064 Z-1.064
N13600 X-135.785 Y53.947 Z-1.057
N13605 X-136.221 Y53.799 Z-1.048
N13610 X-136.367 Y53.758 Z-1.045
N13615 X-136.519 Y53.735 Z-1.043
N13620 X-136.619 Y53.73 Z-1.041
N13625 X-136.72 Y53.733 Z-1.04
N13630 X-136.897 Y53.758 Z-1.039
N13635 X-137.033 Y53.786 Z-1.038
N13640 X-137.145 Y53.801 Z-1.037
N13645 X-138.325 Y53.925 Z-1.026
N13650 X-138.721 Y53.957 Z-1.022
N13655 X-138.781 Y53.971 Z-1.021
N13660 X-139.51 Y54.052 Z-1.016
N13665 X-140.846 Y54.212 Z-1.007
N13670 X-142.545 Y54.416 Z-1
N13675 X-143.572 Y54.504 Z-0.997
N13680 X-144.286 Y54.546 Z-0.995
N13685 X-145.021 Y54.575 Z-0.993
N13690 X-145.782 Y54.585 Z-0.991
N13695 X-148.109 Y54.569 Z-0.989
N13700 X-149.071 Y54.59 Z-0.991
N13705 X-149.973 Y54.584 Z-0.993
N13710 X-150.765 Y54.554 Z-0.995
N13715 X-151.421 Y54.517 Z-0.997
N13720 X-152.428 Y54.435 Z-1.001
N13725 X-155.489 Y54.084 Z-1.017
N13730 X-155.987 Y54.031 Z-1.02
N13735 X-156.221 Y54.007 Z-1.023
N13740 X-156.342 Y53.989
N13745 X-156.785 Y53.956 Z-1.028
N13750 X-157.894 Y53.853 Z-1.038
N13755 X-158.165 Y53.811 Z-1.041
N13760 X-158.346 Y53.804 Z-1.043
N13765 X-158.514 Y53.81 Z-1.045
N13770 X-158.662 Y53.826 Z-1.047
N13775 X-158.783 Y53.856 Z-1.049
N13780 X-158.984 Y53.935 Z-1.054
N13785 X-159.53 Y54.105 Z-1.065
N13790 X-160.154 Y54.276 Z-1.077
N13795 X-160.351 Y54.337 Z-1.081
N13800 X-160.893 Y54.509 Z-1.092
N13805 X-161.603 Y54.766 Z-1.108
N13810 X-162.16 Y54.98 Z-1.122
N13815 X-164.573 Y55.948 Z-1.196
N13820 X-165.027 Y56.128 Z-1.21
N13825 X-165.78 Y56.405 Z-1.232
N13830 X-166.741 Y56.738 Z-1.26
N13835 X-167.558 Y57.004 Z-1.285
N13840 X-168.21 Y57.193 Z-1.307
N13845 X-169.041 Y57.421 Z-1.335
N13850 X-170.098 Y57.69 Z-1.373
N13855 X-170.947 Y57.889 Z-1.402
N13860 X-171.73 Y58.061 Z-1.429
N13865 X-172.52 Y58.221 Z-1.456
N13870 X-173.305 Y58.369 Z-1.484
N13875 X-174.109 Y58.507 Z-1.513
N13880 X-174.501 Y58.568 Z-1.528
N13885 X-177.012 Y58.917 Z-1.63
N13890 X-179.57 Y59.177 Z-1.731
N13895 X-181.361 Y59.301 Z-1.808
N13900 X-182.328 Y59.369 Z-1.853
N13905 X-185.521 Y59.472 Z-2
N13910 X-187.612 Y59.459 Z-2.101
N13915 X-188.713 Y59.453 Z-2.159
N13920 X-191.906 Y59.304 Z-2.325
N13925 X-194.05 Y59.116 Z-2.44
N13930 X-195.104 Y59.024 Z-2.501
N13935 X-198.318 Y58.614 Z-2.688
N13940 X-200.646 Y58.233 Z-2.829
N13945 X-201.572 Y58.082 Z-2.89
N13950 X-205.212 Y57.366 Z-3.125
N13955 X-207.194 Y56.935 Z-3.261
N13960 X-207.944 Y56.77 Z-3.315
N13965 X-209.193 Y56.486 Z-3.406
N13970 X-209.972 Y56.305 Z-3.463
N13975 X-210.34 Y56.219 Z-3.49
N13980 X-211.405 Y55.972 Z-3.568
N13985 X-211.544 Y55.938 Z-3.578
N13990 X-212.024 Y55.832 Z-3.613
N13995 X-212.377 Y55.765 Z-3.64
N14000 X-212.656 Y55.722 Z-3.661
N14005 X-213.056 Y55.664 Z-3.694
N14010 X-213.683 Y55.554 Z-3.746
N14015 X-214.609 Y55.378 Z-3.822
N14020 X-214.682 Y55.359 Z-3.828
N14025 X-214.827 Y55.334 Z-3.84
N14030 X-215.065 Y55.309 Z-3.86
N14035 X-215.954 Y55.214 Z-3.935
N14040 X-216.879 Y55.131 Z-4.014
N14045 X-217.685 Y55.073 Z-4.083
N14050 X-218.429 Y55.026 Z-4.147
N14055 X-218.552 Y55.003 Z-4.157
N14060 X-218.652 Y54.967 Z-4.165
N14065 X-218.761 Y54.908 Z-4.174
N14070 X-218.865 Y54.825 Z-4.182
N14075 X-218.932 Y54.752 Z-4.186
N14080 X-219.002 Y54.645 Z-4.19
N14085 X-219.044 Y54.554 Z-4.191
N14090 X-219.081 Y54.415
N14095 X-219.091 Y54.303 Z-4.189
N14100 X-219.118 Y51.736 Z-4.131
N14105 X-219.158 Y48.083 Z-4.064
N14110 X-219.169 Y47.028 Z-4.048
N14115 X-219.161 Y46.928 Z-4.046
N14120 X-219.134 Y46.831 Z-4.042
N14125 X-219.095 Y46.75 Z-4.037
N14130 X-219.04 Y46.672 Z-4.031
N14135 X-218.961 Y46.595 Z-4.022
N14140 X-218.878 Y46.542 Z-4.014
N14145 X-218.785 Y46.504 Z-4.005
N14150 X-218.69 Y46.484 Z-3.996
N14155 X-218.405 Y46.459 Z-3.97
N14160 X-218.036 Y46.412 Z-3.936
N14165 X-217.686 Y46.354 Z-3.904
N14170 X-217.358 Y46.285 Z-3.873
N14175 X-217.055 Y46.211 Z-3.845
N14180 X-216.729 Y46.117 Z-3.814
N14185 X-216.543 Y46.055 Z-3.796
N14190 X-216.39 Y45.991 Z-3.782
N14195 X-216.239 Y45.917 Z-3.767
N14200 X-216.09 Y45.832 Z-3.752
N14205 X-215.943 Y45.735 Z-3.737
N14210 X-215.745 Y45.58 Z-3.717
N14215 X-215.554 Y45.436 Z-3.698
N14220 X-215.311 Y45.239 Z-3.673
N14225 X-215.167 Y45.111 Z-3.659
N14230 X-215.032 Y44.976 Z-3.645
N14235 X-214.931 Y44.856 Z-3.635
N14240 X-214.78 Y44.654 Z-3.62
N14245 X-214.68 Y44.506 Z-3.609
N14250 X-214.526 Y44.251 Z-3.593
N14255 X-214.382 Y43.992 Z-3.578
N14260 X-214.261 Y43.728 Z-3.564
N14265 X-214.148 Y43.446 Z-3.551
N14270 X-214.037 Y43.119 Z-3.538
N14275 X-213.959 Y42.836 Z-3.529
N14280 X-213.859 Y42.389 Z-3.516
N14285 X-213.79 Y41.998 Z-3.506
N14290 X-213.71 Y41.464 Z-3.494
N14295 X-213.605 Y40.667 Z-3.479
N14300 X-213.549 Y40.309 Z-3.471
N14305 X-213.416 Y39.571 Z-3.455
N14310 X-213.219 Y38.595 Z-3.433
N14315 X-213.065 Y37.907 Z-3.417
N14320 X-212.872 Y37.112 Z-3.398
N14325 X-212.665 Y36.328 Z-3.378
N14330 X-212.523 Y35.832 Z-3.366
N14335 X-211.688 Y33.058 Z-3.296
N14340 X-210.676 Y30.037 Z-3.225
N14345 X-210.041 Y28.331 Z-3.185
N14350 X-209.854 Y27.856 Z-3.174
N14355 X-209.455 Y26.878 Z-3.152
N14360 X-209.105 Y26.082 Z-3.132
N14365 X-208.76 Y25.335 Z-3.114
N14370 X-208.498 Y24.782 Z-3.1
N14375 X-208.274 Y24.337 Z-3.088
N14380 X-207.931 Y23.685 Z-3.071
N14385 X-207.567 Y23.021 Z-3.052
N14390 X-207.271 Y22.51 Z-3.037
N14395 X-206.943 Y21.967 Z-3.021
N14400 X-206.607 Y21.444 Z-3.004
N14405 X-206.192 Y20.827 Z-2.983
N14410 X-205.822 Y20.308 Z-2.965
N14415 X-205.38 Y19.721 Z-2.943
N14420 X-204.998 Y19.239 Z-2.924
N14425 X-204.495 Y18.639 Z-2.9
N14430 X-204.14 Y18.238 Z-2.882
N14435 X-203.878 Y17.956 Z-2.869
N14440 X-203.494 Y17.565 Z-2.85
N14445 X-203.083 Y17.163 Z-2.83
N14450 X-202.671 Y16.776 Z-2.81
N14455 X-202.428 Y16.557 Z-2.797
N14460 X-202.053 Y16.242 Z-2.778
N14465 X-201.639 Y15.91 Z-2.758
N14470 X-201.172 Y15.551 Z-2.734
N14475 X-200.71 Y15.213 Z-2.711
N14480 X-200.227 Y14.877 Z-2.687
N14485 X-199.695 Y14.524 Z-2.661
N14490 X-199.472 Y14.381 Z-2.65
N14495 X-199.016 Y14.112 Z-2.627
N14500 X-198.564 Y13.861 Z-2.605
N14505 X-198.116 Y13.627 Z-2.583
N14510 X-197.626 Y13.379 Z-2.558
N14515 X-197.206 Y13.18 Z-2.537
N14520 X-196.695 Y12.955 Z-2.512
N14525 X-196.289 Y12.788 Z-2.491
N14530 X-195.662 Y12.547 Z-2.459
N14535 X-195.014 Y12.311 Z-2.425
N14540 X-194.68 Y12.196 Z-2.408
N14545 X-194.132 Y12.033 Z-2.381
N14550 X-193.484 Y11.854 Z-2.349
N14555 X-192.832 Y11.688 Z-2.317
N14560 X-192.172 Y11.533 Z-2.285
N14565 X-191.505 Y11.392 Z-2.252
N14570 X-190.786 Y11.255 Z-2.218
N14575 X-190.549 Y11.216 Z-2.206
N14580 X-189.833 Y11.121 Z-2.17
N14585 X-189.116 Y11.041 Z-2.133
N14590 X-188.423 Y10.975 Z-2.098
N14595 X-187.785 Y10.926 Z-2.066
N14600 X-187.06 Y10.884 Z-2.032
N14605 X-186.334 Y10.855 Z-1.999
N14610 X-185.611 Y10.839 Z-1.966
N14615 X-184.964 Y10.849 Z-1.936
N14620 X-184.251 Y10.874 Z-1.903
N14625 X-183.555 Y10.911 Z-1.869
N14630 X-182.891 Y10.958 Z-1.837
N14635 X-182.182 Y11.022 Z-1.803
N14640 X-181.538 Y11.093 Z-1.773
N14645 X-180.893 Y11.174 Z-1.745
N14650 X-180.375 Y11.249 Z-1.722
N14655 X-179.588 Y11.386 Z-1.689
N14660 X-178.915 Y11.516 Z-1.659
N14665 X-178.248 Y11.657 Z-1.63
N14670 X-177.554 Y11.818 Z-1.598
N14675 X-176.651 Y12.047 Z-1.557
N14680 X-175.957 Y12.24 Z-1.526
N14685 X-175.424 Y12.398 Z-1.503
N14690 X-174.993 Y12.538 Z-1.486
N14695 X-174.306 Y12.773 Z-1.459
N14700 X-173.65 Y13.013 Z-1.433
N14705 X-173.013 Y13.259 Z-1.406
N14710 X-172.258 Y13.571 Z-1.374
N14715 X-171.546 Y13.892 Z-1.344
N14720 X-170.779 Y14.263 Z-1.311
N14725 X-170.256 Y14.531 Z-1.29
N14730 X-169.688 Y14.837 Z-1.269
N14735 X-168.958 Y15.252 Z-1.24
N14740 X-168.174 Y15.728 Z-1.209
N14745 X-167.547 Y16.15 Z-1.184
N14750 X-166.872 Y16.632 Z-1.157
N14755 X-166.225 Y17.121 Z-1.132
N14760 X-165.608 Y17.615 Z-1.109
N14765 X-164.977 Y18.148 Z-1.085
N14770 X-164.373 Y18.687 Z-1.063
N14775 X-164.027 Y19.015 Z-1.051
N14780 X-163.553 Y19.502 Z-1.034
N14785 X-162.996 Y20.108 Z-1.014
N14790 X-162.503 Y20.675 Z-0.996
N14795 X-161.997 Y21.289 Z-0.978
N14800 X-161.522 Y21.901 Z-0.962
N14805 X-161.061 Y22.528 Z-0.947
N14810 X-160.558 Y23.257 Z-0.931
N14815 X-160.127 Y23.921 Z-0.917
N14820 X-159.79 Y24.482 Z-0.907
N14825 X-159.263 Y25.404 Z-0.892
N14830 X-158.722 Y26.396 Z-0.877
N14835 X-158.221 Y27.362 Z-0.865
N14840 X-157.746 Y28.325 Z-0.855
N14845 X-156.78 Y30.383 Z-0.837
N14850 X-155.359 Y33.58 Z-0.825
N14855 X-154.892 Y34.712
N14860 X-154.408 Y35.963
N14865 X-153.953 Y37.225
N14870 X-153.734 Y37.882
N14875 X-153.26 Y39.42
N14880 X-152.855 Y40.824 Z-0.827
N14885 X-152.603 Y41.776 Z-0.83
N14890 X-152.508 Y42.195 Z-0.832
N14895 X-152.47 Y42.422 Z-0.833
N14900 X-152.465 Y42.6 Z-0.834
N14905 X-152.476 Y42.698
N14910 X-152.519 Y42.853 Z-0.835
N14915 X-152.66 Y43.176 Z-0.836
N14920 X-152.976 Y43.85 Z-0.84
N14925 X-153.131 Y44.237 Z-0.843
N14930 X-153.258 Y44.622 Z-0.846
N14935 X-153.349 Y44.972 Z-0.848
N14940 X-153.416 Y45.325 Z-0.852
N14945 X-153.453 Y45.683 Z-0.856
N14950 X-153.462 Y46.001 Z-0.86
N14955 X-153.442 Y46.262 Z-0.863
N14960 X-153.394 Y46.516 Z-0.867
N14965 X-153.321 Y46.754 Z-0.87
N14970 X-153.222 Y46.986 Z-0.873
N14975 X-153.103 Y47.209 Z-0.877
N14980 X-152.952 Y47.436 Z-0.88
N14985 X-152.782 Y47.644 Z-0.884
N14990 X-152.581 Y47.846 Z-0.888
N14995 X-152.389 Y48.004 Z-0.891
N15000 X-152.181 Y48.145 Z-0.895
N15005 X-151.944 Y48.274 Z-0.899
N15010 X-151.758 Y48.36 Z-0.902
N15015 X-151.454 Y48.471 Z-0.907
N15020 X-151.171 Y48.556 Z-0.911
N15025 X-150.752 Y48.646 Z-0.918
N15030 X-150.374 Y48.698 Z-0.922
N15035 X-150.074 Y48.725 Z-0.925
N15040 X-149.74 Y48.738 Z-0.927
N15045 X-149.045 Y48.739
N15050 X-147.971 Y48.695
N15055 X-147.166 Y48.691
N15060 X-146.227 Y48.722
N15065 X-145.83 Y48.736
N15070 X-145.193 Y48.729
N15075 X-144.741 Y48.702 Z-0.924
N15080 X-144.311 Y48.646 Z-0.918
N15085 X-143.956 Y48.574 Z-0.913
N15090 X-143.672 Y48.498 Z-0.909
N15095 X-143.318 Y48.374 Z-0.903
N15100 X-143.077 Y48.265 Z-0.899
N15105 X-142.896 Y48.17 Z-0.896
N15110 X-142.691 Y48.038 Z-0.892
N15115 X-142.507 Y47.894 Z-0.889
N15120 X-142.314 Y47.711 Z-0.885
N15125 X-142.135 Y47.509 Z-0.882
N15130 X-141.989 Y47.307 Z-0.878
N15135 X-141.866 Y47.088 Z-0.875
N15140 X-141.777 Y46.888 Z-0.872
N15145 X-141.686 Y46.639 Z-0.868
N15150 X-141.627 Y46.405 Z-0.865
N15155 X-141.595 Y46.159 Z-0.862
N15160 X-141.585 Y45.895 Z-0.859
N15165 X-141.601 Y45.59 Z-0.855
N15170 X-141.645 Y45.249 Z-0.851
N15175 X-141.717 Y44.923 Z-0.848
N15180 X-141.826 Y44.536 Z-0.845
N15185 X-141.961 Y44.156 Z-0.842
N15190 X-142.1 Y43.831 Z-0.84
N15195 X-142.442 Y43.122 Z-0.836
N15200 X-142.545 Y42.881 Z-0.835
N15205 X-142.594 Y42.71 Z-0.834
N15210 X-142.607 Y42.554
N15215 X-142.6 Y42.408 Z-0.833
N15220 X-142.561 Y42.177 Z-0.832
N15225 X-142.439 Y41.655 Z-0.83
N15230 X-142.194 Y40.722 Z-0.826
N15235 X-141.793 Y39.333 Z-0.825
N15240 X-141.311 Y37.762
N15245 X-140.973 Y36.775
N15250 X-140.51 Y35.516
N15255 X-139.992 Y34.206
N15260 X-139.569 Y33.202 Z-0.826
N15265 X-138.76 Y31.362 Z-0.831
N15270 X-138.074 Y29.847 Z-0.841
N15275 X-137.282 Y28.163 Z-0.856
N15280 X-136.699 Y26.984 Z-0.869
N15285 X-136.179 Y25.977 Z-0.883
N15290 X-135.827 Y25.331 Z-0.892
N15295 X-135.482 Y24.735 Z-0.902
N15300 X-135.02 Y23.953 Z-0.916
N15305 X-134.547 Y23.216 Z-0.93
N15310 X-134.299 Y22.846 Z-0.938
N15315 X-133.865 Y22.221 Z-0.953
N15320 X-133.542 Y21.792 Z-0.963
N15325 X-132.926 Y20.994 Z-0.985
N15330 X-132.106 Y20.037 Z-1.013
N15335 X-131.804 Y19.711 Z-1.024
N15340 X-131.134 Y19.018 Z-1.048
N15345 X-130.803 Y18.7 Z-1.06
N15350 X-130.086 Y18.038 Z-1.086
N15355 X-129.741 Y17.748 Z-1.099
N15360 X-128.899 Y17.057 Z-1.131
N15365 X-127.842 Y16.276 Z-1.171
N15370 X-127.392 Y15.97 Z-1.189
N15375 X-126.857 Y15.619 Z-1.21
N15380 X-125.89 Y15.028 Z-1.248
N15385 X-124.856 Y14.457 Z-1.289
N15390 X-124.125 Y14.084 Z-1.319
N15395 X-123.639 Y13.855 Z-1.339
N15400 X-122.796 Y13.472 Z-1.374
N15405 X-121.828 Y13.071 Z-1.416
N15410 X-120.784 Y12.679 Z-1.459
N15415 X-119.756 Y12.332 Z-1.499
N15420 X-118.951 Y12.086 Z-1.534
N15425 X-118.525 Y11.968 Z-1.553
N15430 X-117.705 Y11.747 Z-1.59
N15435 X-116.678 Y11.504 Z-1.636
N15440 X-115.651 Y11.294 Z-1.682
N15445 X-114.581 Y11.109 Z-1.728
