%
(3003)
(everything)
(T1 D=6 CR=0 - ZMIN=-9.237 - flat end mill)
N10 G90 G94
N15 G17
N20 G21
N25 M9
N30 G28

(final cutout)
N35 T1 M6
N40 S7760 M3
N45 G54
N50 G0 X-150.138 Y42.249
N55 G43 Z15
N60 Z5
N65 G1 Z1 F30
N70 Z-8.637
N75 X-150.131 Y42.247 Z-8.731
N80 X-150.109 Y42.241 Z-8.823
N85 X-150.074 Y42.232 Z-8.91
N90 X-150.027 Y42.219 Z-8.99
N95 X-149.968 Y42.204 Z-9.061
N100 X-149.898 Y42.186 Z-9.123
N105 X-149.821 Y42.165 Z-9.172
N110 X-149.737 Y42.143 Z-9.208
N115 X-149.648 Y42.12 Z-9.23
N120 X-149.557 Y42.096 Z-9.237
N125 X-148.977 Y41.943 F1397
N130 G3 X-148.244 Y42.371 I0.153 J0.58
N135 G2 X-148.101 Y42.788 I2.901 J-0.763
N140 G1 X-148.046 Y42.916
N145 G2 X-147.736 Y43.47 I2.758 J-1.18
N150 G1 X-147.652 Y43.588
N155 G2 X-147.487 Y43.801 I2.448 J-1.734
N160 G1 X-147.386 Y43.919
N165 X-147.324 Y43.994
N170 X-147.309 Y44.014
N175 X-147.296 Y44.036
N180 X-147.267 Y44.095
N185 X-147.235 Y44.183
N190 X-147.217 Y44.249
N195 X-147.338 Y44.301
N200 X-147.51 Y44.361
N205 X-147.712 Y44.419
N210 X-147.942 Y44.472
N215 X-148.198 Y44.52
N220 X-148.474 Y44.561
N225 X-148.766 Y44.594
N230 X-149.068 Y44.619
N235 X-149.36 Y44.636
N240 X-150 Y44.649
N245 X-150.64 Y44.636
N250 X-150.932 Y44.619
N255 X-151.234 Y44.594
N260 X-151.526 Y44.561
N265 X-151.802 Y44.52
N270 X-152.058 Y44.472
N275 X-152.288 Y44.419
N280 X-152.49 Y44.361
N285 X-152.662 Y44.301
N290 X-152.783 Y44.249
N295 X-152.765 Y44.183
N300 X-152.733 Y44.095
N305 X-152.704 Y44.036
N310 X-152.691 Y44.014
N315 X-152.676 Y43.994
N320 X-152.614 Y43.919
N325 X-152.513 Y43.801
N330 G2 X-152.348 Y43.588 I-2.283 J-1.946
N335 G1 X-152.264 Y43.47
N340 G2 X-151.954 Y42.916 I-2.448 J-1.734
N345 G1 X-151.899 Y42.788
N350 G2 X-151.691 Y42.055 I-2.758 J-1.18
N355 G1 X-151.667 Y41.895
N360 G2 X-151.636 Y41.309 I-2.966 J-0.447
N365 G1 X-151.646 Y41.094
N370 G2 X-151.687 Y40.722 I-2.997 J0.139
N375 G1 X-151.742 Y40.404
N380 G2 X-151.78 Y40.216 I-2.956 J0.511
N385 G1 X-151.891 Y39.753
N390 G2 X-151.92 Y39.641 I-2.918 J0.699
N395 G1 X-152.089 Y39.038
N400 G2 X-152.108 Y38.975 I-2.889 J0.81
N405 G1 X-152.325 Y38.262
N410 G2 X-152.338 Y38.222 I-2.87 J0.873
N415 G1 X-152.594 Y37.421
N420 G2 X-152.609 Y37.374 I-2.857 J0.914
N425 G1 X-153.207 Y35.605
N430 G2 X-153.223 Y35.559 I-2.842 J0.961
N435 G1 X-153.878 Y33.721
N440 G2 X-153.896 Y33.674 I-2.826 J1.007
N445 G1 X-154.551 Y31.93
N450 G2 X-154.571 Y31.877 I-2.808 J1.055
N455 G1 X-155.214 Y30.258
N460 G2 X-155.238 Y30.198 I-2.788 J1.107
N465 G1 X-155.872 Y28.696
N470 G2 X-155.9 Y28.631 I-2.764 J1.166
N475 G1 X-156.527 Y27.238
N480 G2 X-156.56 Y27.167 I-2.736 J1.231
N485 G1 X-157.182 Y25.876
N490 G2 X-157.211 Y25.818 I-2.703 J1.302
N495 G1 X-157.521 Y25.209
N500 G2 X-157.542 Y25.167 I-2.674 J1.359
N505 G1 X-157.852 Y24.58
N510 G2 X-157.874 Y24.539 I-2.653 J1.4
N515 G1 X-158.184 Y23.973
N520 G2 X-158.209 Y23.928 I-2.631 J1.442
N525 G1 X-158.52 Y23.383
N530 G2 X-158.545 Y23.342 I-2.606 J1.487
N535 G1 X-158.855 Y22.816
N540 G2 X-158.88 Y22.775 I-2.581 J1.528
N545 G1 X-159.191 Y22.268
N550 G2 X-159.222 Y22.22 I-2.557 J1.57
N555 G1 X-159.535 Y21.731
N560 G2 X-159.566 Y21.684 I-2.526 J1.618
N565 G1 X-159.881 Y21.212
N570 G2 X-159.91 Y21.169 I-2.495 J1.666
N575 G1 X-160.226 Y20.713
N580 G2 X-160.261 Y20.663 I-2.466 J1.709
N585 G1 X-160.58 Y20.222
N590 G2 X-160.613 Y20.178 I-2.431 J1.758
N595 G1 X-160.934 Y19.751
N600 G2 X-160.967 Y19.708 I-2.398 J1.803
N605 G1 X-161.29 Y19.294
N610 G2 X-161.345 Y19.225 I-2.365 J1.845
N615 G1 X-162.013 Y18.419
N620 G2 X-162.07 Y18.353 I-2.31 J1.915
N625 G1 X-162.437 Y17.936
N630 G2 X-162.481 Y17.886 I-2.253 J1.98
N635 G1 X-162.876 Y17.456
N640 G2 X-162.92 Y17.41 I-2.209 J2.03
N645 G1 X-163.342 Y16.97
N650 G2 X-163.389 Y16.921 I-2.165 J2.077
N655 G1 X-163.839 Y16.473
N660 G2 X-163.895 Y16.419 I-2.118 J2.125
N665 G1 X-164.376 Y15.964
N670 G2 X-164.428 Y15.916 I-2.062 J2.179
N675 G1 X-164.938 Y15.455
N680 G2 X-164.998 Y15.403 I-2.01 J2.227
N685 G1 X-165.54 Y14.939
N690 G2 X-165.601 Y14.888 I-1.95 J2.28
N695 G1 X-166.175 Y14.423
N700 G2 X-166.241 Y14.371 I-1.889 J2.33
N705 G1 X-166.849 Y13.906
N710 G2 X-166.915 Y13.857 I-1.823 J2.383
N715 G1 X-167.556 Y13.394
N720 G2 X-167.626 Y13.344 I-1.757 J2.431
N725 G1 X-168.302 Y12.885
N730 G2 X-168.374 Y12.837 I-1.687 J2.481
N735 G1 X-169.085 Y12.383
N740 G2 X-169.162 Y12.336 I-1.615 J2.528
N745 G1 X-169.911 Y11.888
N750 G2 X-169.986 Y11.845 I-1.538 J2.576
N755 G1 X-170.771 Y11.406
N760 G2 X-170.851 Y11.363 I-1.463 J2.619
N765 G1 X-171.66 Y10.943
N770 G2 X-171.739 Y10.903 I-1.383 J2.662
N775 G1 X-172.563 Y10.506
N780 G2 X-172.642 Y10.469 I-1.304 J2.702
N785 G1 X-173.479 Y10.095
N790 G2 X-173.559 Y10.06 I-1.225 J2.738
N795 G1 X-174.409 Y9.709
N800 G2 X-174.488 Y9.678 I-1.145 J2.773
N805 G1 X-175.348 Y9.351
N810 G2 X-175.429 Y9.321 I-1.066 J2.804
N815 G1 X-176.299 Y9.019
N820 G2 X-176.379 Y8.992 I-0.985 J2.834
N825 G1 X-177.257 Y8.715
N830 G2 X-177.338 Y8.69 I-0.905 J2.86
N835 G1 X-178.222 Y8.438
N840 G2 X-178.304 Y8.416 I-0.824 J2.885
N845 G1 X-179.193 Y8.189
N850 G2 X-179.278 Y8.169 I-0.742 J2.907
N855 G1 X-180.172 Y7.968
N860 G2 X-180.256 Y7.95 I-0.657 J2.927
N865 G1 X-181.152 Y7.776
N870 G2 X-181.239 Y7.761 I-0.573 J2.945
N875 G1 X-182.136 Y7.613
N880 G2 X-182.224 Y7.6 I-0.486 J2.96
N885 G1 X-183.121 Y7.48
N890 G2 X-183.211 Y7.469 I-0.398 J2.973
N895 G1 X-184.111 Y7.376
N900 G2 X-184.204 Y7.368 I-0.308 J2.984
N905 G1 X-185.107 Y7.303
N910 G2 X-185.202 Y7.298 I-0.215 J2.992
N915 G1 X-186.106 Y7.262
N920 G2 X-186.204 Y7.26 I-0.12 J2.998
N925 G1 X-187.11 Y7.253
N930 G2 X-187.21 Y7.254 I-0.022 J3
N935 G1 X-188.116 Y7.277
N940 G2 X-188.218 Y7.282 I0.078 J2.999
N945 G1 X-189.12 Y7.336
N950 G2 X-189.222 Y7.344 I0.18 J2.995
N955 G1 X-190.11 Y7.428
N960 G2 X-190.211 Y7.439 I0.282 J2.987
N965 G1 X-191.083 Y7.551
N970 G2 X-191.183 Y7.566 I0.383 J2.975
N975 G1 X-192.039 Y7.706
N980 G2 X-192.138 Y7.724 I0.483 J2.961
N985 G1 X-192.977 Y7.89
N990 G2 X-193.076 Y7.911 I0.582 J2.943
N995 G1 X-193.897 Y8.102
N1000 G2 X-193.992 Y8.126 I0.681 J2.922
N1005 G1 X-194.796 Y8.341
N1010 G2 X-194.891 Y8.369 I0.776 J2.898
N1015 G1 X-195.677 Y8.607
N1020 G2 X-195.77 Y8.637 I0.871 J2.871
N1025 G1 X-196.538 Y8.897
N1030 G2 X-196.63 Y8.93 I0.964 J2.841
N1035 G1 X-197.379 Y9.212
N1040 G2 X-197.468 Y9.247 I1.056 J2.808
N1045 G1 X-198.198 Y9.548
N1050 G2 X-198.286 Y9.587 I1.145 J2.773
N1055 G1 X-198.996 Y9.907
N1060 G2 X-199.08 Y9.946 I1.233 J2.735
N1065 G1 X-199.773 Y10.285
N1070 G2 X-199.859 Y10.328 I1.317 J2.695
N1075 G1 X-200.537 Y10.687
N1080 G2 X-200.618 Y10.731 I1.403 J2.652
N1085 G1 X-201.284 Y11.11
N1090 G2 X-201.368 Y11.16 I1.484 J2.607
N1095 G1 X-202.019 Y11.559
N1100 G2 X-202.098 Y11.609 I1.568 J2.558
N1105 G1 X-202.736 Y12.028
N1110 G2 X-202.814 Y12.081 I1.647 J2.508
N1115 G1 X-203.438 Y12.52
N1120 G2 X-203.516 Y12.577 I1.725 J2.454
N1125 G1 X-204.125 Y13.035
N1130 G2 X-204.198 Y13.091 I1.803 J2.397
N1135 G1 X-204.794 Y13.569
N1140 G2 X-204.869 Y13.631 I1.876 J2.341
N1145 G1 X-205.449 Y14.128
N1150 G2 X-205.518 Y14.189 I1.951 J2.279
N1155 G1 X-206.084 Y14.705
N1160 G2 X-206.155 Y14.771 I2.02 J2.218
N1165 G1 X-206.705 Y15.306
N1170 G2 X-206.771 Y15.372 I2.091 J2.151
N1175 G1 X-207.306 Y15.925
N1180 G2 X-207.368 Y15.992 I2.157 J2.085
N1185 G1 X-207.888 Y16.564
N1190 G2 X-207.951 Y16.634 I2.219 J2.018
N1195 G1 X-208.449 Y17.218
N1200 G2 X-208.507 Y17.288 I2.282 J1.948
N1205 G1 X-208.979 Y17.876
N1210 G2 X-209.031 Y17.942 I2.339 J1.878
N1215 G1 X-209.479 Y18.534
N1220 G2 X-209.528 Y18.602 I2.392 J1.811
N1225 G1 X-209.952 Y19.196
N1230 G2 X-210 Y19.264 I2.441 J1.743
N1235 G1 X-210.4 Y19.859
N1240 G2 X-210.442 Y19.923 I2.489 J1.675
N1245 G1 X-210.82 Y20.517
N1250 G2 X-210.861 Y20.583 I2.531 J1.61
N1255 G1 X-211.217 Y21.175
N1260 G2 X-211.253 Y21.238 I2.572 J1.545
N1265 G1 X-211.588 Y21.827
N1270 G2 X-211.622 Y21.887 I2.608 J1.482
N1275 G1 X-211.937 Y22.473
N1280 G2 X-211.968 Y22.534 I2.642 J1.422
N1285 G1 X-212.263 Y23.113
N1290 G2 X-212.29 Y23.167 I2.673 J1.361
N1295 G1 X-212.567 Y23.74
N1300 G2 X-212.595 Y23.799 I2.7 J1.307
N1305 G1 X-212.853 Y24.363
N1310 G2 X-212.875 Y24.411 I2.728 J1.248
N1315 G1 X-213.117 Y24.965
N1320 G2 X-213.149 Y25.042 I2.75 J1.2
N1325 G1 X-213.583 Y26.118
N1330 G2 X-213.618 Y26.209 I2.782 J1.123
N1335 G1 X-214.004 Y27.263
N1340 G2 X-214.034 Y27.35 I2.817 J1.032
N1345 G1 X-214.382 Y28.398
N1350 G2 X-214.407 Y28.476 I2.847 J0.945
N1355 G1 X-214.721 Y29.516
N1360 G2 X-214.743 Y29.594 I2.872 J0.867
N1365 G1 X-215.023 Y30.621
N1370 G2 X-215.041 Y30.687 I2.894 J0.789
N1375 G1 X-215.292 Y31.698
N1380 G2 X-215.307 Y31.765 I2.912 J0.723
N1385 G1 X-215.529 Y32.756
N1390 G2 X-215.541 Y32.81 I2.927 J0.656
N1395 G1 X-215.739 Y33.777
N1400 G2 X-215.75 Y33.832 I2.939 J0.602
N1405 G1 X-215.924 Y34.771
N1410 G2 X-215.931 Y34.813 I2.95 J0.546
N1415 G1 X-216.086 Y35.72
N1420 G2 X-216.093 Y35.763 I2.957 J0.505
N1425 G1 X-216.229 Y36.636
N1430 G2 X-216.234 Y36.667 I2.964 J0.462
N1435 G1 X-216.355 Y37.501
N1440 G2 X-216.359 Y37.529 I2.969 J0.431
N1445 G1 X-216.466 Y38.32
N1450 G2 X-216.467 Y38.331 I2.973 J0.402
N1455 G1 X-216.565 Y39.075
N1460 G2 X-216.567 Y39.087 I2.974 J0.392
N1465 G1 X-216.656 Y39.781
N1470 X-216.738 Y40.421
N1475 X-216.816 Y40.998
N1480 X-216.891 Y41.511
N1485 X-216.965 Y41.959
N1490 X-217.038 Y42.337
N1495 X-217.108 Y42.638
N1500 X-217.17 Y42.856
N1505 X-217.218 Y42.989
N1510 X-217.231 Y43.018
N1515 X-217.275 Y43.047
N1520 X-217.425 Y43.128
N1525 X-217.66 Y43.233
N1530 X-217.977 Y43.352
N1535 X-218.364 Y43.476
N1540 X-218.817 Y43.601
N1545 X-219.329 Y43.725
N1550 X-219.928 Y43.852
N1555 G2 X-220.866 Y44.224 I0.622 J2.935
N1560 G1 Z-6.237
N1565 G2 X-222.306 Y46.786 I1.56 J2.562
N1570 G1 Y54.188
N1575 G2 X-221.51 Y56.224 I3
N1580 G1 Z-9.237 F30
N1585 G2 X-219.526 Y57.18 I2.204 J-2.036 F1397
N1590 G1 X-217.442 Y57.334
N1595 X-215.701 Y57.477
N1600 X-214.262 Y57.611
N1605 X-213.09 Y57.735
N1610 X-212.155 Y57.848
N1615 X-211.424 Y57.951
N1620 X-210.86 Y58.042
N1625 X-210.435 Y58.121
N1630 X-209.644 Y58.291
N1635 X-208.81 Y58.489
N1640 X-208.801 Y58.491
N1645 X-207.84 Y58.716
N1650 G2 X-207.779 Y58.73 I0.684 J-2.921
N1655 G1 X-206.627 Y58.974
N1660 G2 X-206.569 Y58.986 I0.623 J-2.935
N1665 G1 X-205.892 Y59.116
N1670 G2 X-205.85 Y59.124 I0.565 J-2.946
N1675 G1 X-205.088 Y59.259
N1680 G2 X-205.049 Y59.265 I0.523 J-2.954
N1685 G1 X-204.193 Y59.405
N1690 G2 X-204.156 Y59.411 I0.484 J-2.961
N1695 G1 X-203.194 Y59.556
N1700 G2 X-203.159 Y59.561 I0.447 J-2.967
N1705 G1 X-202.127 Y59.704
N1710 G2 X-202.095 Y59.708 I0.412 J-2.972
N1715 G1 X-201.016 Y59.846
N1720 G2 X-200.985 Y59.85 I0.38 J-2.976
N1725 G1 X-199.863 Y59.981
N1730 G2 X-199.833 Y59.985 I0.349 J-2.98
N1735 G1 X-198.671 Y60.109
N1740 G2 X-198.641 Y60.112 I0.319 J-2.983
N1745 G1 X-197.442 Y60.228
N1750 G2 X-197.412 Y60.231 I0.289 J-2.986
N1755 G1 X-196.182 Y60.338
N1760 G2 X-196.152 Y60.34 I0.259 J-2.989
N1765 G1 X-194.894 Y60.436
N1770 G2 X-194.863 Y60.438 I0.229 J-2.991
N1775 G1 X-193.581 Y60.523
N1780 G2 X-193.55 Y60.525 I0.198 J-2.993
N1785 G1 X-192.247 Y60.598
N1790 G2 X-192.214 Y60.599 I0.167 J-2.995
N1795 G1 X-190.896 Y60.658
N1800 G2 X-190.863 Y60.66 I0.134 J-2.997
N1805 G1 X-189.531 Y60.705
N1810 G2 X-189.495 I0.101 J-2.998
N1815 G1 X-188.157 Y60.735
N1820 G2 X-188.121 I0.065 J-2.999
N1825 G1 X-186.801 Y60.748
N1830 G2 X-186.762 I0.029 J-3
N1835 G1 X-185.471 Y60.744
N1840 G2 X-185.432 I-0.01 J-3
N1845 G1 X-184.169 Y60.723
N1850 G2 X-184.127 Y60.722 I-0.049 J-3
N1855 G1 X-182.893 Y60.684
N1860 G2 X-182.849 Y60.683 I-0.091 J-2.999
N1865 G1 X-181.642 Y60.628
N1870 G2 X-181.596 Y60.626 I-0.135 J-2.997
N1875 G1 X-180.417 Y60.554
N1880 G2 X-180.369 Y60.551 I-0.181 J-2.995
N1885 G1 X-179.219 Y60.463
N1890 G2 X-179.168 Y60.459 I-0.229 J-2.991
N1895 G1 X-178.045 Y60.353
N1900 G2 X-177.992 Y60.348 I-0.28 J-2.987
N1905 G1 X-176.897 Y60.226
N1910 G2 X-176.843 Y60.219 I-0.333 J-2.981
N1915 G1 X-175.775 Y60.08
N1920 G2 X-175.716 Y60.072 I-0.387 J-2.975
N1925 G1 X-174.677 Y59.916
N1930 G2 X-174.618 Y59.906 I-0.446 J-2.967
N1935 G1 X-173.612 Y59.734
N1940 G2 X-173.55 Y59.723 I-0.505 J-2.957
N1945 G1 X-172.586 Y59.538
N1950 G2 X-172.526 Y59.526 I-0.567 J-2.946
N1955 G1 X-171.6 Y59.328
N1960 G2 X-171.539 Y59.314 I-0.627 J-2.934
N1965 G1 X-170.651 Y59.105
N1970 G2 X-170.592 Y59.09 I-0.688 J-2.92
N1975 G1 X-169.739 Y58.871
N1980 G2 X-169.68 Y58.855 I-0.747 J-2.906
N1985 G1 X-168.861 Y58.627
N1990 G2 X-168.804 Y58.61 I-0.806 J-2.89
N1995 G1 X-168.017 Y58.374
N2000 G2 X-167.963 Y58.357 I-0.863 J-2.873
N2005 G1 X-167.205 Y58.114
N2010 G2 X-167.152 Y58.096 I-0.917 J-2.856
N2015 G1 X-166.423 Y57.847
N2020 G2 X-166.374 Y57.83 I-0.97 J-2.839
N2025 G1 X-165.671 Y57.576
N2030 G2 X-165.624 Y57.558 I-1.019 J-2.821
N2035 G1 X-164.946 Y57.301
N2040 G2 X-164.887 Y57.277 I-1.066 J-2.804
N2045 G1 X-163.597 Y56.755
N2050 G2 X-163.536 Y56.73 I-1.125 J-2.781
N2055 G1 X-162.37 Y56.228
N2060 G2 X-162.34 Y56.215 I-1.186 J-2.756
N2065 G1 X-161.373 Y55.786
N2070 X-160.602 Y55.451
N2075 X-159.996 Y55.211
N2080 X-159.794 Y55.142
N2085 X-159.612 Y55.09
N2090 X-159.46 Y55.054
N2095 X-159.323 Y55.031
N2100 X-159.186 Y55.017
N2105 X-159.022 Y55.01
N2110 X-158.786 Y55.013
N2115 X-158.459 Y55.03
N2120 X-157.403 Y55.116
N2125 X-155.793 Y55.27
N2130 X-155.787 Y55.271
N2135 X-153.469 Y55.487
N2140 G2 X-153.447 Y55.489 I0.279 J-2.987
N2145 G1 X-150.257 Y55.763
N2150 G2 X-149.743 I0.257 J-2.989
N2155 G1 X-146.553 Y55.489
N2160 G2 X-146.531 Y55.487 I-0.257 J-2.989
N2165 G1 X-144.213 Y55.271
N2170 X-144.207 Y55.27
N2175 X-142.597 Y55.116
N2180 X-141.541 Y55.03
N2185 X-141.214 Y55.013
N2190 X-140.978 Y55.01
N2195 X-140.814 Y55.017
N2200 X-140.677 Y55.031
N2205 X-140.54 Y55.054
N2210 X-140.388 Y55.09
N2215 X-140.206 Y55.142
N2220 X-140.004 Y55.211
N2225 X-139.398 Y55.451
N2230 X-138.627 Y55.786
N2235 X-137.66 Y56.215
N2240 G2 X-137.63 Y56.228 I1.216 J-2.742
N2245 G1 X-136.464 Y56.73
N2250 G2 X-136.403 Y56.755 I1.186 J-2.756
N2255 G1 X-135.113 Y57.277
N2260 G2 X-135.054 Y57.301 I1.125 J-2.781
N2265 G1 X-134.376 Y57.558
N2270 G2 X-134.329 Y57.576 I1.066 J-2.804
N2275 G1 X-133.626 Y57.83
N2280 G2 X-133.577 Y57.847 I1.019 J-2.821
N2285 G1 X-132.848 Y58.096
N2290 G2 X-132.795 Y58.114 I0.97 J-2.839
N2295 G1 X-132.037 Y58.357
N2300 G2 X-131.983 Y58.374 I0.917 J-2.856
N2305 G1 X-131.196 Y58.61
N2310 G2 X-131.139 Y58.627 I0.863 J-2.873
N2315 G1 X-130.32 Y58.855
N2320 G2 X-130.261 Y58.871 I0.806 J-2.89
N2325 G1 X-129.408 Y59.09
N2330 G2 X-129.349 Y59.105 I0.747 J-2.906
N2335 G1 X-128.461 Y59.314
N2340 G2 X-128.4 Y59.328 I0.688 J-2.92
N2345 G1 X-127.474 Y59.526
N2350 G2 X-127.414 Y59.538 I0.627 J-2.934
N2355 G1 X-126.45 Y59.723
N2360 G2 X-126.388 Y59.734 I0.567 J-2.946
N2365 G1 X-125.382 Y59.906
N2370 G2 X-125.323 Y59.916 I0.505 J-2.957
N2375 G1 X-124.284 Y60.072
N2380 G2 X-124.225 Y60.08 I0.446 J-2.967
N2385 G1 X-123.157 Y60.219
N2390 G2 X-123.103 Y60.226 I0.387 J-2.975
N2395 G1 X-122.008 Y60.348
N2400 G2 X-121.955 Y60.353 I0.333 J-2.981
N2405 G1 X-120.832 Y60.459
N2410 G2 X-120.781 Y60.463 I0.28 J-2.987
N2415 G1 X-119.631 Y60.551
N2420 G2 X-119.583 Y60.554 I0.229 J-2.991
N2425 G1 X-118.404 Y60.626
N2430 G2 X-118.358 Y60.628 I0.181 J-2.995
N2435 G1 X-117.151 Y60.683
N2440 G2 X-117.107 Y60.684 I0.135 J-2.997
N2445 G1 X-115.873 Y60.722
N2450 G2 X-115.831 Y60.723 I0.091 J-2.999
N2455 G1 X-114.568 Y60.744
N2460 G2 X-114.529 I0.049 J-3
N2465 G1 X-113.238 Y60.748
N2470 G2 X-113.199 I0.01 J-3
N2475 G1 X-111.879 Y60.735
N2480 G2 X-111.843 I-0.029 J-3
N2485 G1 X-110.505 Y60.705
N2490 G2 X-110.469 I-0.065 J-2.999
N2495 G1 X-109.137 Y60.66
N2500 G2 X-109.104 Y60.658 I-0.101 J-2.998
N2505 G1 X-107.786 Y60.599
N2510 G2 X-107.753 Y60.598 I-0.134 J-2.997
N2515 G1 X-106.45 Y60.525
N2520 G2 X-106.419 Y60.523 I-0.167 J-2.995
N2525 G1 X-105.137 Y60.438
N2530 G2 X-105.106 Y60.436 I-0.198 J-2.993
N2535 G1 X-103.848 Y60.34
N2540 G2 X-103.818 Y60.338 I-0.229 J-2.991
N2545 G1 X-102.588 Y60.231
N2550 G2 X-102.558 Y60.228 I-0.259 J-2.989
N2555 G1 X-101.359 Y60.112
N2560 G2 X-101.329 Y60.109 I-0.289 J-2.986
N2565 G1 X-100.167 Y59.985
N2570 G2 X-100.137 Y59.981 I-0.319 J-2.983
N2575 G1 X-99.014 Y59.85
N2580 G2 X-98.983 Y59.846 I-0.349 J-2.98
N2585 G1 X-97.904 Y59.708
N2590 G2 X-97.872 Y59.704 I-0.38 J-2.976
N2595 G1 X-96.841 Y59.561
N2600 G2 X-96.807 Y59.556 I-0.412 J-2.972
N2605 G1 X-95.845 Y59.411
N2610 G2 X-95.808 Y59.405 I-0.446 J-2.967
N2615 G1 X-94.951 Y59.265
N2620 G2 X-94.911 Y59.258 I-0.484 J-2.961
N2625 G1 X-94.15 Y59.124
N2630 G2 X-94.109 Y59.116 I-0.524 J-2.954
N2635 G1 X-93.431 Y58.986
N2640 G2 X-93.373 Y58.974 I-0.565 J-2.946
N2645 G1 X-92.221 Y58.73
N2650 G2 X-92.16 Y58.716 I-0.623 J-2.935
N2655 G1 X-91.199 Y58.491
N2660 X-91.19 Y58.489
N2665 X-90.356 Y58.291
N2670 X-89.564 Y58.121
N2675 X-89.14 Y58.042
N2680 X-88.576 Y57.951
N2685 X-87.845 Y57.848
N2690 X-86.91 Y57.735
N2695 X-85.739 Y57.611
N2700 X-84.299 Y57.477
N2705 X-82.558 Y57.334
N2710 X-80.474 Y57.18
N2715 G2 X-78.67 Y56.403 I-0.22 J-2.992
N2720 G1 Z-6.237
N2725 G2 X-77.694 Y54.188 I-2.024 J-2.215
N2730 G1 Y46.786
N2735 G2 X-78.872 Y44.403 I-3
N2740 G1 Z-9.237 F30
N2745 G2 X-80.072 Y43.852 I-1.822 J2.383 F1397
N2750 G1 X-80.671 Y43.725
N2755 X-81.183 Y43.601
N2760 X-81.635 Y43.476
N2765 X-82.023 Y43.352
N2770 X-82.339 Y43.233
N2775 X-82.575 Y43.128
N2780 X-82.726 Y43.046
N2785 X-82.769 Y43.018
N2790 X-82.782 Y42.989
N2795 X-82.83 Y42.855
N2800 X-82.893 Y42.637
N2805 X-82.962 Y42.337
N2810 X-83.035 Y41.96
N2815 X-83.109 Y41.512
N2820 X-83.184 Y40.998
N2825 X-83.262 Y40.42
N2830 X-83.345 Y39.781
N2835 X-83.434 Y39.086
N2840 X-83.435 Y39.078
N2845 X-83.532 Y38.334
N2850 G2 X-83.534 Y38.317 I-2.975 J0.389
N2855 G1 X-83.642 Y37.526
N2860 G2 X-83.645 Y37.501 I-2.973 J0.405
N2865 G1 X-83.766 Y36.668
N2870 G2 X-83.771 Y36.635 I-2.969 J0.43
N2875 G1 X-83.907 Y35.762
N2880 G2 X-83.914 Y35.723 I-2.964 J0.463
N2885 G1 X-84.068 Y34.815
N2890 G2 X-84.076 Y34.77 I-2.958 J0.502
N2895 G1 X-84.251 Y33.83
N2900 G2 X-84.261 Y33.778 I-2.95 J0.548
N2905 G1 X-84.458 Y32.812
N2910 G2 X-84.471 Y32.754 I-2.939 J0.6
N2915 G1 X-84.693 Y31.763
N2920 G2 X-84.708 Y31.7 I-2.927 J0.658
N2925 G1 X-84.959 Y30.689
N2930 G2 X-84.977 Y30.62 I-2.912 J0.721
N2935 G1 X-85.257 Y29.592
N2940 G2 X-85.279 Y29.518 I-2.894 J0.791
N2945 G1 X-85.592 Y28.478
N2950 G2 X-85.618 Y28.397 I-2.872 J0.865
N2955 G1 X-85.966 Y27.349
N2960 G2 X-85.996 Y27.263 I-2.847 J0.946
N2965 G1 X-86.382 Y26.209
N2970 G2 X-86.417 Y26.117 I-2.817 J1.032
N2975 G1 X-86.852 Y25.042
N2980 G2 X-86.883 Y24.968 I-2.782 J1.124
N2985 G1 X-87.124 Y24.413
N2990 G2 X-87.148 Y24.36 I-2.751 J1.197
N2995 G1 X-87.406 Y23.796
N3000 G2 X-87.432 Y23.742 I-2.727 J1.25
N3005 G1 X-87.709 Y23.169
N3010 G2 X-87.737 Y23.112 I-2.701 J1.305
N3015 G1 X-88.032 Y22.532
N3020 G2 X-88.063 Y22.473 I-2.673 J1.362
N3025 G1 X-88.378 Y21.888
N3030 G2 X-88.412 Y21.827 I-2.642 J1.421
N3035 G1 X-88.747 Y21.238
N3040 G2 X-88.783 Y21.175 I-2.608 J1.482
N3045 G1 X-89.139 Y20.583
N3050 G2 X-89.179 Y20.518 I-2.572 J1.545
N3055 G1 X-89.557 Y19.924
N3060 G2 X-89.6 Y19.858 I-2.532 J1.61
N3065 G1 X-90.001 Y19.264
N3070 G2 X-90.047 Y19.196 I-2.489 J1.675
N3075 G1 X-90.471 Y18.603
N3080 G2 X-90.521 Y18.535 I-2.442 J1.743
N3085 G1 X-90.968 Y17.943
N3090 G2 X-91.022 Y17.874 I-2.392 J1.81
N3095 G1 X-91.495 Y17.286
N3100 G2 X-91.552 Y17.217 I-2.338 J1.879
N3105 G1 X-92.05 Y16.634
N3110 G2 X-92.111 Y16.565 I-2.281 J1.948
N3115 G1 X-92.631 Y15.993
N3120 G2 X-92.694 Y15.925 I-2.22 J2.018
N3125 G1 X-93.23 Y15.372
N3130 G2 X-93.296 Y15.305 I-2.156 J2.086
N3135 G1 X-93.846 Y14.77
N3140 G2 X-93.915 Y14.706 I-2.09 J2.152
N3145 G1 X-94.481 Y14.19
N3150 G2 X-94.552 Y14.127 I-2.021 J2.217
N3155 G1 X-95.132 Y13.631
N3160 G2 X-95.205 Y13.57 I-1.95 J2.279
N3165 G1 X-95.8 Y13.093
N3170 G2 X-95.875 Y13.034 I-1.878 J2.34
N3175 G1 X-96.485 Y12.576
N3180 G2 X-96.562 Y12.52 I-1.802 J2.398
N3185 G1 X-97.185 Y12.082
N3190 G2 X-97.264 Y12.028 I-1.726 J2.454
N3195 G1 X-97.902 Y11.609
N3200 G2 X-97.981 Y11.559 I-1.647 J2.508
N3205 G1 X-98.632 Y11.16
N3210 G2 X-98.716 Y11.11 I-1.568 J2.558
N3215 G1 X-99.382 Y10.731
N3220 G2 X-99.463 Y10.687 I-1.484 J2.607
N3225 G1 X-100.141 Y10.328
N3230 G2 X-100.227 Y10.285 I-1.403 J2.652
N3235 G1 X-100.92 Y9.946
N3240 G2 X-101.004 Y9.907 I-1.317 J2.695
N3245 G1 X-101.714 Y9.587
N3250 G2 X-101.802 Y9.548 I-1.233 J2.735
N3255 G1 X-102.532 Y9.247
N3260 G2 X-102.621 Y9.212 I-1.145 J2.773
N3265 G1 X-103.37 Y8.93
N3270 G2 X-103.462 Y8.897 I-1.056 J2.808
N3275 G1 X-104.23 Y8.637
N3280 G2 X-104.323 Y8.607 I-0.964 J2.841
N3285 G1 X-105.109 Y8.369
N3290 G2 X-105.204 Y8.341 I-0.871 J2.871
N3295 G1 X-106.008 Y8.126
N3300 G2 X-106.103 Y8.102 I-0.776 J2.898
N3305 G1 X-106.924 Y7.911
N3310 G2 X-107.023 Y7.89 I-0.681 J2.922
N3315 G1 X-107.862 Y7.724
N3320 G2 X-107.961 Y7.706 I-0.582 J2.943
N3325 G1 X-108.817 Y7.566
N3330 G2 X-108.917 Y7.551 I-0.483 J2.961
N3335 G1 X-109.789 Y7.439
N3340 G2 X-109.89 Y7.428 I-0.383 J2.975
N3345 G1 X-110.778 Y7.344
N3350 G2 X-110.88 Y7.336 I-0.282 J2.987
N3355 G1 X-111.782 Y7.282
N3360 G2 X-111.884 Y7.277 I-0.18 J2.995
N3365 G1 X-112.79 Y7.254
N3370 G2 X-112.89 Y7.253 I-0.078 J2.999
N3375 G1 X-113.796 Y7.26
N3380 G2 X-113.894 Y7.262 I0.022 J3
N3385 G1 X-114.798 Y7.298
N3390 G2 X-114.893 Y7.303 I0.12 J2.998
N3395 G1 X-115.796 Y7.368
N3400 G2 X-115.889 Y7.376 I0.215 J2.992
N3405 G1 X-116.789 Y7.469
N3410 G2 X-116.879 Y7.48 I0.308 J2.984
N3415 G1 X-117.776 Y7.6
N3420 G2 X-117.864 Y7.613 I0.398 J2.973
N3425 G1 X-118.761 Y7.761
N3430 G2 X-118.848 Y7.776 I0.486 J2.96
N3435 G1 X-119.744 Y7.95
N3440 G2 X-119.828 Y7.968 I0.573 J2.945
N3445 G1 X-120.722 Y8.169
N3450 G2 X-120.807 Y8.189 I0.657 J2.927
N3455 G1 X-121.696 Y8.416
N3460 G2 X-121.778 Y8.438 I0.742 J2.907
N3465 G1 X-122.662 Y8.69
N3470 G2 X-122.743 Y8.715 I0.824 J2.885
N3475 G1 X-123.621 Y8.992
N3480 G2 X-123.701 Y9.019 I0.905 J2.86
N3485 G1 X-124.571 Y9.321
N3490 G2 X-124.652 Y9.351 I0.985 J2.834
N3495 G1 X-125.512 Y9.678
N3500 G2 X-125.591 Y9.709 I1.066 J2.804
N3505 G1 X-126.441 Y10.06
N3510 G2 X-126.521 Y10.095 I1.145 J2.773
N3515 G1 X-127.358 Y10.469
N3520 G2 X-127.437 Y10.506 I1.225 J2.738
N3525 G1 X-128.261 Y10.903
N3530 G2 X-128.34 Y10.943 I1.304 J2.702
N3535 G1 X-129.149 Y11.363
N3540 G2 X-129.229 Y11.406 I1.383 J2.662
N3545 G1 X-130.014 Y11.845
N3550 G2 X-130.089 Y11.888 I1.463 J2.619
N3555 G1 X-130.838 Y12.336
N3560 G2 X-130.915 Y12.383 I1.538 J2.576
N3565 G1 X-131.626 Y12.837
N3570 G2 X-131.698 Y12.885 I1.615 J2.528
N3575 G1 X-132.374 Y13.344
N3580 G2 X-132.444 Y13.394 I1.687 J2.481
N3585 G1 X-133.085 Y13.857
N3590 G2 X-133.151 Y13.906 I1.757 J2.431
N3595 G1 X-133.759 Y14.371
N3600 G2 X-133.825 Y14.423 I1.823 J2.383
N3605 G1 X-134.399 Y14.888
N3610 G2 X-134.46 Y14.939 I1.889 J2.33
N3615 G1 X-135.002 Y15.403
N3620 G2 X-135.062 Y15.455 I1.95 J2.28
N3625 G1 X-135.572 Y15.916
N3630 G2 X-135.624 Y15.964 I2.01 J2.227
N3635 G1 X-136.105 Y16.419
N3640 G2 X-136.161 Y16.473 I2.062 J2.179
N3645 G1 X-136.611 Y16.921
N3650 G2 X-136.658 Y16.97 I2.118 J2.125
N3655 G1 X-137.08 Y17.41
N3660 G2 X-137.124 Y17.456 I2.165 J2.077
N3665 G1 X-137.519 Y17.886
N3670 G2 X-137.563 Y17.936 I2.209 J2.03
N3675 G1 X-137.93 Y18.353
N3680 G2 X-137.987 Y18.419 I2.253 J1.98
N3685 G1 X-138.655 Y19.225
N3690 G2 X-138.71 Y19.294 I2.31 J1.915
N3695 G1 X-139.033 Y19.708
N3700 G2 X-139.066 Y19.751 I2.365 J1.845
N3705 G1 X-139.387 Y20.178
N3710 G2 X-139.42 Y20.222 I2.398 J1.803
N3715 G1 X-139.739 Y20.663
N3720 G2 X-139.774 Y20.713 I2.431 J1.758
N3725 G1 X-140.09 Y21.169
N3730 G2 X-140.119 Y21.212 I2.466 J1.709
N3735 G1 X-140.434 Y21.684
N3740 G2 X-140.465 Y21.731 I2.495 J1.666
N3745 G1 X-140.778 Y22.22
N3750 G2 X-140.809 Y22.268 I2.526 J1.618
N3755 G1 X-141.12 Y22.775
N3760 G2 X-141.145 Y22.816 I2.557 J1.57
N3765 G1 X-141.455 Y23.342
N3770 G2 X-141.48 Y23.383 I2.581 J1.528
N3775 G1 X-141.791 Y23.928
N3780 G2 X-141.816 Y23.973 I2.606 J1.487
N3785 G1 X-142.126 Y24.539
N3790 G2 X-142.148 Y24.58 I2.631 J1.442
N3795 G1 X-142.458 Y25.167
N3800 G2 X-142.479 Y25.209 I2.653 J1.4
N3805 G1 X-142.789 Y25.818
N3810 G2 X-142.818 Y25.876 I2.674 J1.359
N3815 G1 X-143.44 Y27.167
N3820 G2 X-143.473 Y27.238 I2.703 J1.302
N3825 G1 X-144.1 Y28.631
N3830 G2 X-144.128 Y28.696 I2.736 J1.231
N3835 G1 X-144.762 Y30.198
N3840 G2 X-144.786 Y30.258 I2.764 J1.166
N3845 G1 X-145.429 Y31.877
N3850 G2 X-145.449 Y31.93 I2.788 J1.107
N3855 G1 X-146.104 Y33.674
N3860 G2 X-146.122 Y33.721 I2.808 J1.055
N3865 G1 X-146.777 Y35.559
N3870 G2 X-146.793 Y35.605 I2.826 J1.007
N3875 G1 X-147.391 Y37.374
N3880 G2 X-147.406 Y37.421 I2.842 J0.961
N3885 G1 X-147.662 Y38.222
N3890 G2 X-147.675 Y38.262 I2.857 J0.914
N3895 G1 X-147.892 Y38.975
N3900 G2 X-147.911 Y39.038 I2.87 J0.873
N3905 G1 X-148.08 Y39.641
N3910 G2 X-148.109 Y39.753 I2.889 J0.81
N3915 G1 X-148.22 Y40.216
N3920 G2 X-148.258 Y40.404 I2.918 J0.699
N3925 G1 X-148.313 Y40.722
N3930 G2 X-148.354 Y41.094 I2.956 J0.511
N3935 G1 X-148.364 Y41.309
N3940 G2 X-148.333 Y41.895 I2.997 J0.139
N3945 G1 X-148.309 Y42.055
N3950 G2 X-148.244 Y42.371 I2.966 J-0.447
N3955 G3 X-148.672 Y43.104 I-0.58 J0.153
N3960 G1 X-149.252 Y43.256
N3965 X-149.343 Y43.28 Z-9.23
N3970 X-149.431 Y43.304 Z-9.208
N3975 X-149.516 Y43.326 Z-9.172
N3980 X-149.593 Y43.346 Z-9.123
N3985 X-149.662 Y43.364 Z-9.061
N3990 X-149.722 Y43.38 Z-8.99
N3995 X-149.769 Y43.392 Z-8.91
N4000 X-149.804 Y43.402 Z-8.823
N4005 X-149.825 Y43.407 Z-8.731
N4010 X-149.832 Y43.409 Z-8.637
N4015 G0 Z15
N4020 G28
N4025 M30
%
