%
(4004)
(everything)
(T1 D=6 CR=0 - ZMIN=-18.616 - flat end mill)
(T2 D=6 CR=0 - ZMIN=-4.211 - flat end mill)
N10 G90 G94
N15 G17
N20 G21
N25 M9
N30 G28

(T1 pin holes)
N35 T1 M6
N40 T2
N45 S7760 M3
N50 G54
N55 G0 X-226.832 Y33.517
N60 G43 Z15
N65 Z5.384
N70 G98 G81 X-226.832 Y33.517 Z-18.616 R5.384 F30
N75 X-73.168
N80 G80
N85 G0 Z15
N90 M5
N95 G28

(T2 back frame)
N100 M1
N105 T2 M6
N110 T1
N115 S7760 M3
N120 G54
N125 G0 X-95.767 Y21.865
N130 G43 Z15
N135 Z0.025
N140 G1 Z-1.364 F1397
N145 X-95.763 Y21.872 Z-1.46
N150 X-95.751 Y21.891 Z-1.553
N155 X-95.731 Y21.923 Z-1.641
N160 X-95.704 Y21.966 Z-1.722
N165 X-95.67 Y22.019 Z-1.794
N170 X-95.631 Y22.082 Z-1.855
N175 X-95.587 Y22.152 Z-1.904
N180 X-95.539 Y22.227 Z-1.939
N185 X-95.489 Y22.306 Z-1.959
N190 X-95.438 Y22.387 Z-1.964
N195 X-95.195 Y22.773 Z-1.951
N200 X-94.821 Y23.394 Z-1.931
N205 X-94.458 Y24.043 Z-1.911
N210 X-94.127 Y24.637 Z-1.893
N215 X-93.76 Y25.352 Z-1.873
N220 X-93.528 Y25.809 Z-1.86
N225 X-92.993 Y26.943 Z-1.829
N230 X-92.803 Y27.369 Z-1.817
N235 X-92.474 Y28.14 Z-1.797
N240 X-92.012 Y29.296 Z-1.767
N245 X-91.655 Y30.261 Z-1.742
N250 X-91.542 Y30.585 Z-1.734
N255 X-91.193 Y31.628 Z-1.709
N260 X-90.838 Y32.792 Z-1.681
N265 X-90.519 Y33.958 Z-1.655
N270 X-90.251 Y35.054 Z-1.631
N275 X-90.027 Y36.099 Z-1.609
N280 X-89.986 Y36.301 Z-1.605
N285 X-89.777 Y37.463 Z-1.582
N290 X-89.613 Y38.605 Z-1.56
N295 X-89.489 Y39.771 Z-1.541
N300 X-89.455 Y40.282 Z-1.533
N305 X-89.411 Y40.972 Z-1.522
N310 X-89.403 Y41.299 Z-1.518
N315 X-89.39 Y42.188 Z-1.506
N320 X-89.401 Y42.541 Z-1.502
N325 X-89.44 Y43.457 Z-1.493
N330 X-89.496 Y44.097 Z-1.488
N335 X-89.579 Y44.744 Z-1.485
N340 X-89.694 Y45.403 Z-1.484
N345 X-89.842 Y46.067 Z-1.485
N350 X-89.952 Y46.463 Z-1.487
N355 X-90.035 Y46.754 Z-1.489
N360 X-90.088 Y46.914 Z-1.49
N365 X-90.287 Y47.462 Z-1.497
N370 X-90.369 Y47.661 Z-1.499
N375 X-90.681 Y48.333 Z-1.512
N380 X-90.823 Y48.598 Z-1.518
N385 X-91.029 Y48.955 Z-1.527
N390 X-91.176 Y49.185 Z-1.534
N395 X-91.355 Y49.449 Z-1.543
N400 X-91.562 Y49.73 Z-1.553
N405 X-91.722 Y49.925 Z-1.562
N410 X-92.181 Y50.449 Z-1.586
N415 X-92.359 Y50.632 Z-1.596
N420 X-92.654 Y50.912 Z-1.613
N425 X-92.965 Y51.182 Z-1.632
N430 X-93.141 Y51.322 Z-1.642
N435 X-93.632 Y51.693 Z-1.672
N440 X-93.848 Y51.842 Z-1.686
N445 X-94.14 Y52.034 Z-1.704
N450 X-94.595 Y52.306 Z-1.733
N455 X-95.042 Y52.55 Z-1.763
N460 X-95.401 Y52.727 Z-1.787
N465 X-95.735 Y52.889 Z-1.809
N470 X-96.104 Y53.048 Z-1.833
N475 X-96.457 Y53.197 Z-1.856
N480 X-96.836 Y53.344 Z-1.88
N485 X-97.619 Y53.623 Z-1.93
N490 X-97.94 Y53.722 Z-1.95
N495 X-98.828 Y53.988 Z-2.006
N500 X-99.166 Y54.075 Z-2.029
N505 X-100.064 Y54.298 Z-2.086
N510 X-101.013 Y54.497 Z-2.148
N515 X-101.293 Y54.554 Z-2.166
N520 X-102.46 Y54.756 Z-2.241
N525 X-103.619 Y54.921 Z-2.313
N530 X-104.776 Y55.058 Z-2.383
N535 X-105.925 Y55.166 Z-2.451
N540 X-107.072 Y55.25 Z-2.521
N545 X-108.215 Y55.31 Z-2.589
N550 X-109.355 Y55.349 Z-2.657
N555 X-110.519 Y55.369 Z-2.72
N560 X-111.632 Y55.37 Z-2.781
N565 X-112.82 Y55.35 Z-2.847
N570 X-113.959 Y55.313 Z-2.909
N575 X-115.093 Y55.259 Z-2.97
N580 X-116.207 Y55.187 Z-3.027
N585 X-117.314 Y55.099 Z-3.081
N590 X-118.478 Y54.989 Z-3.138
N595 X-119.619 Y54.862 Z-3.194
N600 X-120.732 Y54.719 Z-3.248
N605 X-121.874 Y54.551 Z-3.302
N610 X-123.019 Y54.363 Z-3.352
N615 X-124.167 Y54.15 Z-3.4
N620 X-125.32 Y53.912 Z-3.451
N625 X-126.473 Y53.646 Z-3.501
N630 X-127.489 Y53.386 Z-3.545
N635 X-127.998 Y53.243 Z-3.566
N640 X-128.814 Y53.008 Z-3.597
N645 X-129.946 Y52.644 Z-3.64
N650 X-130.698 Y52.371 Z-3.669
N655 X-131.167 Y52.198 Z-3.688
N660 X-131.897 Y51.895 Z-3.717
N665 X-132.424 Y51.671 Z-3.739
N670 X-133.521 Y51.144 Z-3.783
N675 X-133.784 Y51.007 Z-3.793
N680 X-134.793 Y50.422 Z-3.829
N685 X-135.028 Y50.272 Z-3.838
N690 X-135.436 Y49.998 Z-3.853
N695 X-135.918 Y49.646 Z-3.872
N700 X-136.17 Y49.449 Z-3.883
N705 X-136.347 Y49.299 Z-3.89
N710 X-136.744 Y48.951 Z-3.908
N715 X-136.866 Y48.836 Z-3.913
N720 X-137.331 Y48.37 Z-3.935
N725 X-137.504 Y48.18 Z-3.943
N730 X-137.663 Y47.996 Z-3.951
N735 X-137.904 Y47.698 Z-3.962
N740 X-138.134 Y47.388 Z-3.972
N745 X-138.433 Y46.931 Z-3.986
N750 X-138.571 Y46.704 Z-3.993
N755 X-141.748 Y48.43 Z-4.004
N760 X-141.87 Y48.364 Z-4.007
N765 X-142.457 Y48.654 Z-4.009
N770 X-143.161 Y48.96 Z-4.012
N775 X-143.695 Y49.165 Z-4.015
N780 X-144.313 Y49.37 Z-4.018
N785 X-144.862 Y49.526 Z-4.02
N790 X-145.521 Y49.687 Z-4.023
N795 X-146.248 Y49.831 Z-4.026
N800 X-146.958 Y49.942 Z-4.028
N805 X-147.758 Y50.042 Z-4.03
N810 X-148.6 Y50.122 Z-4.028
N815 X-150 Y50.204
N820 X-151.435 Y50.119
N825 X-152.335 Y50.032 Z-4.03
N830 X-153.295 Y49.906 Z-4.027
N835 X-154.047 Y49.776 Z-4.025
N840 X-154.746 Y49.625 Z-4.022
N845 X-155.37 Y49.463 Z-4.019
N850 X-156.036 Y49.258 Z-4.016
N855 X-156.614 Y49.05 Z-4.013
N860 X-157.173 Y48.819 Z-4.01
N865 X-157.78 Y48.541 Z-4.009
N870 X-158.13 Y48.364 Z-4.007
N875 X-158.252 Y48.43 Z-4.004
N880 X-161.429 Y46.704 Z-3.993
N885 X-161.619 Y47.012 Z-3.984
N890 X-161.851 Y47.367 Z-3.973
N895 X-162.063 Y47.655 Z-3.964
N900 X-162.362 Y48.026 Z-3.95
N905 X-162.616 Y48.313 Z-3.937
N910 X-163.047 Y48.749 Z-3.917
N915 X-163.256 Y48.951 Z-3.907
N920 X-163.79 Y49.416 Z-3.884
N925 X-164.114 Y49.671 Z-3.871
N930 X-164.564 Y49.998 Z-3.853
N935 X-165.033 Y50.312 Z-3.835
N940 X-165.29 Y50.47 Z-3.826
N945 X-166.216 Y51.007 Z-3.793
N950 X-166.52 Y51.164 Z-3.782
N955 X-167.576 Y51.671 Z-3.739
N960 X-168.194 Y51.933 Z-3.713
N965 X-168.83 Y52.197 Z-3.688
N970 X-169.268 Y52.358 Z-3.671
N975 X-169.996 Y52.624 Z-3.642
N980 X-170.509 Y52.791 Z-3.623
N985 X-171.261 Y53.031 Z-3.594
N990 X-172.401 Y53.357 Z-3.55
N995 X-173.15 Y53.55 Z-3.518
N1000 X-173.616 Y53.667 Z-3.497
N1005 X-174.736 Y53.924 Z-3.448
N1010 X-175.884 Y54.16 Z-3.398
N1015 X-177.029 Y54.371 Z-3.349
N1020 X-178.179 Y54.56 Z-3.3
N1025 X-179.351 Y54.73 Z-3.244
N1030 X-180.482 Y54.874 Z-3.189
N1035 X-181.71 Y55.007 Z-3.128
N1040 X-182.783 Y55.107 Z-3.076
N1045 X-183.86 Y55.192 Z-3.024
N1050 X-184.997 Y55.264 Z-2.965
N1055 X-186.161 Y55.318 Z-2.902
N1060 X-187.321 Y55.353 Z-2.839
N1065 X-188.491 Y55.37 Z-2.773
N1070 X-189.575 Y55.368 Z-2.715
N1075 X-190.688 Y55.348 Z-2.654
N1080 X-191.83 Y55.308 Z-2.587
N1085 X-192.977 Y55.246 Z-2.518
N1090 X-194.127 Y55.162 Z-2.447
N1095 X-195.284 Y55.052 Z-2.377
N1100 X-196.442 Y54.913 Z-2.309
N1105 X-197.586 Y54.748 Z-2.238
N1110 X-198.735 Y54.549 Z-2.164
N1115 X-199.363 Y54.419 Z-2.124
N1120 X-199.969 Y54.29 Z-2.084
N1125 X-201.08 Y54.013 Z-2.012
N1130 X-201.378 Y53.927 Z-1.993
N1135 X-202.291 Y53.652 Z-1.935
N1140 X-202.553 Y53.562 Z-1.919
N1145 X-203.239 Y53.316 Z-1.876
N1150 X-203.65 Y53.153 Z-1.849
N1155 X-204.198 Y52.919 Z-1.813
N1160 X-204.491 Y52.78 Z-1.794
N1165 X-204.927 Y52.566 Z-1.765
N1170 X-205.36 Y52.331 Z-1.736
N1175 X-205.723 Y52.116 Z-1.713
N1180 X-205.954 Y51.974 Z-1.698
N1185 X-206.247 Y51.779 Z-1.68
N1190 X-206.415 Y51.658 Z-1.669
N1195 X-206.909 Y51.284 Z-1.639
N1200 X-207.083 Y51.14 Z-1.629
N1205 X-207.354 Y50.904 Z-1.613
N1210 X-207.657 Y50.615 Z-1.595
N1215 X-207.791 Y50.478 Z-1.588
N1220 X-207.889 Y50.37 Z-1.583
N1225 X-208.31 Y49.889 Z-1.56
N1230 X-208.438 Y49.73 Z-1.553
N1235 X-208.679 Y49.401 Z-1.541
N1240 X-208.89 Y49.086 Z-1.531
N1245 X-209.033 Y48.848 Z-1.524
N1250 X-209.217 Y48.53 Z-1.516
N1255 X-209.319 Y48.333 Z-1.512
N1260 X-209.631 Y47.661 Z-1.499
N1265 X-209.713 Y47.462 Z-1.497
N1270 X-209.912 Y46.914 Z-1.49
N1275 X-209.965 Y46.754 Z-1.489
N1280 X-210.123 Y46.205 Z-1.486
N1285 X-210.283 Y45.519 Z-1.484
N1290 X-210.404 Y44.855 Z-1.485
N1295 X-210.493 Y44.196 Z-1.487
N1300 X-210.554 Y43.549 Z-1.492
N1305 X-210.562 Y43.426 Z-1.493
N1310 X-210.608 Y42.312 Z-1.505
N1315 X-210.605 Y41.85 Z-1.511
N1320 X-210.593 Y41.092 Z-1.521
N1325 X-210.576 Y40.764 Z-1.526
N1330 X-210.52 Y39.875 Z-1.539
N1335 X-210.492 Y39.589 Z-1.544
N1340 X-210.387 Y38.605 Z-1.56
N1345 X-210.223 Y37.463 Z-1.582
N1350 X-210.014 Y36.301 Z-1.605
N1355 X-209.85 Y35.521 Z-1.621
N1360 X-209.749 Y35.054 Z-1.631
N1365 X-209.462 Y33.883 Z-1.656
N1370 X-209.142 Y32.725 Z-1.683
N1375 X-208.786 Y31.562 Z-1.71
N1380 X-208.402 Y30.421 Z-1.738
N1385 X-208.212 Y29.898 Z-1.751
N1390 X-207.966 Y29.236 Z-1.768
N1395 X-207.503 Y28.083 Z-1.798
N1400 X-207.135 Y27.227 Z-1.821
N1405 X-206.941 Y26.804 Z-1.833
N1410 X-206.447 Y25.757 Z-1.862
N1415 X-205.974 Y24.831 Z-1.888
N1420 X-205.804 Y24.512 Z-1.897
N1425 X-205.22 Y23.465 Z-1.929
N1430 X-204.805 Y22.773 Z-1.951
N1435 X-204.476 Y22.252 Z-1.968
N1440 X-204.046 Y21.615 Z-1.991
N1445 X-203.638 Y21.018 Z-2.012
N1450 X-203.385 Y20.683 Z-2.025
N1455 X-202.771 Y19.878 Z-2.056
N1460 X-202.482 Y19.525 Z-2.071
N1465 X-202.31 Y19.322 Z-2.08
N1470 X-201.703 Y18.638 Z-2.111
N1475 X-201.399 Y18.322 Z-2.126
N1480 X-201.11 Y18.025 Z-2.141
N1485 X-200.431 Y17.384 Z-2.176
N1490 X-200.171 Y17.157 Z-2.189
N1495 X-199.874 Y16.903 Z-2.204
N1500 X-199.677 Y16.75 Z-2.215
N1505 X-198.818 Y16.096 Z-2.259
N1510 X-198.585 Y15.933 Z-2.271
N1515 X-198.376 Y15.8 Z-2.282
N1520 X-197.392 Y15.195 Z-2.333
N1525 X-197.234 Y15.105 Z-2.342
N1530 X-196.6 Y14.777 Z-2.375
N1535 X-196.233 Y14.607 Z-2.395
N1540 X-195.935 Y14.472 Z-2.411
N1545 X-195.306 Y14.216 Z-2.445
N1550 X-194.703 Y14.001 Z-2.477
N1555 X-194.481 Y13.933 Z-2.489
N1560 X-193.458 Y13.635 Z-2.545
N1565 X-192.906 Y13.505 Z-2.576
N1570 X-192.66 Y13.451 Z-2.589
N1575 X-192.125 Y13.347 Z-2.619
N1580 X-191.542 Y13.258 Z-2.651
N1585 X-190.946 Y13.169 Z-2.683
N1590 X-190.628 Y13.135 Z-2.7
N1595 X-189.751 Y13.048 Z-2.747
N1600 X-189.384 Y13.025 Z-2.767
N1605 X-188.514 Y12.979 Z-2.814
N1610 X-187.939 Y12.97 Z-2.846
N1615 X-187.27 Y12.963 Z-2.882
N1620 X-186.129 Y12.991 Z-2.944
N1625 X-184.971 Y13.057 Z-3.006
N1630 X-184.335 Y13.113 Z-3.038
N1635 X-183.719 Y13.17 Z-3.069
N1640 X-182.595 Y13.306 Z-3.126
N1645 X-181.648 Y13.45 Z-3.174
N1650 X-181.058 Y13.557 Z-3.205
N1655 X-180.207 Y13.721 Z-3.249
N1660 X-179.07 Y13.981 Z-3.307
N1665 X-178.506 Y14.132 Z-3.333
N1670 X-177.788 Y14.328 Z-3.366
N1675 X-176.684 Y14.675 Z-3.419
N1680 X-176.292 Y14.816 Z-3.438
N1685 X-175.482 Y15.112 Z-3.478
N1690 X-175.194 Y15.23 Z-3.492
N1695 X-174.273 Y15.617 Z-3.538
N1700 X-173.83 Y15.822 Z-3.561
N1705 X-173.13 Y16.169 Z-3.592
N1710 X-172.833 Y16.326 Z-3.605
N1715 X-171.753 Y16.935 Z-3.654
N1720 X-171.4 Y17.154 Z-3.671
N1725 X-170.494 Y17.755 Z-3.715
N1730 X-169.701 Y18.342 Z-3.754
N1735 X-169.212 Y18.734 Z-3.779
N1740 X-168.253 Y19.573 Z-3.821
N1745 X-167.94 Y19.874 Z-3.836
N1750 X-167.027 Y20.814 Z-3.879
N1755 X-166.715 Y21.163 Z-3.894
N1760 X-165.98 Y22.05 Z-3.933
N1765 X-165.527 Y22.646 Z-3.956
N1770 X-165.046 Y23.329 Z-3.978
N1775 X-164.367 Y24.38 Z-4.013
N1780 X-164.104 Y24.837 Z-4.027
N1785 X-163.619 Y25.696 Z-4.05
N1790 X-163.115 Y26.695 Z-4.075
N1795 X-162.886 Y27.196 Z-4.086
N1800 X-162.484 Y28.112 Z-4.106
N1805 X-162.019 Y29.306 Z-4.128
N1810 X-161.798 Y29.943 Z-4.138
N1815 X-161.595 Y30.55 Z-4.147
N1820 X-161.243 Y31.744 Z-4.163
N1825 X-160.944 Y32.933 Z-4.176
N1830 X-160.703 Y34.075 Z-4.186
N1835 X-160.489 Y35.307 Z-4.192
N1840 X-160.329 Y36.48 Z-4.184
N1845 X-160.206 Y37.654 Z-4.174
N1850 X-160.12 Y38.833 Z-4.162
N1855 X-160.075 Y39.93 Z-4.148
N1860 Y41.029 Z-4.131
N1865 X-160.079 Y41.276 Z-4.127
N1870 X-160.146 Y42.392 Z-4.106
N1875 X-160.177 Y42.658 Z-4.1
N1880 X-160.332 Y43.708 Z-4.077
N1885 X-160.392 Y43.998 Z-4.069
N1890 X-160.512 Y44.497 Z-4.055
N1895 X-160.602 Y44.793 Z-4.047
N1900 X-160.76 Y45.277 Z-4.034
N1905 X-160.882 Y45.598 Z-4.025
N1910 X-161.11 Y46.107 Z-4.01
N1915 X-161.319 Y46.503 Z-3.999
N1920 X-161.429 Y46.704 Z-3.993
N1925 X-158.252 Y48.43 Z-4.004
N1930 X-158.13 Y48.364 Z-4.007
N1935 X-157.576 Y48.638 Z-4.009
N1940 X-156.897 Y48.937 Z-4.011
N1945 X-156.305 Y49.165 Z-4.015
N1950 X-155.687 Y49.37 Z-4.018
N1955 X-155.138 Y49.526 Z-4.02
N1960 X-154.479 Y49.687 Z-4.023
N1965 X-153.752 Y49.831 Z-4.026
N1970 X-153.042 Y49.942 Z-4.028
N1975 X-152.242 Y50.042 Z-4.03
N1980 X-151.4 Y50.122 Z-4.028
N1985 X-150 Y50.204
N1990 X-148.565 Y50.119
N1995 X-147.665 Y50.032 Z-4.03
N2000 X-146.705 Y49.906 Z-4.027
N2005 X-145.953 Y49.776 Z-4.025
N2010 X-145.254 Y49.625 Z-4.022
N2015 X-144.63 Y49.463 Z-4.019
N2020 X-143.965 Y49.258 Z-4.016
N2025 X-143.386 Y49.05 Z-4.013
N2030 X-142.827 Y48.819 Z-4.01
N2035 X-142.232 Y48.547 Z-4.009
N2040 X-141.87 Y48.364 Z-4.007
N2045 X-141.748 Y48.43 Z-4.004
N2050 X-138.571 Y46.704 Z-3.993
N2055 X-138.84 Y46.206 Z-4.008
N2060 X-139.02 Y45.825 Z-4.018
N2065 X-139.17 Y45.468 Z-4.028
N2070 X-139.303 Y45.088 Z-4.039
N2075 X-139.462 Y44.589 Z-4.053
N2080 X-139.547 Y44.255 Z-4.062
N2085 X-139.645 Y43.828 Z-4.074
N2090 X-139.692 Y43.553 Z-4.081
N2095 X-139.834 Y42.586 Z-4.102
N2100 X-139.86 Y42.298 Z-4.108
N2105 X-139.921 Y41.276 Z-4.127
N2110 X-139.926 Y40.725 Z-4.136
N2115 X-139.925 Y39.93 Z-4.148
N2120 X-139.875 Y38.751 Z-4.163
N2125 X-139.787 Y37.577 Z-4.175
N2130 X-139.662 Y36.404 Z-4.185
N2135 X-139.497 Y35.217 Z-4.192
N2140 X-139.277 Y33.969 Z-4.185
N2145 X-139.035 Y32.841 Z-4.175
N2150 X-138.73 Y31.647 Z-4.162
N2155 X-138.378 Y30.464 Z-4.146
N2160 X-138.047 Y29.49 Z-4.131
N2165 X-137.842 Y28.948 Z-4.121
N2170 X-137.495 Y28.06 Z-4.105
N2175 X-136.984 Y26.904 Z-4.08
N2180 X-136.743 Y26.412 Z-4.068
N2185 X-136.382 Y25.698 Z-4.05
N2190 X-135.707 Y24.504 Z-4.017
N2195 X-135.434 Y24.072 Z-4.003
N2200 X-134.923 Y23.283 Z-3.978
N2205 X-134.426 Y22.582 Z-3.954
N2210 X-133.972 Y21.989 Z-3.931
N2215 X-133.201 Y21.066 Z-3.89
N2220 X-132.881 Y20.716 Z-3.874
N2225 X-132.001 Y19.814 Z-3.833
N2230 X-131.68 Y19.512 Z-3.818
N2235 X-130.722 Y18.678 Z-3.775
N2240 X-130.198 Y18.266 Z-3.748
N2245 X-129.475 Y17.734 Z-3.712
N2250 X-128.483 Y17.078 Z-3.665
N2255 X-128.08 Y16.84 Z-3.646
N2260 X-127.047 Y16.259 Z-3.599
N2265 X-126.268 Y15.869 Z-3.565
N2270 X-125.817 Y15.657 Z-3.543
N2275 X-125.377 Y15.47 Z-3.521
N2280 X-124.6 Y15.144 Z-3.482
N2285 X-124.222 Y15.004 Z-3.463
N2290 X-123.353 Y14.687 Z-3.42
N2295 X-122.421 Y14.393 Z-3.377
N2300 X-122.023 Y14.275 Z-3.358
N2305 X-120.99 Y13.996 Z-3.31
N2310 X-120.243 Y13.823 Z-3.272
N2315 X-119.742 Y13.71 Z-3.246
N2320 X-118.595 Y13.491 Z-3.186
N2325 X-118.144 Y13.418 Z-3.163
N2330 X-117.379 Y13.302 Z-3.124
N2335 X-116.22 Y13.163 Z-3.066
N2340 X-115.089 Y13.061 Z-3.009
N2345 X-113.878 Y12.991 Z-2.945
N2350 X-112.726 Y12.963 Z-2.881
N2355 X-111.961 Y12.972 Z-2.84
N2360 X-111.484 Y12.979 Z-2.814
N2365 X-110.363 Y13.039 Z-2.753
N2370 X-109.611 Y13.111 Z-2.713
N2375 X-109.098 Y13.164 Z-2.686
N2380 X-108.644 Y13.23 Z-2.662
N2385 X-107.931 Y13.337 Z-2.622
N2390 X-107.554 Y13.409 Z-2.601
N2395 X-107.204 Y13.479 Z-2.582
N2400 X-106.588 Y13.624 Z-2.548
N2405 X-106.345 Y13.692 Z-2.535
N2410 X-105.412 Y13.964 Z-2.483
N2415 X-105.162 Y14.048 Z-2.47
N2420 X-104.694 Y14.216 Z-2.444
N2425 X-104.041 Y14.482 Z-2.409
N2430 X-103.479 Y14.739 Z-2.379
N2435 X-103.176 Y14.892 Z-2.363
N2440 X-102.726 Y15.127 Z-2.339
N2445 X-102.496 Y15.263 Z-2.328
N2450 X-101.51 Y15.87 Z-2.276
N2455 X-101.331 Y15.99 Z-2.267
N2460 X-101.152 Y16.118 Z-2.257
N2465 X-100.208 Y16.837 Z-2.209
N2470 X-100.042 Y16.974 Z-2.2
N2475 X-99.657 Y17.305 Z-2.18
N2480 X-99.454 Y17.492 Z-2.17
N2485 X-98.911 Y18.004 Z-2.142
N2490 X-98.659 Y18.261 Z-2.129
N2495 X-98.315 Y18.62 Z-2.112
N2500 X-97.661 Y19.355 Z-2.078
N2505 X-97.291 Y19.8 Z-2.06
N2510 X-96.997 Y20.181 Z-2.045
N2515 X-96.414 Y20.946 Z-2.015
N2520 X-96.257 Y21.17 Z-2.007
N2525 X-95.569 Y22.183 Z-1.971
N2530 X-95.438 Y22.387 Z-1.964
N2535 X-95.147 Y22.852 Z-1.948
N2540 X-94.813 Y23.408 Z-1.93
N2545 X-94.455 Y24.04 Z-1.911
N2550 X-94.116 Y24.657 Z-1.892
N2555 X-93.793 Y25.275 Z-1.875
N2560 X-93.487 Y25.884 Z-1.858
N2565 X-93.097 Y26.7 Z-1.835
N2570 X-92.915 Y27.092 Z-1.824
N2575 X-92.6 Y27.813 Z-1.804
N2580 X-92.426 Y28.224 Z-1.793
N2585 X-92.054 Y29.152 Z-1.769
N2590 X-91.843 Y29.706 Z-1.755
N2595 X-91.632 Y30.28 Z-1.74
N2600 X-91.41 Y30.922 Z-1.725
N2605 X-91.18 Y31.621 Z-1.708
N2610 X-90.959 Y32.334 Z-1.691
N2615 X-90.742 Y33.072 Z-1.673
N2620 X-90.538 Y33.816 Z-1.656
N2625 X-90.344 Y34.575 Z-1.639
N2630 X-90.194 Y35.207 Z-1.625
N2635 X-90.028 Y35.977 Z-1.609
N2640 X-89.89 Y36.683 Z-1.595
N2645 X-89.775 Y37.343 Z-1.582
N2650 X-89.671 Y38.024 Z-1.569
N2655 X-89.576 Y38.74 Z-1.556
N2660 X-89.495 Y39.466 Z-1.544
N2665 X-89.433 Y40.152 Z-1.532
N2670 X-89.388 Y40.785 Z-1.522
N2675 X-89.37 Y41.2 Z-1.516
N2680 X-89.356 Y41.912 Z-1.507
N2685 X-89.358 Y42.35 Z-1.501
N2690 X-89.37 Y42.824 Z-1.496
N2695 X-89.393 Y43.401 Z-1.49
N2700 X-89.427 Y43.884 Z-1.485
N2705 X-89.482 Y44.418 Z-1.482
N2710 X-89.557 Y44.965 Z-1.48
N2715 X-89.645 Y45.494 Z-1.479
N2720 X-89.749 Y46.02 Z-1.478
N2725 X-89.907 Y46.698 Z-1.479
N2730 X-89.973 Y46.955 Z-1.48
N2735 X-90.131 Y47.465 Z-1.484
N2740 X-90.239 Y47.784 Z-1.486
N2745 X-90.322 Y47.987 Z-1.489
N2750 X-90.465 Y48.282 Z-1.495
N2755 X-90.631 Y48.585 Z-1.502
N2760 X-90.864 Y48.964 Z-1.513
N2765 X-91.073 Y49.279 Z-1.523
N2770 X-91.25 Y49.521 Z-1.533
N2775 X-91.503 Y49.833 Z-1.546
N2780 X-91.762 Y50.126 Z-1.56
N2785 X-92.017 Y50.397 Z-1.574
N2790 X-92.3 Y50.678 Z-1.59
N2795 X-92.598 Y50.956 Z-1.608
N2800 X-92.873 Y51.194 Z-1.624
N2805 X-93.168 Y51.435 Z-1.642
N2810 X-93.459 Y51.658 Z-1.659
N2815 X-93.741 Y51.86 Z-1.677
N2820 X-94.022 Y52.049 Z-1.694
N2825 X-94.37 Y52.258 Z-1.717
N2830 X-94.735 Y52.464 Z-1.74
N2835 X-95.088 Y52.65 Z-1.764
N2840 X-95.587 Y52.894 Z-1.797
N2845 X-95.91 Y53.039 Z-1.818
N2850 X-96.394 Y53.236 Z-1.85
N2855 X-96.9 Y53.429 Z-1.883
N2860 X-97.431 Y53.617 Z-1.916
N2865 X-97.95 Y53.787 Z-1.949
N2870 X-98.584 Y53.978 Z-1.989
N2875 X-99.048 Y54.106 Z-2.019
N2880 X-99.676 Y54.261 Z-2.059
N2885 X-100.344 Y54.412 Z-2.103
N2890 X-101.037 Y54.556 Z-2.148
N2895 X-101.691 Y54.68 Z-2.19
N2900 X-102.351 Y54.792 Z-2.232
N2905 X-103.092 Y54.905 Z-2.279
N2910 X-103.717 Y54.991 Z-2.317
N2915 X-104.719 Y55.109 Z-2.378
N2920 X-105.548 Y55.19 Z-2.427
N2925 X-106.383 Y55.26 Z-2.477
N2930 X-107.329 Y55.323 Z-2.535
N2935 X-108.242 Y55.373 Z-2.589
N2940 X-109.596 Y55.418 Z-2.668
N2945 X-110.653 Y55.436 Z-2.725
N2950 X-111.696 Y55.437 Z-2.783
N2955 X-112.821 Y55.421 Z-2.845
N2960 X-113.909 Y55.389 Z-2.904
N2965 X-115.814 Y55.292 Z-3.005
N2970 X-117.873 Y55.132 Z-3.106
N2975 X-119.36 Y54.981 Z-3.179
N2980 X-120.02 Y54.902 Z-3.211
N2985 X-121.364 Y54.722 Z-3.275
N2990 X-122.273 Y54.584 Z-3.317
N2995 X-123.191 Y54.431 Z-3.356
N3000 X-124.097 Y54.265 Z-3.394
N3005 X-125.064 Y54.074 Z-3.436
N3010 X-125.768 Y53.92 Z-3.467
N3015 X-126.591 Y53.729 Z-3.503
N3020 X-127.065 Y53.61 Z-3.523
N3025 X-128.086 Y53.338 Z-3.566
N3030 X-128.785 Y53.133 Z-3.593
N3035 X-129.495 Y52.911 Z-3.62
N3040 X-130.273 Y52.652 Z-3.649
N3045 X-130.944 Y52.415 Z-3.675
N3050 X-131.422 Y52.23 Z-3.694
N3055 X-132.275 Y51.872 Z-3.729
N3060 X-132.861 Y51.608 Z-3.753
N3065 X-133.38 Y51.361 Z-3.774
N3070 X-133.956 Y51.065 Z-3.795
N3075 X-134.615 Y50.694 Z-3.818
N3080 X-135.096 Y50.404 Z-3.836
N3085 X-135.446 Y50.176 Z-3.849
N3090 X-135.816 Y49.918 Z-3.863
N3095 X-136.255 Y49.589 Z-3.881
N3100 X-136.704 Y49.223 Z-3.9
N3105 X-136.934 Y49.02 Z-3.91
N3110 X-137.224 Y48.739 Z-3.923
N3115 X-137.522 Y48.426 Z-3.937
N3120 X-137.816 Y48.09 Z-3.952
N3125 X-138.035 Y47.819 Z-3.962
N3130 X-138.285 Y47.482 Z-3.973
N3135 X-138.51 Y47.144 Z-3.983
N3140 X-138.562 Y47.087 Z-3.985
N3145 X-138.631 Y47.047 Z-3.987
N3150 X-138.683 Y47.033 Z-3.988
N3155 X-138.751 Y47.032 Z-3.989
N3160 X-138.817 Y47.048 Z-3.99
N3165 X-139.08 Y47.19 Z-3.992
N3170 X-141.233 Y48.37 Z-3.998
N3175 X-141.627 Y48.572 Z-3.999
N3180 X-141.696 Y48.587 Z-4
N3185 X-141.766 Y48.58 Z-4.001
N3190 X-141.845 Y48.56 Z-4.003
N3195 X-141.916 Y48.567 Z-4.004
N3200 X-141.958 Y48.584
N3205 X-142.344 Y48.786 Z-4.005
N3210 X-142.575 Y48.889 Z-4.006
N3215 X-143.753 Y49.343 Z-4.012
N3220 X-145.008 Y49.707 Z-4.019
N3225 X-146.32 Y49.977 Z-4.025
N3230 X-148.049 Y50.204 Z-4.029
N3235 X-149.785 Y50.328 Z-4.028
N3240 X-150.053 Y50.335
N3245 X-150.482 Y50.31
N3250 X-151.982 Y50.206 Z-4.029
N3255 X-153.712 Y49.983 Z-4.025
N3260 X-155.03 Y49.714 Z-4.018
N3265 X-156.286 Y49.354 Z-4.011
N3270 X-157.5 Y48.892 Z-4.005
N3275 X-157.732 Y48.784 Z-4.004
N3280 X-158.031 Y48.625
N3285 X-158.104 Y48.601 Z-4.003
N3290 X-158.181 Y48.597 Z-4.002
N3295 X-158.279 Y48.617 Z-4
N3300 X-158.352 Y48.615 Z-3.999
N3305 X-158.42 Y48.592 Z-3.998
N3310 X-158.906 Y48.345 Z-3.997
N3315 X-161.091 Y47.16 Z-3.989
N3320 X-161.153 Y47.135
N3325 X-161.219 Y47.123 Z-3.988
N3330 X-161.286 Y47.126 Z-3.987
N3335 X-161.351 Y47.143 Z-3.985
N3340 X-161.428 Y47.186 Z-3.983
N3345 X-161.477 Y47.232 Z-3.982
N3350 X-161.5 Y47.262 Z-3.981
N3355 X-161.713 Y47.576 Z-3.971
N3360 X-161.937 Y47.879 Z-3.961
N3365 X-162.156 Y48.152 Z-3.951
N3370 X-162.344 Y48.379 Z-3.941
N3375 X-162.54 Y48.589 Z-3.932
N3380 X-162.837 Y48.9 Z-3.918
N3385 X-163.098 Y49.147 Z-3.906
N3390 X-163.51 Y49.498 Z-3.888
N3395 X-163.798 Y49.722 Z-3.877
N3400 X-164.309 Y50.09 Z-3.856
N3405 X-164.811 Y50.423 Z-3.837
N3410 X-165.332 Y50.744 Z-3.818
N3415 X-165.918 Y51.077 Z-3.797
N3420 X-166.397 Y51.33 Z-3.78
N3425 X-166.876 Y51.566 Z-3.761
N3430 X-167.45 Y51.832 Z-3.738
N3435 X-168.188 Y52.152 Z-3.708
N3440 X-168.826 Y52.411 Z-3.682
N3445 X-169.314 Y52.591 Z-3.663
N3450 X-170.031 Y52.84 Z-3.635
N3455 X-170.763 Y53.08 Z-3.607
N3460 X-171.45 Y53.292 Z-3.581
N3465 X-171.959 Y53.44 Z-3.562
N3470 X-173.035 Y53.728 Z-3.516
N3475 X-173.815 Y53.918 Z-3.483
N3480 X-174.886 Y54.158 Z-3.436
N3485 X-175.684 Y54.32 Z-3.401
N3490 X-176.584 Y54.49 Z-3.362
N3495 X-177.465 Y54.642 Z-3.325
N3500 X-178.372 Y54.785 Z-3.285
N3505 X-179.003 Y54.874 Z-3.255
N3510 X-180.136 Y55.025 Z-3.2
N3515 X-180.81 Y55.103 Z-3.167
N3520 X-183.806 Y55.375 Z-3.021
N3525 X-186.253 Y55.504 Z-2.892
N3530 X-188.409 Y55.551 Z-2.772
N3535 X-190.694 Y55.528 Z-2.648
N3540 X-192.362 Y55.462 Z-2.55
N3545 X-193.311 Y55.405 Z-2.492
N3550 X-194.152 Y55.343 Z-2.441
N3555 X-195.059 Y55.262 Z-2.386
N3560 X-195.741 Y55.189 Z-2.344
N3565 X-196.53 Y55.096 Z-2.298
N3570 X-197.43 Y54.97 Z-2.242
N3575 X-198.155 Y54.856 Z-2.195
N3580 X-198.879 Y54.728 Z-2.149
N3585 X-199.581 Y54.59 Z-2.103
N3590 X-200.291 Y54.438 Z-2.057
N3595 X-200.952 Y54.283 Z-2.013
N3600 X-201.585 Y54.116 Z-1.973
N3605 X-202.219 Y53.932 Z-1.932
N3610 X-202.773 Y53.757 Z-1.897
N3615 X-203.28 Y53.584 Z-1.865
N3620 X-203.812 Y53.388 Z-1.83
N3625 X-204.275 Y53.206 Z-1.799
N3630 X-204.59 Y53.07 Z-1.778
N3635 X-205.06 Y52.85 Z-1.747
N3640 X-205.509 Y52.624 Z-1.716
N3645 X-205.91 Y52.409 Z-1.69
N3650 X-206.178 Y52.257 Z-1.673
N3655 X-206.52 Y52.041 Z-1.651
N3660 X-206.89 Y51.792 Z-1.628
N3665 X-207.234 Y51.55 Z-1.606
N3670 X-207.52 Y51.335 Z-1.589
N3675 X-207.759 Y51.145 Z-1.574
N3680 X-208.077 Y50.873 Z-1.555
N3685 X-208.289 Y50.683 Z-1.543
N3690 X-208.651 Y50.334 Z-1.522
N3695 X-208.748 Y50.253 Z-1.516
N3700 X-208.909 Y50.124 Z-1.506
N3705 X-209.027 Y50.018 Z-1.498
N3710 X-209.19 Y49.863 Z-1.489
N3715 X-209.316 Y49.755 Z-1.481
N3720 X-209.389 Y49.68 Z-1.477
N3725 X-209.555 Y49.501 Z-1.467
N3730 X-209.69 Y49.369 Z-1.459
N3735 X-209.841 Y49.195 Z-1.45
N3740 X-210.082 Y48.903 Z-1.437
N3745 X-210.189 Y48.753 Z-1.431
N3750 X-210.299 Y48.56 Z-1.426
N3755 X-210.426 Y48.289 Z-1.421
N3760 X-210.46 Y48.208 Z-1.42
N3765 X-210.503 Y48.059 Z-1.419
N3770 X-210.524 Y47.926 Z-1.42
N3775 X-210.532 Y47.759 Z-1.423
N3780 X-210.587 Y47.412 Z-1.425
N3785 X-210.618 Y47.188 Z-1.427
N3790 X-210.626 Y46.944 Z-1.43
N3795 X-210.653 Y46.604 Z-1.434
N3800 X-210.673 Y46.345 Z-1.437
N3805 X-210.684 Y46.102 Z-1.441
N3810 X-210.722 Y45.677 Z-1.445
N3815 X-210.745 Y45.375 Z-1.448
N3820 X-210.804 Y44.831 Z-1.452
N3825 X-210.864 Y44.059 Z-1.458
N3830 X-210.895 Y43.481 Z-1.464
N3835 X-210.915 Y42.633 Z-1.475
N3840 X-210.916 Y42.052 Z-1.482
N3845 X-210.895 Y41.2 Z-1.494
N3850 X-210.859 Y40.546 Z-1.505
N3855 X-210.787 Y39.664 Z-1.52
N3860 X-210.685 Y38.712 Z-1.538
N3865 X-210.567 Y37.825 Z-1.554
N3870 X-210.42 Y36.893 Z-1.572
N3875 X-210.26 Y36.023 Z-1.588
N3880 X-210.069 Y35.103 Z-1.606
N3885 X-209.856 Y34.192 Z-1.625
N3890 X-209.603 Y33.214 Z-1.645
N3895 X-209.329 Y32.241 Z-1.667
N3900 X-209.105 Y31.504 Z-1.684
N3905 X-208.887 Y30.833 Z-1.7
N3910 X-208.47 Y29.628 Z-1.729
N3915 X-208.204 Y28.921 Z-1.747
N3920 X-207.857 Y28.046 Z-1.769
N3925 X-207.556 Y27.331 Z-1.788
N3930 X-207.349 Y26.858 Z-1.8
N3935 X-206.62 Y25.328 Z-1.843
N3940 X-206.304 Y24.717 Z-1.861
N3945 X-205.982 Y24.119 Z-1.878
N3950 X-205.552 Y23.35 Z-1.902
N3955 X-205.367 Y23.038 Z-1.912
N3960 X-205.039 Y22.508 Z-1.929
N3965 X-204.68 Y21.952 Z-1.949
N3970 X-204.32 Y21.418 Z-1.967
N3975 X-203.98 Y20.935 Z-1.985
N3980 X-203.611 Y20.436 Z-2.004
N3985 X-203.2 Y19.905 Z-2.025
N3990 X-202.738 Y19.341 Z-2.049
N3995 X-202.392 Y18.941 Z-2.067
N4000 X-202.001 Y18.508 Z-2.087
N4005 X-201.517 Y18.005 Z-2.111
N4010 X-201.102 Y17.604 Z-2.133
N4015 X-200.57 Y17.116 Z-2.16
N4020 X-200.112 Y16.729 Z-2.184
N4025 X-199.663 Y16.379 Z-2.207
N4030 X-199.102 Y15.965 Z-2.237
N4035 X-198.59 Y15.614 Z-2.263
N4040 X-198.061 Y15.281 Z-2.291
N4045 X-197.484 Y14.939 Z-2.321
N4050 X-196.975 Y14.665 Z-2.348
N4055 X-196.445 Y14.406 Z-2.376
N4060 X-195.977 Y14.197 Z-2.401
N4065 X-195.477 Y13.998 Z-2.428
N4070 X-194.998 Y13.823 Z-2.454
N4075 X-194.509 Y13.66 Z-2.48
N4080 X-194.022 Y13.511 Z-2.507
N4085 X-193.536 Y13.376 Z-2.534
N4090 X-193.06 Y13.257 Z-2.559
N4095 X-192.587 Y13.151 Z-2.585
N4100 X-192.105 Y13.057 Z-2.612
N4105 X-191.623 Y12.975 Z-2.638
N4110 X-191.079 Y12.893 Z-2.668
N4115 X-190.557 Y12.827 Z-2.695
N4120 X-189.866 Y12.756 Z-2.732
N4125 X-189.394 Y12.719 Z-2.758
N4130 X-188.632 Y12.676 Z-2.799
N4135 X-188.07 Y12.658 Z-2.83
N4140 X-187.403 Y12.651 Z-2.866
N4145 X-186.736 Y12.658 Z-2.902
N4150 X-186.061 Y12.677 Z-2.939
N4155 X-185.403 Y12.709 Z-2.974
N4160 X-184.728 Y12.754 Z-3.009
N4165 X-184.03 Y12.815 Z-3.044
N4170 X-183.39 Y12.883 Z-3.076
N4175 X-182.717 Y12.968 Z-3.11
N4180 X-181.841 Y13.099 Z-3.155
N4185 X-181.16 Y13.217 Z-3.19
N4190 X-180.493 Y13.346 Z-3.225
N4195 X-179.848 Y13.484 Z-3.258
N4200 X-179.198 Y13.637 Z-3.292
N4205 X-178.533 Y13.807 Z-3.323
N4210 X-177.667 Y14.05 Z-3.363
N4215 X-177.04 Y14.241 Z-3.393
N4220 X-176.596 Y14.385 Z-3.414
N4225 X-175.929 Y14.628 Z-3.447
N4230 X-175.205 Y14.906 Z-3.483
N4235 X-174.661 Y15.133 Z-3.51
N4240 X-174.143 Y15.363 Z-3.536
N4245 X-173.618 Y15.611 Z-3.562
N4250 X-173.1 Y15.87 Z-3.585
N4255 X-172.583 Y16.144 Z-3.608
N4260 X-172.068 Y16.433 Z-3.632
N4265 X-171.561 Y16.733 Z-3.655
N4270 X-171.063 Y17.044 Z-3.679
N4275 X-170.573 Y17.366 Z-3.702
N4280 X-170.092 Y17.699 Z-3.726
N4285 X-169.659 Y18.013 Z-3.748
N4290 X-169.308 Y18.285 Z-3.765
N4295 X-168.978 Y18.554 Z-3.782
N4300 X-168.09 Y19.324 Z-3.82
N4305 X-167.726 Y19.671 Z-3.837
N4310 X-167.246 Y20.157 Z-3.859
N4315 X-166.805 Y20.61 Z-3.88
N4320 X-166.417 Y21.044 Z-3.899
N4325 X-165.88 Y21.692 Z-3.926
N4330 X-165.405 Y22.302 Z-3.951
N4335 X-164.948 Y22.926 Z-3.971
N4340 X-164.494 Y23.589 Z-3.993
N4345 X-164.072 Y24.247 Z-4.014
N4350 X-163.685 Y24.89 Z-4.034
N4355 X-163.303 Y25.572 Z-4.052
N4360 X-162.936 Y26.273 Z-4.069
N4365 X-162.596 Y26.97 Z-4.085
N4370 X-162.178 Y27.891 Z-4.105
N4375 X-161.88 Y28.612 Z-4.119
N4380 X-161.574 Y29.403 Z-4.132
N4385 X-161.269 Y30.254 Z-4.146
N4390 X-160.986 Y31.118 Z-4.158
N4395 X-160.766 Y31.845 Z-4.167
N4400 X-160.535 Y32.7 Z-4.176
N4405 X-160.312 Y33.612 Z-4.184
N4410 X-160.111 Y34.529 Z-4.19
N4415 X-159.914 Y35.546
N4420 X-159.749 Y36.538 Z-4.184
N4425 X-159.604 Y37.558 Z-4.175
N4430 X-159.474 Y38.695 Z-4.164
N4435 X-159.385 Y39.712 Z-4.152
N4440 X-159.317 Y40.558 Z-4.141
N4445 X-159.315 Y40.91 Z-4.136
N4450 X-159.34 Y41.259 Z-4.13
N4455 X-159.423 Y41.884 Z-4.119
N4460 X-159.498 Y42.542 Z-4.107
N4465 X-159.684 Y43.808 Z-4.081
N4470 X-159.746 Y44.106 Z-4.073
N4475 X-159.842 Y44.439 Z-4.065
N4480 X-160.008 Y44.898 Z-4.052
N4485 X-160.178 Y45.421 Z-4.039
N4490 X-160.331 Y45.813 Z-4.028
N4495 X-160.419 Y46.015 Z-4.023
N4500 X-160.44 Y46.071 Z-4.022
N4505 X-160.455 Y46.128 Z-4.02
N4510 X-160.463 Y46.187 Z-4.019
N4515 X-160.465 Y46.245 Z-4.018
N4520 X-160.458 Y46.313 Z-4.016
N4525 X-160.428 Y46.423 Z-4.015
N4530 X-160.387 Y46.505 Z-4.014
N4535 X-160.326 Y46.584 Z-4.013
N4540 X-160.245 Y46.655
N4545 X-159.966 Y46.817 Z-4.014
N4550 X-158.868 Y47.439 Z-4.017
N4555 X-158.646 Y47.552 Z-4.018
N4560 X-158.136 Y47.782 Z-4.019
N4565 X-157.73 Y47.951 Z-4.022
N4570 X-157.439 Y48.102 Z-4.023
N4575 X-156.939 Y48.368
N4580 X-155.918 Y48.821 Z-4.027
N4585 X-154.785 Y49.19 Z-4.03
N4590 X-154.384 Y49.283
N4595 X-153.501 Y49.475
N4600 X-153.012 Y49.554
N4605 X-151.439 Y49.733
N4610 X-150.734 Y49.769 Z-4.029
N4615 X-149.929 Y49.78 Z-4.028
N4620 X-149.291 Y49.767 Z-4.029
N4625 X-148.732 Y49.741 Z-4.03
N4630 X-147.561 Y49.624 Z-4.031
N4635 X-146.793 Y49.516 Z-4.03
N4640 X-145.526 Y49.255
N4645 X-145.22 Y49.169
N4650 X-144.223 Y48.852 Z-4.028
N4655 X-143.651 Y48.62 Z-4.025
N4660 X-143.069 Y48.34 Z-4.023
N4665 X-142.427 Y47.984
N4670 X-142.203 Y47.868
N4675 X-141.894 Y47.752 Z-4.02
N4680 X-141.692 Y47.657
N4685 X-141.188 Y47.383 Z-4.019
N4690 X-139.868 Y46.606 Z-4.016
N4695 X-139.812 Y46.569
N4700 X-139.763 Y46.524
N4705 X-139.719 Y46.473
N4710 X-139.683 Y46.416 Z-4.017
N4715 X-139.655 Y46.355
N4720 X-139.635 Y46.291 Z-4.018
N4725 X-139.624 Y46.225 Z-4.02
N4730 X-139.625 Y46.122 Z-4.022
N4735 X-139.648 Y46.017 Z-4.024
N4740 X-139.767 Y45.741 Z-4.031
N4745 X-139.889 Y45.426 Z-4.04
N4750 X-140.069 Y44.885 Z-4.054
N4755 X-140.268 Y44.362 Z-4.068
N4760 X-140.33 Y44.164 Z-4.073
N4765 X-140.38 Y43.926 Z-4.079
N4770 X-140.594 Y42.52 Z-4.108
N4775 X-140.689 Y41.766 Z-4.122
N4780 X-140.769 Y41.237 Z-4.131
N4785 X-140.794 Y40.948 Z-4.136
N4790 X-140.797 Y40.628 Z-4.14
N4795 X-140.768 Y40.204 Z-4.146
N4800 X-140.657 Y38.907 Z-4.162
N4805 X-140.535 Y37.807 Z-4.173
N4810 X-140.42 Y36.96 Z-4.181
N4815 X-140.276 Y36.032 Z-4.187
N4820 X-140.089 Y35 Z-4.193
N4825 X-139.898 Y34.081 Z-4.188
N4830 X-139.67 Y33.102 Z-4.18
N4835 X-139.42 Y32.142 Z-4.17
N4840 X-139.202 Y31.388 Z-4.162
N4845 X-138.927 Y30.526 Z-4.15
N4850 X-138.623 Y29.654 Z-4.137
N4855 X-138.3 Y28.798 Z-4.123
N4860 X-137.958 Y27.956 Z-4.107
N4865 X-137.562 Y27.074 Z-4.089
N4870 X-137.213 Y26.347 Z-4.073
N4875 X-136.845 Y25.634 Z-4.055
N4880 X-136.457 Y24.935 Z-4.037
N4885 X-136.083 Y24.304 Z-4.018
N4890 X-135.667 Y23.647 Z-3.998
N4895 X-135.232 Y23.003 Z-3.977
N4900 X-134.777 Y22.372 Z-3.957
N4905 X-134.294 Y21.743 Z-3.932
N4910 X-133.777 Y21.11 Z-3.905
N4915 X-133.427 Y20.706 Z-3.888
N4920 X-133.202 Y20.462 Z-3.877
N4925 X-132.433 Y19.676 Z-3.841
N4930 X-132.029 Y19.286 Z-3.823
N4935 X-131.778 Y19.064 Z-3.812
N4940 X-131.096 Y18.471 Z-3.782
N4945 X-130.795 Y18.223 Z-3.767
N4950 X-130.452 Y17.955 Z-3.75
N4955 X-129.995 Y17.621 Z-3.727
N4960 X-129.515 Y17.286 Z-3.703
N4965 X-129.033 Y16.967 Z-3.68
N4970 X-128.542 Y16.657 Z-3.657
N4975 X-128.037 Y16.355 Z-3.633
N4980 X-127.524 Y16.063 Z-3.61
N4985 X-127.016 Y15.79 Z-3.587
N4990 X-126.494 Y15.524 Z-3.564
N4995 X-125.958 Y15.266 Z-3.537
N5000 X-125.248 Y14.948 Z-3.501
N5005 X-124.55 Y14.66 Z-3.466
N5010 X-124.012 Y14.454 Z-3.439
N5015 X-123.475 Y14.259 Z-3.413
N5020 X-122.918 Y14.072 Z-3.387
N5025 X-122.272 Y13.872 Z-3.356
N5030 X-121.606 Y13.68 Z-3.325
N5035 X-120.989 Y13.515 Z-3.296
N5040 X-120.326 Y13.353 Z-3.262
N5045 X-119.665 Y13.204 Z-3.228
N5050 X-118.77 Y13.025 Z-3.181
N5055 X-118.238 Y12.93 Z-3.154
N5060 X-117.362 Y12.796 Z-3.108
N5065 X-116.569 Y12.695 Z-3.068
N5070 X-115.948 Y12.627 Z-3.037
N5075 X-115.259 Y12.566 Z-3.003
N5080 X-114.524 Y12.514 Z-2.964
N5085 X-113.899 Y12.482 Z-2.931
N5090 X-113.258 Y12.463 Z-2.896
N5095 X-112.611 Y12.456 Z-2.861
N5100 X-111.943 Y12.463 Z-2.825
N5105 X-111.396 Y12.48 Z-2.796
N5110 X-110.715 Y12.517 Z-2.759
N5115 X-110.177 Y12.557 Z-2.729
N5120 X-109.573 Y12.617 Z-2.697
N5125 X-109.054 Y12.678 Z-2.669
N5130 X-108.534 Y12.753 Z-2.641
N5135 X-108 Y12.843 Z-2.612
N5140 X-107.466 Y12.946 Z-2.583
N5145 X-106.954 Y13.058 Z-2.555
N5150 X-106.392 Y13.197 Z-2.524
N5155 X-105.711 Y13.387 Z-2.487
N5160 X-105.136 Y13.569 Z-2.456
N5165 X-104.564 Y13.773 Z-2.426
N5170 X-103.988 Y14.003 Z-2.395
N5175 X-103.41 Y14.259 Z-2.365
N5180 X-102.856 Y14.53 Z-2.335
N5185 X-102.3 Y14.828 Z-2.306
N5190 X-101.717 Y15.17 Z-2.276
N5195 X-101.187 Y15.505 Z-2.248
N5200 X-100.656 Y15.867 Z-2.221
N5205 X-100.091 Y16.283 Z-2.191
N5210 X-99.589 Y16.679 Z-2.165
N5215 X-99.086 Y17.105 Z-2.139
N5220 X-98.554 Y17.59 Z-2.111
N5225 X-98.095 Y18.037 Z-2.087
N5230 X-97.647 Y18.505 Z-2.064
N5235 X-97.146 Y19.06 Z-2.038
N5240 X-96.666 Y19.627 Z-2.013
N5245 X-96.183 Y20.234 Z-1.988
N5250 X-95.694 Y20.886 Z-1.962
N5255 X-95.166 Y21.631 Z-1.934
N5260 X-94.789 Y22.192 Z-1.913
N5265 X-94.233 Y23.084 Z-1.883
N5270 X-93.724 Y23.97 Z-1.856
N5275 X-93.456 Y24.455 Z-1.841
N5280 X-92.749 Y25.845 Z-1.801
N5285 X-92.275 Y26.856 Z-1.773
N5290 X-91.893 Y27.747 Z-1.751
N5295 X-91.502 Y28.717 Z-1.727
N5300 X-91.155 Y29.636 Z-1.705
N5305 X-90.685 Y31.01 Z-1.675
N5310 X-90.432 Y31.818 Z-1.658
N5315 X-90.148 Y32.799 Z-1.638
N5320 X-89.887 Y33.783 Z-1.619
N5325 X-89.666 Y34.705 Z-1.601
N5330 X-89.459 Y35.662 Z-1.583
N5335 X-89.278 Y36.611 Z-1.565
N5340 X-89.119 Y37.568 Z-1.547
N5345 X-88.987 Y38.488 Z-1.529
N5350 X-88.875 Y39.424 Z-1.511
N5355 X-88.782 Y40.395 Z-1.49
N5360 X-88.727 Y41.182 Z-1.473
N5365 X-88.681 Y42.263 Z-1.449
N5370 X-88.668 Y43.27 Z-1.431
N5375 X-88.665 Y43.742 Z-1.423
N5380 X-88.669 Y44.342 Z-1.415
N5385 X-88.68 Y44.906 Z-1.407
N5390 X-88.682 Y45.213 Z-1.402
N5395 X-88.688 Y45.47 Z-1.399
N5400 X-88.677 Y45.733 Z-1.393
N5405 X-88.626 Y46.259 Z-1.379
N5410 X-88.594 Y46.428 Z-1.373
N5415 X-88.554 Y46.588 Z-1.366
N5420 X-88.536 Y46.698 Z-1.362
N5425 X-88.48 Y47.115 Z-1.349
N5430 X-88.436 Y47.339 Z-1.341
N5435 X-88.398 Y47.509 Z-1.334
N5440 X-88.378 Y47.665 Z-1.329
N5445 X-88.349 Y47.898 Z-1.322
N5450 X-88.292 Y48.303 Z-1.308
N5455 X-88.281 Y48.486 Z-1.303
N5460 X-88.288 Y48.626 Z-1.301
N5465 X-88.31 Y48.773 Z-1.299
N5470 X-88.364 Y48.966 Z-1.3
N5475 X-88.46 Y49.191 Z-1.303
N5480 X-88.534 Y49.315 Z-1.307
N5485 X-88.614 Y49.414 Z-1.312
N5490 X-88.707 Y49.502 Z-1.318
N5495 X-88.848 Y49.603 Z-1.328
N5500 X-89.189 Y49.896 Z-1.352
N5505 X-89.379 Y50.036 Z-1.365
N5510 X-89.596 Y50.184 Z-1.381
N5515 X-89.761 Y50.305 Z-1.392
N5520 X-89.921 Y50.4 Z-1.404
N5525 X-90.068 Y50.482 Z-1.414
N5530 X-90.268 Y50.606 Z-1.427
N5535 X-90.436 Y50.697 Z-1.439
N5540 X-90.63 Y50.796 Z-1.452
N5545 X-90.794 Y50.902 Z-1.463
N5550 X-91.236 Y51.243 Z-1.491
N5555 X-91.393 Y51.354 Z-1.5
N5560 X-91.483 Y51.423 Z-1.506
N5565 X-91.545 Y51.461 Z-1.51
N5570 X-91.85 Y51.685 Z-1.529
N5575 X-92.235 Y51.947 Z-1.553
N5580 X-92.533 Y52.133 Z-1.573
N5585 X-92.979 Y52.404 Z-1.601
N5590 X-93.388 Y52.637 Z-1.628
N5595 X-93.783 Y52.848 Z-1.654
N5600 X-94.21 Y53.061 Z-1.684
N5605 X-94.626 Y53.254 Z-1.711
N5610 X-95.071 Y53.446 Z-1.741
N5615 X-95.444 Y53.597 Z-1.766
N5620 X-95.998 Y53.802 Z-1.804
N5625 X-96.495 Y53.975 Z-1.837
N5630 X-97.118 Y54.167 Z-1.878
N5635 X-97.739 Y54.346 Z-1.917
N5640 X-98.339 Y54.507 Z-1.957
N5645 X-98.904 Y54.647 Z-1.994
N5650 X-99.534 Y54.787 Z-2.035
N5655 X-100.272 Y54.938 Z-2.083
N5660 X-101.029 Y55.08 Z-2.132
N5665 X-101.758 Y55.203 Z-2.18
N5670 X-102.49 Y55.313 Z-2.226
N5675 X-103.394 Y55.435 Z-2.283
N5680 X-104.236 Y55.533 Z-2.334
N5685 X-104.974 Y55.609 Z-2.379
N5690 X-105.402 Y55.644 Z-2.404
N5695 X-107.446 Y55.797 Z-2.528
N5700 X-109.547 Y55.886 Z-2.65
N5705 X-111.65 Y55.915 Z-2.767
N5710 X-113.932 Y55.88 Z-2.891
N5715 X-116.886 Y55.733 Z-3.042
N5720 X-119.269 Y55.531 Z-3.159
N5725 X-120.117 Y55.439 Z-3.199
N5730 X-121.481 Y55.268 Z-3.263
N5735 X-122.389 Y55.138 Z-3.304
N5740 X-123.3 Y54.994 Z-3.343
N5745 X-124.137 Y54.849 Z-3.379
N5750 X-124.973 Y54.69 Z-3.416
N5755 X-125.784 Y54.523 Z-3.451
N5760 X-126.611 Y54.338 Z-3.486
N5765 X-127.301 Y54.173 Z-3.515
N5770 X-128.561 Y53.838 Z-3.566
N5775 X-129.235 Y53.642 Z-3.591
N5780 X-129.946 Y53.421 Z-3.618
N5785 X-130.551 Y53.219 Z-3.641
N5790 X-131.377 Y52.924 Z-3.674
N5795 X-132.153 Y52.62 Z-3.705
N5800 X-132.933 Y52.29 Z-3.736
N5805 X-133.553 Y52.011 Z-3.76
N5810 X-134 Y51.797 Z-3.777
N5815 X-134.6 Y51.49 Z-3.798
N5820 X-135.089 Y51.222 Z-3.815
N5825 X-135.582 Y50.936 Z-3.833
N5830 X-136.058 Y50.645 Z-3.85
N5835 X-136.524 Y50.346 Z-3.868
N5840 X-136.993 Y50.026 Z-3.886
N5845 X-137.47 Y49.673 Z-3.905
N5850 X-137.65 Y49.512 Z-3.913
N5855 X-137.81 Y49.339 Z-3.92
N5860 X-138.048 Y49.056 Z-3.932
N5865 X-138.297 Y48.777 Z-3.945
N5870 X-138.491 Y48.537 Z-3.955
N5875 X-138.551 Y48.469 Z-3.957
N5880 X-138.638 Y48.393 Z-3.96
N5885 X-138.738 Y48.33 Z-3.963
N5890 X-138.854 Y48.28 Z-3.966
N5895 X-138.921 Y48.261 Z-3.967
N5900 X-138.989 Y48.247 Z-3.969
N5905 X-139.07 Y48.24 Z-3.97
N5910 X-139.203 Y48.246 Z-3.972
N5915 X-139.307 Y48.267 Z-3.973
N5920 X-139.411 Y48.304 Z-3.974
N5925 X-139.937 Y48.579 Z-3.976
N5930 X-140.285 Y48.765 Z-3.977
N5935 X-140.684 Y48.994
N5940 X-140.923 Y49.114 Z-3.978
N5945 X-141.162 Y49.214 Z-3.979
N5950 X-141.323 Y49.26 Z-3.98
N5955 X-141.465 Y49.277 Z-3.983
N5960 X-141.633 Y49.282 Z-3.985
N5965 X-141.777 Y49.307 Z-3.987
N5970 X-141.93 Y49.362
N5975 X-142.09 Y49.447 Z-3.988
N5980 X-142.221 Y49.503
N5985 X-142.527 Y49.607 Z-3.99
N5990 X-144.011 Y50.045 Z-4.004
N5995 X-145.54 Y50.378 Z-4.018
N6000 X-146.875 Y50.583 Z-4.025
N6005 X-148.665 Y50.768 Z-4.028
N6010 X-149.872 Y50.846
N6015 X-150.134
N6020 X-150.796 Y50.799
N6025 X-152.425 Y50.673
N6030 X-154.212 Y50.435 Z-4.019
N6035 X-155.809 Y50.11 Z-4.005
N6040 X-157.287 Y49.697 Z-3.991
N6045 X-157.792 Y49.532 Z-3.987
N6050 X-157.923 Y49.476
N6055 X-158.068 Y49.398
N6060 X-158.194 Y49.353 Z-3.986
N6065 X-158.335 Y49.33 Z-3.985
N6070 X-158.596 Y49.288 Z-3.981
N6075 X-158.865 Y49.222 Z-3.978
N6080 X-159.118 Y49.133 Z-3.977
N6085 X-159.38 Y49.009 Z-3.976
N6090 X-159.729 Y48.81 Z-3.975
N6095 X-160.09 Y48.62 Z-3.974
N6100 X-160.541 Y48.389 Z-3.973
N6105 X-160.665 Y48.339 Z-3.972
N6110 X-160.796 Y48.311 Z-3.971
N6115 X-160.901 Y48.306 Z-3.969
N6120 X-161.006 Y48.315 Z-3.967
N6125 X-161.077 Y48.33 Z-3.966
N6130 X-161.203 Y48.374 Z-3.963
N6135 X-161.311 Y48.435 Z-3.96
N6140 X-161.402 Y48.506 Z-3.957
N6145 X-161.49 Y48.603 Z-3.953
N6150 X-161.736 Y48.916 Z-3.94
N6155 X-161.896 Y49.087 Z-3.933
N6160 X-161.987 Y49.187 Z-3.928
N6165 X-162.21 Y49.461 Z-3.917
N6170 X-162.384 Y49.635 Z-3.909
N6175 X-162.58 Y49.794 Z-3.9
N6180 X-163.183 Y50.221 Z-3.877
N6185 X-163.648 Y50.531 Z-3.859
N6190 X-164.109 Y50.823 Z-3.842
N6195 X-164.58 Y51.105 Z-3.825
N6200 X-165.068 Y51.382 Z-3.808
N6205 X-165.548 Y51.64 Z-3.791
N6210 X-166.037 Y51.888 Z-3.774
N6215 X-166.483 Y52.102 Z-3.757
N6220 X-167.079 Y52.372 Z-3.733
N6225 X-167.884 Y52.713 Z-3.702
N6230 X-168.631 Y53.006 Z-3.672
N6235 X-169.452 Y53.301 Z-3.639
N6240 X-170.127 Y53.526 Z-3.613
N6245 X-170.88 Y53.761 Z-3.585
N6250 X-171.504 Y53.941 Z-3.561
N6255 X-172.281 Y54.151 Z-3.53
N6260 X-173.012 Y54.335 Z-3.499
N6265 X-173.809 Y54.523 Z-3.466
N6270 X-174.587 Y54.693 Z-3.432
N6275 X-175.408 Y54.857 Z-3.396
N6280 X-176.24 Y55.01 Z-3.36
N6285 X-177.076 Y55.152 Z-3.324
N6290 X-178.001 Y55.294 Z-3.284
N6295 X-178.652 Y55.383 Z-3.254
N6300 X-179.918 Y55.543 Z-3.195
N6305 X-180.706 Y55.629 Z-3.157
N6310 X-183.106 Y55.836 Z-3.04
N6315 X-186.112 Y55.988 Z-2.885
N6320 X-188.409 Y56.024 Z-2.76
N6325 X-190.71 Y55.993 Z-2.631
N6330 X-193.624 Y55.849 Z-2.46
N6335 X-194.939 Y55.744 Z-2.38
N6340 X-195.753 Y55.664 Z-2.33
N6345 X-196.577 Y55.572 Z-2.28
N6350 X-197.607 Y55.441 Z-2.216
N6355 X-198.341 Y55.332 Z-2.169
N6360 X-199.13 Y55.203 Z-2.118
N6365 X-199.915 Y55.061 Z-2.067
N6370 X-200.665 Y54.912 Z-2.017
N6375 X-201.296 Y54.774 Z-1.976
N6380 X-201.876 Y54.635 Z-1.937
N6385 X-202.522 Y54.469 Z-1.895
N6390 X-203.12 Y54.3 Z-1.857
N6395 X-203.709 Y54.12 Z-1.818
N6400 X-204.284 Y53.931 Z-1.778
N6405 X-204.738 Y53.77 Z-1.748
N6410 X-205.253 Y53.569 Z-1.712
N6415 X-205.692 Y53.386 Z-1.683
N6420 X-206.129 Y53.191 Z-1.653
N6425 X-206.668 Y52.929 Z-1.615
N6430 X-207.088 Y52.708 Z-1.588
N6435 X-207.489 Y52.483 Z-1.562
N6440 X-207.97 Y52.207 Z-1.53
N6445 X-208.408 Y51.934 Z-1.502
N6450 X-208.742 Y51.71 Z-1.481
N6455 X-208.863 Y51.634 Z-1.473
N6460 X-209.126 Y51.463 Z-1.456
N6465 X-209.502 Y51.212 Z-1.432
N6470 X-209.679 Y51.112 Z-1.42
N6475 X-209.84 Y51.041 Z-1.408
N6480 X-210.07 Y50.946 Z-1.391
N6485 X-210.282 Y50.848 Z-1.375
N6490 X-210.491 Y50.751 Z-1.359
N6495 X-210.659 Y50.677 Z-1.346
N6500 X-210.809 Y50.597 Z-1.335
N6505 X-211.074 Y50.443 Z-1.315
N6510 X-211.306 Y50.308 Z-1.298
N6515 X-211.504 Y50.175 Z-1.284
N6520 X-211.736 Y50.01 Z-1.267
N6525 X-211.941 Y49.878 Z-1.252
N6530 X-212.324 Y49.601 Z-1.224
N6535 X-212.404 Y49.524 Z-1.219
N6540 X-212.468 Y49.433 Z-1.215
N6545 X-212.495 Y49.376 Z-1.214
N6550 X-212.517 Y49.317
N6555 X-212.532 Y49.252
N6560 X-212.539 Y49.185 Z-1.215
N6565 X-212.535 Y49.085 Z-1.217
N6570 X-212.517 Y48.997 Z-1.221
N6575 X-212.438 Y48.722 Z-1.234
N6580 X-212.395 Y48.543 Z-1.242
N6585 X-212.341 Y48.373 Z-1.25
N6590 X-212.236 Y47.873 Z-1.27
N6595 X-212.164 Y47.602 Z-1.282
N6600 X-212.06 Y47.258 Z-1.298
N6605 X-211.893 Y46.657 Z-1.325
N6610 X-211.817 Y46.403 Z-1.336
N6615 X-211.777 Y46.208 Z-1.344
N6620 X-211.714 Y45.871 Z-1.356
N6625 X-211.679 Y45.572 Z-1.364
N6630 X-211.664 Y45.165 Z-1.373
N6635 X-211.652 Y44.851 Z-1.379
N6640 X-211.644 Y44.304 Z-1.389
N6645 X-211.636 Y43.902 Z-1.395
N6650 X-211.617 Y43.055 Z-1.414
N6655 X-211.59 Y42.126 Z-1.438
N6660 X-211.528 Y40.97 Z-1.468
N6665 X-211.452 Y40.035 Z-1.49
N6670 X-211.347 Y39.024 Z-1.511
N6675 X-211.217 Y38.008 Z-1.532
N6680 X-211.069 Y37.029 Z-1.551
N6685 X-210.892 Y36.02 Z-1.57
N6690 X-210.701 Y35.062 Z-1.587
N6695 X-210.492 Y34.122 Z-1.605
N6700 X-210.264 Y33.194 Z-1.622
N6705 X-210.015 Y32.269 Z-1.64
N6710 X-209.74 Y31.335 Z-1.659
N6715 X-209.449 Y30.418 Z-1.677
N6720 X-209.13 Y29.49 Z-1.697
N6725 X-208.791 Y28.569 Z-1.718
N6730 X-208.431 Y27.656 Z-1.739
N6735 X-208.08 Y26.821 Z-1.759
N6740 X-207.887 Y26.399 Z-1.77
N6745 X-207.111 Y24.789 Z-1.813
N6750 X-206.693 Y24.004 Z-1.835
N6755 X-206.147 Y23.042 Z-1.865
N6760 X-205.719 Y22.347 Z-1.888
N6765 X-205.313 Y21.724 Z-1.909
N6770 X-204.817 Y21.009 Z-1.935
N6775 X-204.333 Y20.351 Z-1.961
N6780 X-203.822 Y19.697 Z-1.987
N6785 X-203.34 Y19.117 Z-2.013
N6790 X-202.856 Y18.571 Z-2.038
N6795 X-202.329 Y18.012 Z-2.065
N6800 X-201.84 Y17.529 Z-2.09
N6805 X-201.327 Y17.058 Z-2.117
N6810 X-200.808 Y16.612 Z-2.144
N6815 X-200.27 Y16.18 Z-2.171
N6820 X-199.697 Y15.752 Z-2.201
N6825 X-199.178 Y15.389 Z-2.228
N6830 X-198.659 Y15.054 Z-2.254
N6835 X-198.012 Y14.669 Z-2.288
N6840 X-197.469 Y14.371 Z-2.316
N6845 X-196.901 Y14.084 Z-2.345
N6850 X-196.335 Y13.824 Z-2.375
N6855 X-195.746 Y13.578 Z-2.405
N6860 X-195.158 Y13.358 Z-2.436
N6865 X-194.543 Y13.152 Z-2.468
N6870 X-193.752 Y12.917 Z-2.51
N6875 X-193.067 Y12.738 Z-2.546
N6880 X-192.638 Y12.643 Z-2.569
N6885 X-191.853 Y12.495 Z-2.611
N6890 X-191.059 Y12.37 Z-2.654
N6895 X-190.437 Y12.289 Z-2.688
N6900 X-189.841 Y12.226 Z-2.72
N6905 X-189.244 Y12.175 Z-2.752
N6910 X-188.656 Y12.139 Z-2.783
N6915 X-188.059 Y12.115 Z-2.815
N6920 X-187.416 Y12.102 Z-2.85
N6925 X-186.867 Y12.104 Z-2.879
N6930 X-186.159 Y12.123 Z-2.917
N6935 X-185.464 Y12.155 Z-2.954
N6940 X-184.754 Y12.201 Z-2.992
N6945 X-184.061 Y12.259 Z-3.026
N6950 X-182.917 Y12.389 Z-3.084
N6955 X-182.292 Y12.476 Z-3.116
N6960 X-181.597 Y12.587 Z-3.152
N6965 X-181.051 Y12.687 Z-3.181
N6970 X-180.358 Y12.829 Z-3.216
N6975 X-179.665 Y12.985 Z-3.252
N6980 X-179.005 Y13.146 Z-3.286
N6985 X-178.327 Y13.326 Z-3.318
N6990 X-177.735 Y13.494 Z-3.345
N6995 X-177.276 Y13.638 Z-3.367
N7000 X-176.465 Y13.91 Z-3.407
N7005 X-175.89 Y14.119 Z-3.435
N7010 X-175.117 Y14.423 Z-3.473
N7015 X-174.373 Y14.74 Z-3.51
N7020 X-173.631 Y15.083 Z-3.548
N7025 X-173.095 Y15.346 Z-3.572
N7030 X-172.566 Y15.62 Z-3.596
N7035 X-172.046 Y15.904 Z-3.619
N7040 X-171.587 Y16.167 Z-3.64
N7045 X-171.147 Y16.435 Z-3.661
N7050 X-170.714 Y16.713 Z-3.682
N7055 X-170.085 Y17.133 Z-3.712
N7060 X-169.597 Y17.492 Z-3.736
N7065 X-169.219 Y17.774 Z-3.755
N7070 X-168.823 Y18.086 Z-3.776
N7075 X-168.438 Y18.417 Z-3.793
N7080 X-167.73 Y19.029 Z-3.823
N7085 X-167.342 Y19.4 Z-3.841
N7090 X-166.873 Y19.867 Z-3.863
N7095 X-166.358 Y20.403 Z-3.887
N7100 X-165.996 Y20.807 Z-3.905
N7105 X-165.535 Y21.353 Z-3.928
N7110 X-165.189 Y21.78 Z-3.945
N7115 X-164.739 Y22.369 Z-3.966
N7120 X-164.307 Y22.972 Z-3.984
N7125 X-163.868 Y23.626 Z-4.004
N7130 X-163.433 Y24.316 Z-4.025
N7135 X-163.031 Y24.996 Z-4.046
N7140 X-162.638 Y25.703 Z-4.064
N7145 X-162.252 Y26.446 Z-4.082
N7150 X-161.881 Y27.215 Z-4.098
N7155 X-161.581 Y27.863 Z-4.111
N7160 X-161.167 Y28.852 Z-4.129
N7165 X-160.798 Y29.799 Z-4.144
N7170 X-160.477 Y30.685 Z-4.156
N7175 X-160.179 Y31.572 Z-4.167
N7180 X-159.883 Y32.536 Z-4.177
N7185 X-159.66 Y33.328 Z-4.184
N7190 X-159.257 Y34.921 Z-4.195
N7195 X-159.029 Y35.953 Z-4.189
N7200 X-158.811 Y37.055 Z-4.182
N7205 X-158.607 Y38.211 Z-4.173
N7210 X-158.453 Y39.212 Z-4.163
N7215 X-158.346 Y39.98 Z-4.155
N7220 X-158.284 Y40.343 Z-4.151
N7225 X-158.261 Y40.596 Z-4.148
N7230 X-158.251 Y40.911 Z-4.144
N7235 X-158.271 Y41.166 Z-4.14
N7240 X-158.315 Y41.397 Z-4.136
N7245 X-158.393 Y41.686 Z-4.13
N7250 X-158.489 Y42.147 Z-4.122
N7255 X-158.623 Y42.938 Z-4.108
N7260 X-158.706 Y43.458 Z-4.1
N7265 X-158.76 Y43.84 Z-4.093
N7270 X-158.813 Y44.099 Z-4.087
N7275 X-158.878 Y44.33 Z-4.081
N7280 X-158.954 Y44.551 Z-4.076
N7285 X-159.056 Y44.798 Z-4.069
N7290 X-159.148 Y44.996 Z-4.064
N7295 X-159.219 Y45.177 Z-4.059
N7300 X-159.306 Y45.459 Z-4.052
N7305 X-159.329 Y45.566 Z-4.049
N7310 X-159.337 Y45.685 Z-4.047
N7315 X-159.323 Y45.815 Z-4.045
N7320 X-159.301 Y45.899 Z-4.043
N7325 X-159.27 Y45.979 Z-4.042
N7330 X-159.219 Y46.073 Z-4.041
N7335 X-159.155 Y46.158 Z-4.04
N7340 X-159.092 Y46.223
N7345 X-158.925 Y46.346 Z-4.039
N7350 X-158.392 Y46.719
N7355 X-158.163 Y46.858
N7360 X-157.849 Y47.017 Z-4.04
N7365 X-157.52 Y47.155 Z-4.042
N7370 X-157.399 Y47.227
N7375 X-156.987 Y47.529 Z-4.04
N7380 X-156.541 Y47.817
N7385 X-156.116 Y48.054
N7390 X-155.723 Y48.245 Z-4.041
N7395 X-154.806 Y48.601 Z-4.042
N7400 X-154.523 Y48.689
N7405 X-153.417 Y48.959
N7410 X-152.975 Y49.038
N7415 X-151.435 Y49.223 Z-4.041
N7420 X-150.701 Y49.258
N7425 X-149.847 Y49.267 Z-4.04
N7430 X-148.972 Y49.244 Z-4.041
N7435 X-148.529 Y49.215
N7440 X-147.075 Y49.037 Z-4.042
N7445 X-146.002 Y48.819
N7450 X-145.382 Y48.645
N7455 X-145.198 Y48.585
N7460 X-144.274 Y48.222 Z-4.041
N7465 X-143.823 Y47.996 Z-4.04
N7470 X-143.438 Y47.773
N7475 X-142.988 Y47.475 Z-4.041
N7480 X-142.613 Y47.198 Z-4.043
N7485 X-142.461 Y47.102
N7490 X-142.146 Y46.923 Z-4.042
N7495 X-141.998 Y46.864 Z-4.041
N7500 X-141.752 Y46.795 Z-4.039
N7505 X-141.627 Y46.745
N7510 X-141.525 Y46.692
N7515 X-141.341 Y46.569
N7520 X-141.187 Y46.44
N7525 X-141.096 Y46.342 Z-4.04
N7530 X-141.016 Y46.234 Z-4.041
N7535 X-140.947 Y46.119 Z-4.042
N7540 X-140.891 Y45.997 Z-4.044
N7545 X-140.84 Y45.838 Z-4.047
N7550 X-140.819 Y45.74 Z-4.048
N7555 X-140.802 Y45.574 Z-4.051
N7560 X-140.805 Y45.425 Z-4.054
N7565 X-140.823 Y45.289 Z-4.057
N7570 X-140.853 Y45.164 Z-4.06
N7575 X-140.893 Y45.047 Z-4.063
N7580 X-140.937 Y44.949 Z-4.066
N7585 X-141.041 Y44.751 Z-4.072
N7590 X-141.134 Y44.572 Z-4.077
N7595 X-141.2 Y44.407 Z-4.081
N7600 X-141.263 Y44.198 Z-4.086
N7605 X-141.278 Y44.115 Z-4.088
N7610 X-141.357 Y43.528 Z-4.1
N7615 X-141.46 Y42.904 Z-4.11
N7620 X-141.598 Y42.131 Z-4.123
N7625 X-141.686 Y41.737 Z-4.13
N7630 X-141.803 Y41.325 Z-4.138
N7635 X-141.85 Y41.091 Z-4.142
N7640 X-141.869 Y40.884 Z-4.146
N7645 X-141.87 Y40.74 Z-4.148
N7650 X-141.865 Y40.642 Z-4.149
N7655 X-141.839 Y40.435 Z-4.151
N7660 X-141.756 Y39.986 Z-4.156
N7665 X-141.642 Y39.178 Z-4.164
N7670 X-141.511 Y38.322 Z-4.172
N7675 X-141.315 Y37.197 Z-4.181
N7680 X-141.082 Y36.009 Z-4.189
N7685 X-140.851 Y34.96 Z-4.195
N7690 X-140.577 Y33.839 Z-4.189
N7695 X-140.251 Y32.663 Z-4.179
N7700 X-139.982 Y31.778 Z-4.17
N7705 X-139.681 Y30.865 Z-4.16
N7710 X-139.345 Y29.92 Z-4.147
N7715 X-138.993 Y29.003 Z-4.133
N7720 X-138.599 Y28.047 Z-4.116
N7725 X-138.393 Y27.577 Z-4.107
N7730 X-137.902 Y26.544 Z-4.086
N7735 X-137.533 Y25.82 Z-4.069
N7740 X-137.205 Y25.217 Z-4.054
N7745 X-136.796 Y24.51 Z-4.034
N7750 X-136.382 Y23.835 Z-4.013
N7755 X-135.935 Y23.152 Z-3.993
N7760 X-135.521 Y22.557 Z-3.975
N7765 X-135.095 Y21.983 Z-3.957
N7770 X-134.743 Y21.535 Z-3.939
N7775 X-134.382 Y21.096 Z-3.92
N7780 X-133.995 Y20.642 Z-3.901
N7785 X-133.72 Y20.336 Z-3.888
N7790 X-133.211 Y19.805 Z-3.864
N7795 X-132.785 Y19.378 Z-3.844
N7800 X-132.405 Y19.012 Z-3.827
N7805 X-132.278 Y18.897 Z-3.821
N7810 X-131.42 Y18.151 Z-3.783
N7815 X-131.085 Y17.875 Z-3.767
N7820 X-130.732 Y17.6 Z-3.749
N7825 X-130.027 Y17.076 Z-3.714
N7830 X-129.31 Y16.593 Z-3.679
N7835 X-128.865 Y16.303 Z-3.658
N7840 X-128.389 Y16.016 Z-3.636
N7845 X-127.891 Y15.731 Z-3.613
N7850 X-127.37 Y15.448 Z-3.59
N7855 X-126.855 Y15.181 Z-3.567
N7860 X-126.305 Y14.91 Z-3.54
N7865 X-125.751 Y14.653 Z-3.513
N7870 X-124.992 Y14.322 Z-3.475
N7875 X-124.232 Y14.017 Z-3.437
N7880 X-123.473 Y13.738 Z-3.399
N7885 X-122.571 Y13.434 Z-3.355
N7890 X-122.219 Y13.325 Z-3.338
N7895 X-121.555 Y13.135 Z-3.308
N7900 X-120.9 Y12.961 Z-3.276
N7905 X-120.217 Y12.793 Z-3.241
N7910 X-119.534 Y12.638 Z-3.206
N7915 X-118.905 Y12.509 Z-3.174
N7920 X-118.424 Y12.418 Z-3.149
N7925 X-117.643 Y12.29 Z-3.108
N7930 X-117.207 Y12.228 Z-3.086
N7935 X-116.033 Y12.087 Z-3.026
N7940 X-115.336 Y12.024 Z-2.991
N7945 X-114.59 Y11.97 Z-2.951
N7950 X-114.201 Y11.948 Z-2.931
N7955 X-113.01 Y11.913 Z-2.867
N7960 X-112.52 Z-2.841
N7965 X-111.851 Y11.927 Z-2.805
N7970 X-111.223 Y11.955 Z-2.772
N7975 X-110.403 Y12.011 Z-2.728
N7980 X-109.582 Y12.092 Z-2.684
N7985 X-108.865 Y12.183 Z-2.646
N7990 X-108.144 Y12.3 Z-2.608
N7995 X-107.318 Y12.458 Z-2.564
N8000 X-106.918 Y12.547 Z-2.543
N8005 X-106.217 Y12.729 Z-2.506
N8010 X-105.426 Y12.962 Z-2.465
N8015 X-104.794 Y13.171 Z-2.432
N8020 X-104.178 Y13.4 Z-2.4
N8025 X-103.558 Y13.655 Z-2.368
N8030 X-102.995 Y13.911 Z-2.339
N8035 X-102.428 Y14.195 Z-2.31
N8040 X-101.883 Y14.493 Z-2.282
N8045 X-101.08 Y14.965 Z-2.241
N8050 X-100.619 Y15.262 Z-2.217
N8055 X-100.07 Y15.651 Z-2.189
N8060 X-99.495 Y16.084 Z-2.16
N8065 X-98.949 Y16.523 Z-2.132
N8070 X-98.402 Y16.992 Z-2.104
N8075 X-97.871 Y17.478 Z-2.077
N8080 X-97.368 Y17.968 Z-2.051
N8085 X-96.88 Y18.475 Z-2.026
N8090 X-96.393 Y19.013 Z-2.001
N8095 X-95.94 Y19.548 Z-1.978
N8100 X-95.432 Y20.185 Z-1.952
N8105 X-94.948 Y20.828 Z-1.927
N8110 X-94.452 Y21.528 Z-1.901
N8115 X-94.056 Y22.124 Z-1.881
N8120 X-93.604 Y22.841 Z-1.857
N8125 X-93.07 Y23.762 Z-1.829
N8130 X-92.744 Y24.358 Z-1.812
N8135 X-92.134 Y25.555 Z-1.78
N8140 X-91.653 Y26.583 Z-1.754
N8145 X-91.336 Y27.324 Z-1.736
N8150 X-90.975 Y28.224 Z-1.716
N8155 X-90.622 Y29.163 Z-1.695
N8160 X-90.305 Y30.069 Z-1.676
N8165 X-89.992 Y31.031 Z-1.657
N8170 X-89.702 Y31.997 Z-1.638
N8175 X-89.468 Y32.85 Z-1.622
N8180 X-89.224 Y33.827 Z-1.603
N8185 X-88.992 Y34.85 Z-1.585
N8190 X-88.787 Y35.856 Z-1.566
N8195 X-88.626 Y36.741 Z-1.549
N8200 X-88.352 Y38.542 Z-1.514
N8205 X-88.208 Y39.783 Z-1.487
N8210 X-88.097 Y41.004 Z-1.456
N8215 X-88 Y42.38 Z-1.413
N8220 X-87.946 Y43.385 Z-1.378
N8225 X-87.889 Y44.306 Z-1.349
N8230 X-87.84 Y44.942 Z-1.333
N8235 X-87.776 Y45.529 Z-1.316
N8240 X-87.722 Y45.825 Z-1.306
N8245 X-87.647 Y46.111 Z-1.294
N8250 X-87.566 Y46.355 Z-1.282
N8255 X-87.448 Y46.655 Z-1.266
N8260 X-87.328 Y46.913 Z-1.25
N8265 X-87.187 Y47.225 Z-1.231
N8270 X-86.944 Y47.779 Z-1.198
N8275 X-86.579 Y48.666 Z-1.147
N8280 X-86.533 Y48.795 Z-1.14
N8285 X-86.492 Y48.953 Z-1.133
N8290 X-86.468 Y49.1 Z-1.128
N8295 X-86.457 Y49.289 Z-1.123
N8300 X-86.463 Y49.421 Z-1.121
N8305 X-86.486 Y49.594 Z-1.119
N8310 X-86.516 Y49.725 Z-1.118
N8315 X-86.58 Y49.915 Z-1.12
N8320 X-86.636 Y50.037 Z-1.122
N8325 X-86.726 Y50.193 Z-1.126
N8330 X-86.811 Y50.312 Z-1.131
N8335 X-86.936 Y50.454 Z-1.139
N8340 X-87.072 Y50.576 Z-1.148
N8345 X-87.22 Y50.683 Z-1.158
N8350 X-87.351 Y50.759 Z-1.168
N8355 X-87.66 Y50.913 Z-1.192
N8360 X-87.967 Y51.053 Z-1.215
N8365 X-88.304 Y51.193 Z-1.242
N8370 X-88.642 Y51.318 Z-1.268
N8375 X-88.975 Y51.429 Z-1.295
N8380 X-89.501 Y51.584 Z-1.337
N8385 X-89.659 Y51.632 Z-1.35
N8390 X-89.806 Y51.691 Z-1.361
N8395 X-89.944 Y51.761 Z-1.371
N8400 X-90.493 Y52.058 Z-1.41
N8405 X-90.74 Y52.201 Z-1.427
N8410 X-91.165 Y52.443 Z-1.455
N8415 X-91.656 Y52.712 Z-1.487
N8420 X-92.35 Y53.071 Z-1.533
N8425 X-92.784 Y53.286 Z-1.562
N8430 X-93.222 Y53.487 Z-1.594
N8435 X-93.761 Y53.715 Z-1.631
N8440 X-94.269 Y53.916 Z-1.666
N8445 X-94.834 Y54.124 Z-1.705
N8450 X-95.266 Y54.271 Z-1.735
N8455 X-95.836 Y54.45 Z-1.774
N8460 X-96.449 Y54.628 Z-1.816
N8465 X-97.091 Y54.801 Z-1.858
N8470 X-97.711 Y54.954 Z-1.9
N8475 X-98.4 Y55.111 Z-1.945
N8480 X-99.109 Y55.259 Z-1.992
N8485 X-99.917 Y55.412 Z-2.045
N8490 X-100.73 Y55.553 Z-2.098
N8495 X-101.84 Y55.722 Z-2.17
N8500 X-102.989 Y55.873 Z-2.242
N8505 X-103.967 Y55.983 Z-2.303
N8510 X-106.351 Y56.194 Z-2.449
N8515 X-109.338 Y56.349 Z-2.624
N8520 X-111.658 Y56.392 Z-2.754
N8525 X-114.828 Y56.346 Z-2.923
N8530 X-117.42 Y56.216 Z-3.054
N8535 X-120.046 Y55.995 Z-3.18
N8540 X-121.884 Y55.778 Z-3.264
N8545 X-123.086 Y55.608 Z-3.317
N8550 X-123.944 Y55.47 Z-3.355
N8555 X-124.753 Y55.326 Z-3.39
N8560 X-125.591 Y55.164 Z-3.426
N8565 X-126.395 Y54.994 Z-3.459
N8570 X-127.164 Y54.82 Z-3.491
N8575 X-127.985 Y54.619 Z-3.524
N8580 X-128.804 Y54.405 Z-3.557
N8585 X-129.331 Y54.256 Z-3.577
N8590 X-130.163 Y54.002 Z-3.609
N8595 X-130.821 Y53.787 Z-3.635
N8600 X-131.452 Y53.566 Z-3.66
N8605 X-132.088 Y53.33 Z-3.685
N8610 X-132.721 Y53.081 Z-3.709
N8615 X-133.533 Y52.739 Z-3.739
N8620 X-134.291 Y52.396 Z-3.768
N8625 X-134.833 Y52.135 Z-3.787
N8630 X-135.414 Y51.84 Z-3.806
N8635 X-136.129 Y51.453 Z-3.832
N8640 X-136.662 Y51.149 Z-3.851
N8645 X-137.315 Y50.755 Z-3.875
N8650 X-137.979 Y50.336 Z-3.899
N8655 X-138.138 Y50.219 Z-3.905
N8660 X-138.286 Y50.078 Z-3.912
N8665 X-138.395 Y49.95 Z-3.917
N8670 X-138.543 Y49.746 Z-3.925
N8675 X-138.665 Y49.621 Z-3.93
N8680 X-138.804 Y49.518 Z-3.936
N8685 X-138.955 Y49.439 Z-3.94
N8690 X-139.104 Y49.388 Z-3.944
N8695 X-139.26 Y49.358 Z-3.948
N8700 X-139.425 Y49.352 Z-3.951
N8705 X-139.581 Y49.369 Z-3.953
N8710 X-139.755 Y49.416 Z-3.955
N8715 X-139.915 Y49.489 Z-3.956
N8720 X-140.084 Y49.591
N8725 X-140.188 Y49.642
N8730 X-140.668 Y49.852 Z-3.958
N8735 X-140.859 Y49.916 Z-3.96
N8740 X-141.048 Y49.956 Z-3.962
N8745 X-141.215 Y49.975 Z-3.965
N8750 X-141.421 Y49.992 Z-3.968
N8755 X-141.578 Y50.023 Z-3.97
N8760 X-141.779 Y50.086 Z-3.972
N8765 X-141.948 Y50.148 Z-3.974
N8770 X-142.575 Y50.301 Z-3.981
N8775 X-143.98 Y50.64 Z-3.998
N8780 X-145.907 Y50.978 Z-4.018
N8785 X-148.359 Y51.254 Z-4.028
N8790 X-149.733 Y51.354
N8795 X-150.001 Y51.363
N8800 X-150.266 Y51.355
N8805 X-152.639 Y51.164 Z-4.026
N8810 X-154.682 Y50.901 Z-4.013
N8815 X-156.572 Y50.542 Z-3.991
N8820 X-158.039 Y50.184 Z-3.973
N8825 X-158.272 Y50.104 Z-3.971
N8830 X-158.465 Y50.049 Z-3.969
N8835 X-158.681 Y50.016 Z-3.966
N8840 X-158.967 Y49.992 Z-3.961
N8845 X-159.205 Y49.944 Z-3.958
N8850 X-159.461 Y49.864 Z-3.956
N8855 X-159.716 Y49.755 Z-3.955
N8860 X-159.98 Y49.619 Z-3.954
N8865 X-160.33 Y49.459 Z-3.952
N8870 X-160.479 Y49.418 Z-3.951
N8875 X-160.634 Y49.401 Z-3.949
N8880 X-160.775 Y49.408 Z-3.946
N8885 X-160.926 Y49.44 Z-3.943
N8890 X-161.057 Y49.49 Z-3.939
N8895 X-161.176 Y49.556 Z-3.935
N8900 X-161.295 Y49.648 Z-3.931
N8905 X-161.401 Y49.762 Z-3.926
N8910 X-161.546 Y49.959 Z-3.918
N8915 X-161.684 Y50.105 Z-3.912
N8920 X-161.925 Y50.322 Z-3.901
N8925 X-162.113 Y50.463 Z-3.894
N8930 X-162.657 Y50.807 Z-3.875
N8935 X-163.287 Y51.188 Z-3.852
N8940 X-163.817 Y51.493 Z-3.832
N8945 X-164.552 Y51.891 Z-3.806
N8950 X-165.093 Y52.168 Z-3.787
N8955 X-165.66 Y52.444 Z-3.768
N8960 X-166.21 Y52.697 Z-3.747
N8965 X-166.862 Y52.98 Z-3.723
N8970 X-167.544 Y53.26 Z-3.697
N8975 X-168.185 Y53.508 Z-3.672
N8980 X-168.823 Y53.74 Z-3.647
N8985 X-169.482 Y53.965 Z-3.621
N8990 X-170.145 Y54.176 Z-3.595
N8995 X-170.822 Y54.381 Z-3.569
N9000 X-171.439 Y54.551 Z-3.545
N9005 X-172.226 Y54.755 Z-3.513
N9010 X-173.01 Y54.945 Z-3.481
N9015 X-173.784 Y55.119 Z-3.449
N9020 X-174.61 Y55.292 Z-3.414
N9025 X-175.43 Y55.45 Z-3.379
N9030 X-176.239 Y55.591 Z-3.344
N9035 X-177.059 Y55.722 Z-3.309
N9040 X-178.205 Y55.884 Z-3.257
N9045 X-179.647 Y56.044 Z-3.192
N9050 X-180.978 Y56.191 Z-3.129
N9055 X-183.784 Y56.388 Z-2.991
N9060 X-186.222 Y56.479 Z-2.866
N9065 X-189.507 Y56.487 Z-2.687
N9070 X-192.593 Y56.377 Z-2.509
N9075 X-195.417 Y56.173 Z-2.339
N9080 X-197.341 Y55.966 Z-2.218
N9085 X-198.535 Y55.81 Z-2.142
N9090 X-199.713 Y55.631 Z-2.065
N9095 X-200.706 Y55.458 Z-2
N9100 X-201.562 Y55.291 Z-1.943
N9105 X-202.293 Y55.134 Z-1.895
N9110 X-202.957 Y54.981 Z-1.85
N9115 X-203.703 Y54.791 Z-1.8
N9120 X-204.299 Y54.626 Z-1.759
N9125 X-204.851 Y54.462 Z-1.721
N9130 X-205.364 Y54.295 Z-1.685
N9135 X-205.888 Y54.112 Z-1.648
N9140 X-206.409 Y53.916 Z-1.612
N9145 X-206.904 Y53.717 Z-1.578
N9150 X-207.42 Y53.495 Z-1.541
N9155 X-207.877 Y53.286 Z-1.509
N9160 X-208.531 Y52.975 Z-1.465
N9165 X-208.866 Y52.804 Z-1.443
N9170 X-209.862 Y52.282 Z-1.375
N9175 X-210.14 Y52.149 Z-1.354
N9180 X-210.403 Y52.04 Z-1.333
N9185 X-210.665 Y51.955 Z-1.313
N9190 X-210.938 Y51.89 Z-1.29
N9195 X-211.147 Y51.855 Z-1.273
N9200 X-211.412 Y51.811 Z-1.251
N9205 X-211.658 Y51.759 Z-1.23
N9210 X-211.912 Y51.693 Z-1.21
N9215 X-212.165 Y51.613 Z-1.19
N9220 X-212.389 Y51.531 Z-1.172
N9225 X-212.664 Y51.415 Z-1.151
N9230 X-212.939 Y51.291 Z-1.129
N9235 X-213.366 Y51.076 Z-1.097
N9240 X-213.542 Y50.974 Z-1.084
N9245 X-214.066 Y50.633 Z-1.046
N9250 X-214.167 Y50.554 Z-1.039
N9255 X-214.253 Y50.467 Z-1.033
N9260 X-214.324 Y50.378 Z-1.029
N9265 X-214.393 Y50.264 Z-1.025
N9270 X-214.445 Y50.146 Z-1.023
N9275 X-214.483 Y50.018
N9280 X-214.503 Y49.885 Z-1.024
N9285 X-214.505 Y49.732 Z-1.027
N9290 X-214.488 Y49.601 Z-1.032
N9295 X-214.451 Y49.465 Z-1.038
N9300 X-214.397 Y49.338 Z-1.046
N9305 X-214.325 Y49.217 Z-1.055
N9310 X-214.219 Y49.07 Z-1.067
N9315 X-214.117 Y48.898 Z-1.08
N9320 X-214.019 Y48.696 Z-1.093
N9325 X-213.925 Y48.475 Z-1.106
N9330 X-213.818 Y48.243 Z-1.121
N9335 X-213.636 Y47.829 Z-1.146
N9340 X-213.502 Y47.546 Z-1.163
N9345 X-213.362 Y47.276 Z-1.181
N9350 X-213.194 Y46.981 Z-1.202
N9355 X-213.016 Y46.679 Z-1.223
N9360 X-212.888 Y46.43 Z-1.24
N9365 X-212.792 Y46.209 Z-1.253
N9370 X-212.695 Y45.943 Z-1.266
N9375 X-212.608 Y45.64 Z-1.28
N9380 X-212.547 Y45.346 Z-1.291
N9385 X-212.476 Y44.809 Z-1.308
N9390 X-212.409 Y44.14 Z-1.33
N9395 X-212.317 Y42.961 Z-1.377
N9400 X-212.256 Y42.033 Z-1.414
N9405 X-212.144 Y40.645 Z-1.459
N9410 X-212.03 Y39.484 Z-1.488
N9415 X-211.924 Y38.664 Z-1.507
N9420 X-211.719 Y37.127 Z-1.538
N9425 X-211.506 Y35.891 Z-1.561
N9430 X-211.304 Y34.858 Z-1.58
N9435 X-211.076 Y33.815 Z-1.599
N9440 X-210.838 Y32.829 Z-1.617
N9445 X-210.664 Y32.16 Z-1.629
N9450 X-210.358 Y31.098 Z-1.65
N9455 X-210.062 Y30.153 Z-1.668
N9460 X-209.732 Y29.178 Z-1.688
N9465 X-209.39 Y28.242 Z-1.708
N9470 X-209.014 Y27.281 Z-1.729
N9475 X-208.699 Y26.528 Z-1.746
N9480 X-208.299 Y25.657 Z-1.768
N9485 X-207.958 Y24.95 Z-1.785
N9490 X-207.564 Y24.188 Z-1.806
N9495 X-207.127 Y23.396 Z-1.828
N9500 X-206.668 Y22.609 Z-1.852
N9505 X-206.143 Y21.786 Z-1.879
N9510 X-205.725 Y21.171 Z-1.9
N9515 X-205.213 Y20.463 Z-1.926
N9520 X-204.742 Y19.852 Z-1.949
N9525 X-204.251 Y19.256 Z-1.974
N9530 X-203.743 Y18.678 Z-2
N9535 X-203.216 Y18.116 Z-2.026
N9540 X-202.689 Y17.588 Z-2.053
N9545 X-202.137 Y17.067 Z-2.08
N9550 X-201.56 Y16.557 Z-2.11
N9555 X-200.983 Y16.078 Z-2.139
N9560 X-200.381 Y15.609 Z-2.169
N9565 X-199.781 Y15.172 Z-2.199
N9570 X-199.326 Y14.865 Z-2.222
N9575 X-198.827 Y14.561 Z-2.247
N9580 X-198.059 Y14.122 Z-2.286
N9585 X-197.484 Y13.819 Z-2.315
N9590 X-196.903 Y13.539 Z-2.345
N9595 X-196.302 Y13.276 Z-2.375
N9600 X-195.65 Y13.016 Z-2.408
N9605 X-195.022 Y12.791 Z-2.44
N9610 X-194.35 Y12.576 Z-2.475
N9615 X-193.649 Y12.373 Z-2.511
N9620 X-192.965 Y12.197 Z-2.546
N9625 X-192.162 Y12.03 Z-2.588
N9630 X-191.37 Y11.887 Z-2.629
N9635 X-190.731 Y11.793 Z-2.662
N9640 X-189.878 Y11.697 Z-2.707
N9645 X-189.04 Y11.626 Z-2.751
N9650 X-188.196 Y11.578 Z-2.795
N9655 X-187.303 Y11.552 Z-2.841
N9660 X-186.266 Y11.564 Z-2.896
N9665 X-185.388 Y11.602 Z-2.942
N9670 X-184.848 Y11.639 Z-2.97
N9675 X-183.546 Y11.757 Z-3.037
N9680 X-182.929 Y11.835 Z-3.069
N9685 X-182.347 Y11.915 Z-3.099
N9690 X-181.61 Y12.036 Z-3.137
N9695 X-181.312 Y12.09 Z-3.152
N9700 X-180.624 Y12.227 Z-3.188
N9705 X-179.934 Y12.378 Z-3.223
N9710 X-179.24 Y12.545 Z-3.258
N9715 X-178.611 Y12.708 Z-3.289
N9720 X-178.093 Y12.857 Z-3.314
N9725 X-177.48 Y13.04 Z-3.343
N9730 X-176.833 Y13.256 Z-3.375
N9735 X-176.005 Y13.553 Z-3.416
N9740 X-175.19 Y13.869 Z-3.456
N9745 X-174.379 Y14.21 Z-3.496
N9750 X-173.62 Y14.552 Z-3.533
N9755 X-173.186 Y14.763 Z-3.555
N9760 X-172.673 Y15.029 Z-3.578
N9765 X-172.152 Y15.313 Z-3.601
N9770 X-171.621 Y15.618 Z-3.625
N9775 X-170.918 Y16.046 Z-3.659
N9780 X-170.233 Y16.491 Z-3.692
N9785 X-169.725 Y16.84 Z-3.716
N9790 X-169.079 Y17.308 Z-3.748
N9795 X-168.56 Y17.712 Z-3.774
N9800 X-167.636 Y18.494 Z-3.815
N9805 X-167.35 Y18.754 Z-3.827
N9810 X-166.904 Y19.18 Z-3.848
N9815 X-166.459 Y19.621 Z-3.868
N9820 X-166.023 Y20.073 Z-3.889
N9825 X-165.6 Y20.54 Z-3.909
N9830 X-165.106 Y21.12 Z-3.934
N9835 X-164.767 Y21.536 Z-3.951
N9840 X-164.437 Y21.959 Z-3.966
N9845 X-164.035 Y22.497 Z-3.982
N9850 X-163.622 Y23.092 Z-4
N9855 X-163.146 Y23.815 Z-4.021
N9860 X-162.702 Y24.535 Z-4.042
N9865 X-162.283 Y25.257 Z-4.064
N9870 X-161.883 Y25.993 Z-4.082
N9875 X-161.499 Y26.75 Z-4.098
N9880 X-161.09 Y27.599 Z-4.114
N9885 X-160.812 Y28.223 Z-4.126
N9890 X-160.484 Y28.993 Z-4.139
N9895 X-160.081 Y29.999 Z-4.154
N9900 X-159.701 Y31.013 Z-4.167
N9905 X-159.383 Y31.922 Z-4.177
N9910 X-159.052 Y32.942 Z-4.186
N9915 X-158.626 Y34.378 Z-4.195
N9920 X-158.34 Y35.429 Z-4.194
N9925 X-158.051 Y36.58 Z-4.189
N9930 X-157.76 Y37.838 Z-4.182
N9935 X-157.529 Y38.937 Z-4.175
N9940 X-157.348 Y39.869 Z-4.168
N9945 X-157.277 Y40.138 Z-4.165
N9950 X-157.223 Y40.385 Z-4.162
N9955 X-157.186 Y40.731 Z-4.157
N9960 X-157.181 Y40.929 Z-4.154
N9965 X-157.203 Y41.164 Z-4.15
N9970 X-157.25 Y41.384 Z-4.146
N9975 X-157.319 Y41.591 Z-4.143
N9980 X-157.415 Y41.831 Z-4.138
N9985 X-157.51 Y42.136 Z-4.133
N9990 X-157.579 Y42.416 Z-4.128
N9995 X-157.707 Y43.055 Z-4.118
N10000 X-157.785 Y43.503 Z-4.11
N10005 X-157.83 Y43.827 Z-4.105
N10010 X-157.883 Y44.303 Z-4.097
N10015 X-157.909 Y44.467 Z-4.094
N10020 X-157.946 Y44.601 Z-4.09
N10025 X-157.991 Y44.712 Z-4.088
N10030 X-158.099 Y44.915 Z-4.082
N10035 X-158.148 Y45.02 Z-4.079
N10040 X-158.207 Y45.197 Z-4.074
N10045 X-158.269 Y45.391 Z-4.069
N10050 X-158.282 Y45.45 Z-4.068
N10055 X-158.284 Y45.545 Z-4.066
N10060 X-158.269 Y45.614 Z-4.064
N10065 X-158.236 Y45.689 Z-4.063
N10070 X-158.179 Y45.764
N10075 X-158.009 Y45.9 Z-4.062
N10080 X-157.979 Y45.938
N10085 X-157.972 Y45.985 Z-4.061
N10090 X-157.963 Y46.032 Z-4.06
N10095 X-157.93 Y46.065
N10100 X-157.899 Y46.075
N10105 X-157.714 Y46.096 Z-4.062
N10110 X-157.628 Y46.117 Z-4.063
N10115 X-157.551 Y46.16
N10120 X-157.051 Y46.537 Z-4.061
N10125 X-156.731 Y46.832 Z-4.059
N10130 X-156.49 Y47.034 Z-4.057
N10135 X-156.098 Y47.324 Z-4.056
N10140 X-155.741 Y47.549 Z-4.055
N10145 X-155.338 Y47.766
N10150 X-154.847 Y47.986
N10155 X-154.462 Y48.13 Z-4.054
N10160 X-153.949 Y48.291
N10165 X-153.354 Y48.437
N10170 X-152.898 Y48.527 Z-4.053
N10175 X-152.074 Y48.647
N10180 X-151.356 Y48.719
N10185 X-150.584 Y48.75
N10190 X-149.871 Y48.756
N10195 X-149.066 Y48.737
N10200 X-148.519 Y48.704
N10205 X-147.858 Y48.634
N10210 X-147.006 Y48.501 Z-4.054
N10215 X-146.457 Y48.383
N10220 X-145.892 Y48.231
N10225 X-145.396 Y48.064 Z-4.055
N10230 X-145.033 Y47.917
N10235 X-144.565 Y47.695
N10240 X-144.163 Y47.466 Z-4.056
N10245 X-143.799 Y47.222 Z-4.057
N10250 X-143.429 Y46.932 Z-4.058
N10255 X-143.131 Y46.662 Z-4.061
N10260 X-142.956 Y46.502 Z-4.062
N10265 X-142.487 Y46.143 Z-4.063
N10270 X-142.414 Y46.1
N10275 X-142.332 Y46.074
N10280 X-142.118 Y46.035 Z-4.061
N10285 X-142.091 Y46.024
N10290 X-142.07 Y46.003
N10295 X-142.058 Y45.976
N10300 X-142.059 Y45.923 Z-4.062
N10305 X-142.042 Y45.88 Z-4.063
N10310 X-142.026 Y45.863
N10315 X-141.876 Y45.742 Z-4.064
N10320 X-141.815 Y45.663 Z-4.065
N10325 X-141.78 Y45.569 Z-4.066
N10330 X-141.772 Y45.499 Z-4.068
N10335 X-141.78 Y45.425 Z-4.069
N10340 X-141.79 Y45.389 Z-4.07
N10345 X-141.896 Y45.068 Z-4.078
N10350 X-141.94 Y44.957 Z-4.081
N10355 X-142.04 Y44.771 Z-4.087
N10360 X-142.089 Y44.667 Z-4.09
N10365 X-142.134 Y44.539 Z-4.093
N10370 X-142.171 Y44.361 Z-4.097
N10375 X-142.233 Y43.83 Z-4.106
N10380 X-142.296 Y43.409 Z-4.112
N10385 X-142.358 Y43.072 Z-4.118
N10390 X-142.489 Y42.443 Z-4.128
N10395 X-142.555 Y42.179 Z-4.133
N10400 X-142.643 Y41.902 Z-4.138
N10405 X-142.731 Y41.68 Z-4.142
N10410 X-142.805 Y41.493 Z-4.145
N10415 X-142.864 Y41.277 Z-4.149
N10420 X-142.902 Y41.036 Z-4.153
N10425 X-142.911 Y40.827 Z-4.156
N10430 X-142.898 Y40.609 Z-4.159
N10435 X-142.857 Y40.31 Z-4.164
N10440 X-142.792 Y40.049 Z-4.167
N10445 X-142.737 Y39.836 Z-4.169
N10450 X-142.558 Y38.913 Z-4.177
N10455 X-142.386 Y38.085 Z-4.181
N10460 X-142.125 Y36.929 Z-4.188
N10465 X-141.836 Y35.75 Z-4.193
N10470 X-141.534 Y34.617 Z-4.197
N10475 X-141.08 Y33.069 Z-4.187
N10480 X-140.752 Y32.048 Z-4.179
N10485 X-140.406 Y31.05 Z-4.168
N10490 X-140.029 Y30.037 Z-4.155
N10495 X-139.637 Y29.055 Z-4.141
N10500 X-139.299 Y28.255 Z-4.128
N10505 X-138.986 Y27.55 Z-4.115
N10510 X-138.57 Y26.687 Z-4.098
N10515 X-138.188 Y25.935 Z-4.082
N10520 X-137.786 Y25.195 Z-4.064
N10525 X-137.366 Y24.47 Z-4.043
N10530 X-136.941 Y23.779 Z-4.023
N10535 X-136.478 Y23.072 Z-4.002
N10540 X-136.17 Y22.621 Z-3.989
N10545 X-135.957 Y22.326 Z-3.98
N10550 X-135.48 Y21.695 Z-3.96
N10555 X-135.17 Y21.303 Z-3.945
N10560 X-134.817 Y20.878 Z-3.927
N10565 X-134.393 Y20.385 Z-3.906
N10570 X-134.05 Y20.007 Z-3.889
N10575 X-133.621 Y19.561 Z-3.869
N10580 X-133.177 Y19.119 Z-3.848
N10585 X-132.725 Y18.686 Z-3.828
N10590 X-132.442 Y18.427 Z-3.815
N10595 X-131.68 Y17.777 Z-3.782
N10600 X-131.339 Y17.499 Z-3.766
N10605 X-131.03 Y17.259 Z-3.75
N10610 X-130.362 Y16.762 Z-3.717
N10615 X-129.806 Y16.376 Z-3.689
N10620 X-129.214 Y15.986 Z-3.661
N10625 X-128.575 Y15.595 Z-3.631
N10630 X-127.873 Y15.192 Z-3.598
N10635 X-127.285 Y14.871 Z-3.572
N10640 X-126.72 Y14.579 Z-3.546
N10645 X-126.186 Y14.324 Z-3.52
N10650 X-125.472 Y14.006 Z-3.485
N10655 X-124.833 Y13.737 Z-3.454
N10660 X-124.199 Y13.486 Z-3.422
N10665 X-123.55 Y13.244 Z-3.39
N10670 X-122.905 Y13.018 Z-3.358
N10675 X-122.453 Y12.868 Z-3.336
N10680 X-121.505 Y12.585 Z-3.29
N10685 X-120.676 Y12.365 Z-3.249
N10690 X-119.745 Y12.144 Z-3.202
N10695 X-119.02 Y11.989 Z-3.165
N10700 X-118.415 Y11.872 Z-3.134
N10705 X-117.629 Y11.74 Z-3.094
N10710 X-116.617 Y11.604 Z-3.042
N10715 X-115.718 Y11.506 Z-2.995
N10720 X-114.945 Y11.442 Z-2.955
N10725 X-113.951 Y11.388 Z-2.903
N10730 X-113.273 Y11.373 Z-2.868
N10735 X-112.608 Y11.368 Z-2.833
N10740 X-111.709 Y11.397 Z-2.787
N10745 X-110.845 Y11.449 Z-2.742
N10750 X-110 Y11.523 Z-2.698
N10755 X-109.16 Y11.619 Z-2.654
N10760 X-108.538 Y11.712 Z-2.622
N10765 X-107.693 Y11.868 Z-2.579
N10770 X-106.933 Y12.03 Z-2.54
N10775 X-106.125 Y12.244 Z-2.499
N10780 X-105.381 Y12.465 Z-2.461
N10785 X-104.658 Y12.704 Z-2.424
N10790 X-104.104 Y12.905 Z-2.397
N10795 X-103.263 Y13.255 Z-2.354
N10800 X-102.662 Y13.531 Z-2.324
N10805 X-102.09 Y13.818 Z-2.295
N10810 X-101.499 Y14.141 Z-2.266
N10815 X-100.881 Y14.505 Z-2.235
N10820 X-100.291 Y14.878 Z-2.205
N10825 X-99.701 Y15.278 Z-2.176
N10830 X-99.14 Y15.685 Z-2.148
N10835 X-98.576 Y16.122 Z-2.12
N10840 X-98.043 Y16.563 Z-2.094
N10845 X-97.509 Y17.034 Z-2.067
N10850 X-97.004 Y17.508 Z-2.042
N10855 X-96.499 Y18.014 Z-2.017
N10860 X-96.001 Y18.545 Z-1.993
N10865 X-95.527 Y19.085 Z-1.969
N10870 X-95.024 Y19.691 Z-1.944
N10875 X-94.551 Y20.296 Z-1.921
N10880 X-94.037 Y20.993 Z-1.896
N10885 X-93.652 Y21.547 Z-1.877
N10890 X-93.088 Y22.413 Z-1.849
N10895 X-92.653 Y23.14 Z-1.827
N10900 X-92.215 Y23.918 Z-1.805
N10905 X-91.808 Y24.687 Z-1.784
N10910 X-91.459 Y25.392 Z-1.767
N10915 X-91.004 Y26.369 Z-1.743
N10920 X-90.668 Y27.171 Z-1.725
N10925 X-90.322 Y28.048 Z-1.706
N10930 X-89.987 Y28.958 Z-1.687
N10935 X-89.662 Y29.905 Z-1.668
N10940 X-89.356 Y30.869 Z-1.649
N10945 X-89.081 Y31.808 Z-1.631
N10950 X-88.882 Y32.545 Z-1.618
N10955 X-88.619 Y33.626 Z-1.598
N10960 X-88.392 Y34.654 Z-1.58
N10965 X-88.179 Y35.728 Z-1.56
N10970 X-88.021 Y36.618 Z-1.543
N10975 X-87.741 Y38.468 Z-1.506
N10980 X-87.568 Y39.91 Z-1.472
N10985 X-87.432 Y41.228 Z-1.432
N10990 X-87.304 Y42.612 Z-1.374
N10995 X-87.24 Y43.263 Z-1.34
N11000 X-87.161 Y43.96 Z-1.305
N11005 X-87.077 Y44.554 Z-1.277
N11010 X-86.987 Y45.061 Z-1.257
N11015 X-86.923 Y45.334 Z-1.244
N11020 X-86.829 Y45.619 Z-1.23
N11025 X-86.726 Y45.855 Z-1.216
N11030 X-86.581 Y46.134 Z-1.198
N11035 X-86.483 Y46.286 Z-1.186
N11040 X-86.413 Y46.384 Z-1.178
N11045 X-86.19 Y46.744 Z-1.151
N11050 X-86.023 Y47.039 Z-1.13
N11055 X-85.943 Y47.189 Z-1.12
N11060 X-85.894 Y47.273 Z-1.114
N11065 X-85.709 Y47.633 Z-1.091
N11070 X-85.604 Y47.807 Z-1.078
N11075 X-85.515 Y47.977 Z-1.067
N11080 X-85.443 Y48.09 Z-1.058
N11085 X-85.287 Y48.288 Z-1.04
N11090 X-85.159 Y48.438 Z-1.025
N11095 X-85.05 Y48.552 Z-1.013
N11100 X-84.872 Y48.713 Z-0.994
N11105 X-84.705 Y48.847 Z-0.976
N11110 X-84.534 Y48.967 Z-0.958
N11115 X-84.41 Y49.052 Z-0.946
N11120 X-84.307 Y49.138 Z-0.935
N11125 X-84.217 Y49.23 Z-0.925
N11130 X-84.132 Y49.337 Z-0.915
N11135 X-84.05 Y49.467 Z-0.904
N11140 X-83.996 Y49.577 Z-0.897
N11145 X-83.952 Y49.694 Z-0.89
N11150 X-83.913 Y49.84 Z-0.883
N11155 X-83.892 Y49.99 Z-0.878
N11160 X-83.887 Y50.146 Z-0.874
N11165 X-83.902 Y50.301 Z-0.872
N11170 X-83.936 Y50.459 Z-0.871
N11175 X-83.979 Y50.586 Z-0.872
N11180 X-84.044 Y50.727 Z-0.875
N11185 X-84.116 Y50.845 Z-0.879
N11190 X-84.197 Y50.951 Z-0.883
N11195 X-84.312 Y51.07 Z-0.891
N11200 X-84.437 Y51.172 Z-0.9
N11205 X-84.579 Y51.26 Z-0.911
N11210 X-84.733 Y51.331 Z-0.923
N11215 X-85.704 Y51.675 Z-1
N11220 X-85.818 Y51.726 Z-1.009
N11225 X-86.464 Y51.964 Z-1.06
N11230 X-86.848 Y52.121 Z-1.09
N11235 X-86.96 Y52.171 Z-1.098
N11240 X-87.45 Y52.351 Z-1.137
N11245 X-87.76 Y52.453 Z-1.161
N11250 X-88.041 Y52.532 Z-1.185
N11255 X-88.296 Y52.592 Z-1.205
N11260 X-88.576 Y52.645 Z-1.229
N11265 X-89.037 Y52.71 Z-1.268
N11270 X-89.219 Y52.744 Z-1.283
N11275 X-89.413 Y52.793 Z-1.298
N11280 X-89.716 Y52.895 Z-1.323
N11285 X-89.942 Y52.979 Z-1.34
N11290 X-90.14 Y53.066 Z-1.354
N11295 X-90.396 Y53.184 Z-1.373
N11300 X-90.648 Y53.3 Z-1.391
N11305 X-91.629 Y53.724 Z-1.458
N11310 X-92.263 Y53.987 Z-1.505
N11315 X-92.78 Y54.189 Z-1.541
N11320 X-93.378 Y54.405 Z-1.583
N11325 X-94.106 Y54.647 Z-1.635
N11330 X-94.782 Y54.846 Z-1.683
N11335 X-95.517 Y55.053 Z-1.735
N11340 X-96.426 Y55.278 Z-1.798
N11345 X-97.397 Y55.493 Z-1.865
N11350 X-98.502 Y55.71 Z-1.939
N11355 X-99.631 Y55.907 Z-2.015
N11360 X-100.87 Y56.096 Z-2.097
N11365 X-101.594 Y56.192 Z-2.144
N11370 X-104.186 Y56.486 Z-2.308
N11375 X-106.993 Y56.704 Z-2.478
N11380 X-109.525 Y56.824 Z-2.625
N11385 X-112.806 Y56.874 Z-2.807
N11390 X-115.897 Y56.811 Z-2.967
N11395 X-118.615 Y56.66 Z-3.1
N11400 X-121.136 Y56.431 Z-3.217
N11405 X-122.493 Y56.266 Z-3.277
N11410 X-123.673 Y56.097 Z-3.329
N11415 X-124.771 Y55.915 Z-3.376
N11420 X-125.858 Y55.711 Z-3.421
N11425 X-126.959 Y55.48 Z-3.466
N11430 X-128.025 Y55.233 Z-3.509
N11435 X-129.107 Y54.957 Z-3.552
N11440 X-129.747 Y54.775 Z-3.577
N11445 X-130.652 Y54.497 Z-3.612
N11450 X-131.56 Y54.194 Z-3.647
N11455 X-132.447 Y53.873 Z-3.681
N11460 X-133.354 Y53.52 Z-3.714
N11465 X-134.253 Y53.144 Z-3.747
N11470 X-134.859 Y52.873 Z-3.769
N11475 X-135.561 Y52.541 Z-3.793
N11480 X-136.232 Y52.209 Z-3.817
N11485 X-136.551 Y52.043 Z-3.828
N11490 X-137.66 Y51.451 Z-3.866
N11495 X-138.354 Y51.073 Z-3.889
N11500 X-138.543 Y50.962 Z-3.895
N11505 X-138.714 Y50.834 Z-3.902
N11510 X-138.897 Y50.68 Z-3.909
N11515 X-139.059 Y50.577 Z-3.914
N11520 X-139.221 Y50.504 Z-3.919
N11525 X-139.4 Y50.452 Z-3.924
N11530 X-139.587 Y50.426 Z-3.928
N11535 X-139.741 Y50.425 Z-3.931
N11540 X-139.922 Y50.447 Z-3.933
N11545 X-140.077 Y50.488 Z-3.935
N11550 X-140.433 Y50.601 Z-3.94
N11555 X-140.714 Y50.662 Z-3.944
N11560 X-141.115 Y50.724 Z-3.951
N11565 X-141.341 Y50.736 Z-3.955
N11570 X-141.473 Y50.741 Z-3.957
N11575 X-141.604 Y50.768 Z-3.959
N11580 X-141.786 Y50.822 Z-3.962
N11585 X-142.536 Y50.967 Z-3.975
N11590 X-143.664 Y51.162 Z-3.991
N11595 X-144.94 Y51.379 Z-4.007
N11600 X-147.346 Y51.67 Z-4.025
N11605 X-149.68 Y51.866 Z-4.028
N11610 X-149.948 Y51.877
N11615 X-150.319 Y51.867
N11620 X-152.689 Y51.674 Z-4.025
N11625 X-155.1 Y51.389 Z-4.006
N11630 X-157.389 Y51.008 Z-3.976
N11635 X-158.366 Y50.83 Z-3.959
N11640 X-158.821 Y50.769 Z-3.952
N11645 X-159.138 Y50.724 Z-3.946
N11650 X-159.482 Y50.656 Z-3.94
N11655 X-159.85 Y50.558 Z-3.935
N11660 X-160.187 Y50.45 Z-3.931
N11665 X-160.318 Y50.425 Z-3.929
N11670 X-160.472 Y50.422 Z-3.927
N11675 X-160.618 Y50.444 Z-3.924
N11680 X-160.752 Y50.486 Z-3.92
N11685 X-160.875 Y50.547 Z-3.916
N11690 X-160.991 Y50.63 Z-3.912
N11695 X-161.205 Y50.834 Z-3.903
N11700 X-161.378 Y50.971 Z-3.897
N11705 X-161.555 Y51.086 Z-3.89
N11710 X-161.865 Y51.254 Z-3.88
N11715 X-162.597 Y51.652 Z-3.856
N11720 X-163.599 Y52.186 Z-3.821
N11725 X-164.265 Y52.52 Z-3.798
N11730 X-164.967 Y52.858 Z-3.773
N11735 X-165.719 Y53.198 Z-3.746
N11740 X-166.634 Y53.582 Z-3.713
N11745 X-167.532 Y53.934 Z-3.68
N11750 X-168.454 Y54.269 Z-3.645
N11755 X-169.361 Y54.574 Z-3.61
N11760 X-170.297 Y54.863 Z-3.574
N11765 X-170.886 Y55.032 Z-3.551
N11770 X-171.936 Y55.302 Z-3.509
N11775 X-173.026 Y55.559 Z-3.465
N11780 X-174.123 Y55.791 Z-3.42
N11785 X-175.2 Y55.996 Z-3.375
N11790 X-176.3 Y56.18 Z-3.328
N11795 X-177.469 Y56.351 Z-3.277
N11800 X-178.184 Y56.44 Z-3.246
N11805 X-180.94 Y56.721 Z-3.119
N11810 X-183.766 Y56.894 Z-2.982
N11815 X-186.219 Y56.966 Z-2.857
N11820 X-189.582 Y56.954 Z-2.675
N11825 X-193.014 Y56.817 Z-2.477
N11830 X-195.824 Y56.608 Z-2.306
N11835 X-197.982 Y56.384 Z-2.169
N11840 X-199.879 Y56.133 Z-2.045
N11845 X-201.036 Y55.953 Z-1.968
N11850 X-202.206 Y55.747 Z-1.889
N11855 X-203.239 Y55.543 Z-1.819
N11860 X-204.291 Y55.311 Z-1.746
N11865 X-205.951 Y54.872 Z-1.627
N11870 X-206.689 Y54.646 Z-1.573
N11875 X-207.434 Y54.396 Z-1.519
N11880 X-208.202 Y54.112 Z-1.465
N11885 X-209.167 Y53.738 Z-1.394
N11890 X-209.47 Y53.619 Z-1.373
N11895 X-209.83 Y53.472 Z-1.346
N11900 X-210.06 Y53.377 Z-1.33
N11905 X-210.441 Y53.251 Z-1.3
N11910 X-210.717 Y53.175 Z-1.278
N11915 X-211.002 Y53.119 Z-1.255
N11920 X-211.5 Y53.052 Z-1.213
N11925 X-211.829 Y52.992 Z-1.185
N11930 X-212.152 Y52.92 Z-1.157
N11935 X-212.588 Y52.802 Z-1.121
N11940 X-213.099 Y52.642 Z-1.08
N11945 X-213.219 Y52.596 Z-1.071
N11950 X-213.649 Y52.45 Z-1.037
N11955 X-214.259 Y52.264 Z-0.988
N11960 X-214.342 Y52.233 Z-0.982
N11965 X-214.96 Y52.054 Z-0.932
N11970 X-215.118 Y51.999 Z-0.919
N11975 X-215.308 Y51.912 Z-0.905
N11980 X-215.458 Y51.827 Z-0.893
N11985 X-215.631 Y51.707 Z-0.88
N11990 X-215.793 Y51.569 Z-0.869
N11995 X-215.945 Y51.41 Z-0.859
N12000 X-216.062 Y51.262 Z-0.852
N12005 X-216.165 Y51.104 Z-0.846
N12010 X-216.247 Y50.95 Z-0.842
N12015 X-216.309 Y50.81 Z-0.84
N12020 X-216.378 Y50.611 Z-0.838
N12025 X-216.423 Y50.421
N12030 X-216.452 Y50.222 Z-0.841
N12035 X-216.461 Y49.997 Z-0.845
N12040 X-216.449 Y49.788 Z-0.851
N12045 X-216.417 Y49.588 Z-0.858
N12050 X-216.387 Y49.462 Z-0.863
N12055 X-216.335 Y49.298 Z-0.872
N12060 X-216.255 Y49.106 Z-0.884
N12065 X-216.193 Y48.987 Z-0.893
N12070 X-216.102 Y48.837 Z-0.904
N12075 X-215.975 Y48.666 Z-0.919
N12080 X-215.829 Y48.507 Z-0.935
N12085 X-215.663 Y48.36 Z-0.953
N12090 X-215.486 Y48.228 Z-0.972
N12095 X-215.323 Y48.109 Z-0.989
N12100 X-215.158 Y47.964 Z-1.006
N12105 X-215.012 Y47.807 Z-1.023
N12110 X-214.907 Y47.671 Z-1.035
N12115 X-214.592 Y47.245 Z-1.071
N12120 X-214.514 Y47.12 Z-1.081
N12125 X-214.374 Y46.875 Z-1.098
N12130 X-214.309 Y46.775 Z-1.106
N12135 X-214.136 Y46.486 Z-1.127
N12140 X-213.931 Y46.17 Z-1.151
N12145 X-213.756 Y45.917 Z-1.171
N12150 X-213.639 Y45.705 Z-1.186
N12155 X-213.506 Y45.432 Z-1.204
N12160 X-213.413 Y45.183 Z-1.219
N12165 X-213.341 Y44.917 Z-1.232
N12170 X-213.262 Y44.55 Z-1.25
N12175 X-213.193 Y44.169 Z-1.271
N12180 X-213.119 Y43.693 Z-1.297
N12185 X-213.014 Y42.858 Z-1.347
N12190 X-212.859 Y41.379 Z-1.42
N12195 X-212.653 Y39.432 Z-1.481
N12200 X-212.498 Y38.268 Z-1.508
N12205 X-212.331 Y37.03 Z-1.533
N12210 X-212.126 Y35.811 Z-1.556
N12215 X-211.914 Y34.691 Z-1.576
N12220 X-211.681 Y33.59 Z-1.596
N12225 X-211.488 Y32.768 Z-1.61
N12230 X-211.184 Y31.588 Z-1.632
N12235 X-210.896 Y30.59 Z-1.65
N12240 X-210.592 Y29.625 Z-1.669
N12245 X-210.275 Y28.696 Z-1.687
N12250 X-209.925 Y27.738 Z-1.707
N12255 X-209.562 Y26.816 Z-1.727
N12260 X-209.32 Y26.234 Z-1.74
N12265 X-208.785 Y25.081 Z-1.767
N12270 X-208.427 Y24.363 Z-1.786
N12275 X-208.013 Y23.588 Z-1.806
N12280 X-207.57 Y22.811 Z-1.828
N12285 X-207.176 Y22.164 Z-1.847
N12290 X-206.641 Y21.344 Z-1.873
N12295 X-206.243 Y20.775 Z-1.892
N12300 X-205.735 Y20.089 Z-1.917
N12305 X-205.243 Y19.466 Z-1.941
N12310 X-204.744 Y18.871 Z-1.965
N12315 X-204.253 Y18.32 Z-1.989
N12320 X-203.735 Y17.774 Z-2.014
N12325 X-203.199 Y17.242 Z-2.04
N12330 X-202.658 Y16.741 Z-2.066
N12335 X-202.059 Y16.221 Z-2.096
N12340 X-201.606 Y15.854 Z-2.118
N12345 X-200.957 Y15.365 Z-2.149
N12350 X-200.279 Y14.884 Z-2.182
N12355 X-199.784 Y14.549 Z-2.207
N12360 X-199.186 Y14.184 Z-2.236
N12365 X-198.505 Y13.799 Z-2.27
N12370 X-197.888 Y13.47 Z-2.3
N12375 X-197.274 Y13.17 Z-2.33
N12380 X-196.659 Y12.896 Z-2.361
N12385 X-195.929 Y12.595 Z-2.397
N12390 X-195.205 Y12.337 Z-2.433
N12395 X-194.438 Y12.087 Z-2.471
N12400 X-193.647 Y11.857 Z-2.511
N12405 X-193.038 Y11.697 Z-2.542
N12410 X-192.143 Y11.504 Z-2.587
N12415 X-191.343 Y11.355 Z-2.627
N12420 X-190.706 Y11.262 Z-2.66
N12425 X-189.849 Y11.163 Z-2.703
N12430 X-188.988 Y11.086 Z-2.747
N12435 X-188.122 Y11.033 Z-2.792
N12440 X-187.301 Y11.003 Z-2.833
N12445 X-186.362 Y11.012 Z-2.882
N12450 X-185.504 Y11.043 Z-2.925
N12455 X-184.685 Y11.095 Z-2.967
N12460 X-183.82 Y11.175 Z-3.012
N12465 X-182.958 Y11.278 Z-3.055
N12470 X-182.094 Y11.405 Z-3.099
N12475 X-181.281 Y11.546 Z-3.141
N12480 X-180.31 Y11.749 Z-3.19
N12485 X-179.434 Y11.956 Z-3.234
N12490 X-178.553 Y12.189 Z-3.277
N12495 X-177.694 Y12.441 Z-3.32
N12500 X-177.203 Y12.597 Z-3.344
N12505 X-176.541 Y12.828 Z-3.377
N12510 X-175.889 Y13.07 Z-3.409
N12515 X-175.25 Y13.32 Z-3.44
N12520 X-174.6 Y13.59 Z-3.472
N12525 X-173.772 Y13.956 Z-3.511
N12530 X-173.178 Y14.238 Z-3.54
N12535 X-172.427 Y14.629 Z-3.576
N12540 X-171.857 Y14.945 Z-3.602
N12545 X-171.305 Y15.267 Z-3.628
N12550 X-170.573 Y15.72 Z-3.662
N12555 X-169.858 Y16.192 Z-3.697
N12560 X-169.169 Y16.675 Z-3.73
N12565 X-168.527 Y17.154 Z-3.761
N12570 X-168.255 Y17.371 Z-3.775
N12575 X-167.68 Y17.855 Z-3.8
N12580 X-167.212 Y18.268 Z-3.82
N12585 X-166.753 Y18.692 Z-3.841
N12590 X-166.304 Y19.127 Z-3.861
N12595 X-165.926 Y19.508 Z-3.879
N12600 X-165.555 Y19.897 Z-3.897
N12605 X-165.191 Y20.294 Z-3.914
N12610 X-164.814 Y20.723 Z-3.933
N12615 X-164.473 Y21.129 Z-3.95
N12620 X-164.144 Y21.544 Z-3.965
N12625 X-163.616 Y22.234 Z-3.987
N12630 X-163.43 Y22.493 Z-3.995
N12635 X-162.979 Y23.149 Z-4.014
N12640 X-162.529 Y23.838 Z-4.034
N12645 X-162.175 Y24.411 Z-4.05
N12650 X-161.732 Y25.168 Z-4.072
N12655 X-161.317 Y25.921 Z-4.091
N12660 X-160.887 Y26.754 Z-4.108
N12665 X-160.59 Y27.35 Z-4.119
N12670 X-160.078 Y28.459 Z-4.139
N12675 X-159.709 Y29.306 Z-4.153
N12680 X-159.427 Y29.989 Z-4.162
N12685 X-159.002 Y31.071 Z-4.175
N12690 X-158.724 Y31.809 Z-4.183
N12695 X-158.107 Y33.573 Z-4.196
N12700 X-157.366 Y35.934 Z-4.199
N12705 X-156.684 Y38.376 Z-4.191
N12710 X-156.37 Y39.617 Z-4.182
N12715 X-156.251 Y40.027 Z-4.177
N12720 X-156.199 Y40.278 Z-4.174
N12725 X-156.175 Y40.461 Z-4.172
N12730 X-156.161 Y40.694 Z-4.169
N12735 X-156.163 Y40.9 Z-4.166
N12740 X-156.186 Y41.17 Z-4.162
N12745 X-156.228 Y41.417 Z-4.158
N12750 X-156.287 Y41.65 Z-4.154
N12755 X-156.361 Y41.869 Z-4.15
N12760 X-156.485 Y42.158 Z-4.144
N12765 X-156.579 Y42.397 Z-4.14
N12770 X-156.673 Y42.696 Z-4.134
N12775 X-156.782 Y43.145 Z-4.126
N12780 X-156.844 Y43.453 Z-4.121
N12785 X-156.904 Y43.83 Z-4.115
N12790 X-156.949 Y44.258 Z-4.108
N12795 X-156.963 Y44.416 Z-4.105
N12800 X-156.984 Y44.544 Z-4.103
N12805 X-157.003 Y44.629 Z-4.102
N12810 X-157.065 Y44.821 Z-4.098
N12815 X-157.092 Y44.947 Z-4.095
N12820 X-157.103 Y45.065 Z-4.093
N12825 X-157.098 Y45.191 Z-4.09
N12830 X-157.077 Y45.319 Z-4.087
N12835 X-157.034 Y45.456 Z-4.085
N12840 X-156.972 Y45.587 Z-4.083
N12845 X-156.909 Y45.684 Z-4.082
N12850 X-156.827 Y45.78 Z-4.081
N12855 X-156.682 Y45.908 Z-4.08
N12860 X-156.35 Y46.182 Z-4.077
N12865 X-156.146 Y46.389 Z-4.075
N12870 X-155.936 Y46.597 Z-4.073
N12875 X-155.645 Y46.845 Z-4.071
N12880 X-155.354 Y47.056 Z-4.07
N12885 X-155.053 Y47.241 Z-4.069
N12890 X-154.678 Y47.435 Z-4.068
N12895 X-154.306 Y47.596 Z-4.067
N12900 X-153.891 Y47.745 Z-4.066
N12905 X-153.475 Y47.867
N12910 X-152.882 Y48.004 Z-4.065
N12915 X-152.231 Y48.11
N12920 X-151.658 Y48.181
N12925 X-151.188 Y48.218
N12930 X-150.338 Y48.242
N12935 X-149.39 Y48.236
N12940 X-148.647 Y48.205
N12945 X-147.889 Y48.123
N12950 X-147.12 Y47.996
N12955 X-146.528 Y47.857 Z-4.066
N12960 X-146.114 Y47.734 Z-4.067
N12965 X-145.7 Y47.584
N12970 X-145.33 Y47.422 Z-4.068
N12975 X-144.957 Y47.226 Z-4.069
N12980 X-144.622 Y47.015 Z-4.07
N12985 X-144.371 Y46.83 Z-4.071
N12990 X-144.084 Y46.581 Z-4.074
N12995 X-143.895 Y46.392 Z-4.076
N13000 X-143.67 Y46.156 Z-4.078
N13005 X-143.4 Y45.922 Z-4.08
N13010 X-143.241 Y45.786 Z-4.081
N13015 X-143.133 Y45.658 Z-4.083
N13020 X-143.068 Y45.551 Z-4.084
N13025 X-143.008 Y45.416 Z-4.086
N13030 X-142.987 Y45.35 Z-4.087
N13035 X-142.967 Y45.26 Z-4.089
N13040 X-142.956 Y45.185 Z-4.091
N13045 X-142.952 Y45.041 Z-4.094
N13050 X-142.967 Y44.91 Z-4.097
N13055 X-142.994 Y44.798 Z-4.099
N13060 X-143.046 Y44.64 Z-4.102
N13065 X-143.074 Y44.511 Z-4.104
N13070 X-143.098 Y44.32 Z-4.107
N13075 X-143.139 Y43.922 Z-4.114
N13080 X-143.19 Y43.577 Z-4.12
N13085 X-143.242 Y43.309 Z-4.124
N13090 X-143.328 Y42.939 Z-4.131
N13095 X-143.413 Y42.626 Z-4.136
N13100 X-143.512 Y42.343 Z-4.141
N13105 X-143.61 Y42.116 Z-4.146
N13110 X-143.714 Y41.869 Z-4.151
N13115 X-143.794 Y41.629 Z-4.155
N13120 X-143.855 Y41.376 Z-4.159
N13125 X-143.897 Y41.106 Z-4.164
N13130 X-143.912 Y40.916 Z-4.167
N13135 X-143.916 Y40.716 Z-4.169
N13140 X-143.906 Y40.503 Z-4.172
N13145 X-143.88 Y40.274 Z-4.175
N13150 X-143.824 Y39.993 Z-4.178
N13155 X-143.703 Y39.572 Z-4.183
N13160 X-142.972 Y36.796 Z-4.199
N13165 X-142.294 Y34.54 Z-4.2
N13170 X-141.47 Y32.096 Z-4.186
N13175 X-140.989 Y30.817 Z-4.174
N13180 X-140.642 Y29.939 Z-4.163
N13185 X-140.377 Y29.296 Z-4.154
N13190 X-140.052 Y28.545 Z-4.141
N13195 X-139.605 Y27.569 Z-4.125
N13200 X-139.401 Y27.138 Z-4.117
N13205 X-138.95 Y26.245 Z-4.1
N13210 X-138.632 Y25.646 Z-4.086
N13215 X-138.196 Y24.867 Z-4.065
N13220 X-137.749 Y24.117 Z-4.044
N13225 X-137.411 Y23.58 Z-4.029
N13230 X-137.025 Y22.996 Z-4.012
N13235 X-136.62 Y22.409 Z-3.994
N13240 X-136.348 Y22.036 Z-3.983
N13245 X-135.791 Y21.312 Z-3.96
N13250 X-135.459 Y20.902 Z-3.944
N13255 X-135.103 Y20.486 Z-3.926
N13260 X-134.689 Y20.024 Z-3.906
N13265 X-134.26 Y19.565 Z-3.885
N13270 X-133.829 Y19.124 Z-3.865
N13275 X-133.381 Y18.687 Z-3.844
N13280 X-132.925 Y18.261 Z-3.823
N13285 X-132.459 Y17.845 Z-3.803
N13290 X-131.959 Y17.418 Z-3.781
N13295 X-131.499 Y17.048 Z-3.759
N13300 X-130.878 Y16.582 Z-3.73
N13305 X-130.209 Y16.109 Z-3.697
N13310 X-129.509 Y15.644 Z-3.664
N13315 X-128.81 Y15.207 Z-3.63
N13320 X-128.094 Y14.787 Z-3.596
N13325 X-127.362 Y14.385 Z-3.562
N13330 X-126.718 Y14.054 Z-3.532
N13335 X-125.96 Y13.701 Z-3.495
N13340 X-125.116 Y13.334 Z-3.455
N13345 X-124.25 Y12.983 Z-3.412
N13350 X-123.386 Y12.658 Z-3.37
N13355 X-122.619 Y12.391 Z-3.332
N13360 X-121.779 Y12.133 Z-3.291
N13365 X-120.902 Y11.889 Z-3.247
N13370 X-120.024 Y11.668 Z-3.203
N13375 X-119.122 Y11.466 Z-3.158
N13380 X-118.505 Y11.344 Z-3.127
N13385 X-117.646 Y11.195 Z-3.083
N13390 X-116.603 Y11.05 Z-3.031
N13395 X-115.641 Y10.949 Z-2.982
N13400 X-114.82 Y10.885 Z-2.94
N13405 X-113.987 Y10.844 Z-2.898
N13410 X-113.122 Y10.826 Z-2.854
N13415 X-112.603 Y10.825 Z-2.827
N13420 X-111.71 Y10.86 Z-2.782
N13425 X-110.844 Y10.918 Z-2.738
N13430 X-109.978 Y10.998 Z-2.694
N13435 X-109.109 Y11.103 Z-2.65
N13440 X-108.615 Y11.177 Z-2.626
N13445 X-107.787 Y11.333 Z-2.584
N13450 X-106.958 Y11.513 Z-2.543
N13455 X-106.348 Y11.67 Z-2.512
N13460 X-105.55 Y11.899 Z-2.472
N13465 X-104.858 Y12.12 Z-2.438
N13470 X-104.203 Y12.352 Z-2.406
N13475 X-103.547 Y12.61 Z-2.373
N13480 X-102.868 Y12.899 Z-2.34
N13485 X-102.268 Y13.179 Z-2.311
N13490 X-101.667 Y13.484 Z-2.281
N13495 X-100.899 Y13.904 Z-2.244
N13500 X-100.291 Y14.261 Z-2.214
N13505 X-99.932 Y14.488 Z-2.197
N13510 X-99.134 Y15.036 Z-2.158
N13515 X-98.461 Y15.524 Z-2.126
N13520 X-97.988 Y15.887 Z-2.103
N13525 X-97.423 Y16.357 Z-2.076
N13530 X-96.891 Y16.826 Z-2.051
N13535 X-96.415 Y17.271 Z-2.028
N13540 X-95.894 Y17.789 Z-2.003
N13545 X-95.415 Y18.293 Z-1.98
N13550 X-94.905 Y18.865 Z-1.956
N13555 X-94.426 Y19.433 Z-1.933
N13560 X-93.963 Y20.017 Z-1.911
N13565 X-93.417 Y20.746 Z-1.886
N13570 X-93.062 Y21.253 Z-1.869
N13575 X-92.534 Y22.054 Z-1.844
N13580 X-92.133 Y22.702 Z-1.825
N13585 X-91.747 Y23.37 Z-1.806
N13590 X-91.35 Y24.1 Z-1.787
N13595 X-90.962 Y24.862 Z-1.768
N13600 X-90.613 Y25.595 Z-1.75
N13605 X-90.336 Y26.201 Z-1.736
N13610 X-89.97 Y27.093 Z-1.717
N13615 X-89.621 Y28.001 Z-1.698
N13620 X-89.283 Y28.946 Z-1.679
N13625 X-88.982 Y29.854 Z-1.661
N13630 X-88.694 Y30.793 Z-1.643
N13635 X-88.45 Y31.655 Z-1.628
N13640 X-88.135 Y32.898 Z-1.605
N13645 X-87.928 Y33.815 Z-1.589
N13650 X-87.695 Y34.949 Z-1.569
N13655 X-87.486 Y36.09 Z-1.548
N13660 X-87.38 Y36.735 Z-1.536
N13665 X-86.99 Y39.484 Z-1.476
N13670 X-86.779 Y41.268 Z-1.418
N13675 X-86.625 Y42.502 Z-1.351
N13680 X-86.54 Y43.1 Z-1.31
N13685 X-86.43 Y43.723 Z-1.266
N13690 X-86.318 Y44.235 Z-1.231
N13695 X-86.23 Y44.574 Z-1.209
N13700 X-86.107 Y44.944 Z-1.185
N13705 X-86.008 Y45.171 Z-1.17
N13710 X-85.888 Y45.384 Z-1.152
N13715 X-85.744 Y45.594 Z-1.134
N13720 X-85.479 Y45.943 Z-1.102
N13725 X-85.253 Y46.246 Z-1.076
N13730 X-85.187 Y46.324 Z-1.069
N13735 X-85.034 Y46.531 Z-1.051
N13740 X-84.933 Y46.639 Z-1.04
N13745 X-84.855 Y46.733 Z-1.031
N13750 X-84.775 Y46.829 Z-1.022
N13755 X-84.622 Y46.967 Z-1.006
N13760 X-84.463 Y47.104 Z-0.989
N13765 X-84.285 Y47.231 Z-0.971
N13770 X-84.171 Y47.319 Z-0.959
N13775 X-84.044 Y47.393 Z-0.946
N13780 X-83.872 Y47.47 Z-0.929
N13785 X-83.676 Y47.54 Z-0.91
N13790 X-83.328 Y47.657 Z-0.887
N13795 X-83.148 Y47.733 Z-0.879
N13800 X-82.96 Y47.84 Z-0.871
N13805 X-82.787 Y47.972 Z-0.864
N13810 X-82.637 Y48.121 Z-0.857
N13815 X-82.514 Y48.277 Z-0.852
N13820 X-82.407 Y48.454 Z-0.846
N13825 X-82.32 Y48.65 Z-0.84
N13830 X-82.264 Y48.837 Z-0.835
N13835 X-82.229 Y49.038 Z-0.83
N13840 X-82.219 Y49.209 Z-0.826
N13845 X-82.202 Y51.711 Z-0.763
N13850 X-82.209 Y51.845
N13855 X-82.232 Y51.977
N13860 X-82.269 Y52.105
N13865 X-82.322 Y52.229
N13870 X-82.388 Y52.345
N13875 X-82.467 Y52.453
N13880 X-82.559 Y52.552
N13885 X-82.661 Y52.638
N13890 X-82.772 Y52.713
N13895 X-82.892 Y52.774
N13900 X-83.017 Y52.82
N13905 X-83.196 Y52.86
N13910 X-83.453 Y52.894 Z-0.766
N13915 X-83.922 Y52.934 Z-0.806
N13920 X-84.259 Y52.965 Z-0.837
N13925 X-84.558 Y53.006 Z-0.863
N13930 X-84.828 Y53.056 Z-0.887
N13935 X-86.255 Y53.373 Z-1.007
N13940 X-86.714 Y53.485 Z-1.045
N13945 X-86.794 Y53.509 Z-1.052
N13950 X-87.435 Y53.657 Z-1.106
N13955 X-87.883 Y53.75 Z-1.144
N13960 X-88.056 Y53.783 Z-1.159
N13965 X-88.478 Y53.85 Z-1.194
N13970 X-88.908 Y53.91 Z-1.23
N13975 X-89.191 Y53.962 Z-1.254
N13980 X-89.7 Y54.087 Z-1.294
N13985 X-89.968 Y54.165 Z-1.316
N13990 X-90.336 Y54.286 Z-1.344
N13995 X-90.856 Y54.454 Z-1.384
N14000 X-92.15 Y54.87 Z-1.483
N14005 X-92.956 Y55.11 Z-1.542
N14010 X-93.797 Y55.339 Z-1.605
N14015 X-94.54 Y55.515 Z-1.66
N14020 X-95.649 Y55.77 Z-1.739
N14025 X-96.911 Y56.015 Z-1.827
N14030 X-97.572 Y56.127 Z-1.872
N14035 X-99.869 Y56.485 Z-2.026
N14040 X-103.075 Y56.861 Z-2.235
N14045 X-106.29 Y57.127 Z-2.433
N14050 X-109.507 Y57.293 Z-2.62
N14055 X-112.805 Y57.359 Z-2.802
N14060 X-115.91 Y57.318 Z-2.962
N14065 X-119.088 Y57.161 Z-3.115
N14070 X-121.219 Y56.979 Z-3.213
N14075 X-122.563 Y56.827 Z-3.272
N14080 X-123.768 Y56.664 Z-3.324
N14085 X-124.91 Y56.48 Z-3.372
N14090 X-126.044 Y56.273 Z-3.419
N14095 X-127.163 Y56.044 Z-3.464
N14100 X-128.278 Y55.792 Z-3.508
N14105 X-129.378 Y55.52 Z-3.551
N14110 X-130.188 Y55.288 Z-3.582
N14115 X-131.137 Y54.995 Z-3.619
N14120 X-132.107 Y54.671 Z-3.655
N14125 X-133.058 Y54.328 Z-3.69
N14130 X-133.992 Y53.966 Z-3.723
N14135 X-134.913 Y53.584 Z-3.756
N14140 X-135.967 Y53.117 Z-3.792
N14145 X-136.956 Y52.654 Z-3.825
N14150 X-138.448 Y51.949 Z-3.873
N14155 X-138.863 Y51.76 Z-3.886
N14160 X-139.133 Y51.612 Z-3.895
N14165 X-139.313 Y51.499 Z-3.901
N14170 X-139.475 Y51.428 Z-3.905
N14175 X-139.626 Y51.387 Z-3.909
N14180 X-139.791 Y51.367 Z-3.913
N14185 X-139.923 Y51.369 Z-3.916
N14190 X-140.173 Y51.392 Z-3.922
N14195 X-140.419 Y51.429 Z-3.927
N14200 X-140.847 Y51.452 Z-3.936
N14205 X-141.226 Y51.476 Z-3.945
N14210 X-141.483 Y51.483 Z-3.95
N14215 X-141.747 Y51.53 Z-3.956
N14220 X-144.408 Y51.856 Z-3.999
N14225 X-146.047 Y52.056 Z-4.017
N14230 X-148.719 Y52.296 Z-4.028
N14235 X-149.646 Y52.379
N14240 X-150.048 Y52.392
N14245 X-150.354 Y52.38
N14250 X-152.893 Y52.158 Z-4.024
N14255 X-154.134 Y52.049 Z-4.015
N14260 X-157.59 Y51.638 Z-3.969
N14265 X-158.301 Y51.555 Z-3.954
N14270 X-158.523 Y51.517 Z-3.95
N14275 X-158.829 Y51.509 Z-3.943
N14280 X-159.447 Y51.476 Z-3.929
N14285 X-159.648 Y51.464 Z-3.925
N14290 X-159.905 Y51.432 Z-3.919
N14295 X-160.142 Y51.423 Z-3.914
N14300 X-160.327 Y51.441 Z-3.91
N14305 X-160.488 Y51.481 Z-3.905
N14310 X-160.639 Y51.541 Z-3.901
N14315 X-160.787 Y51.625 Z-3.896
N14320 X-160.929 Y51.709 Z-3.892
N14325 X-161.223 Y51.858 Z-3.882
N14330 X-162.042 Y52.234 Z-3.857
N14335 X-163.736 Y53.04 Z-3.801
N14340 X-164.825 Y53.531 Z-3.764
N14345 X-165.69 Y53.899 Z-3.734
N14350 X-166.626 Y54.272 Z-3.7
N14355 X-167.58 Y54.627 Z-3.665
N14360 X-168.515 Y54.95 Z-3.631
N14365 X-169.472 Y55.256 Z-3.594
N14370 X-170.508 Y55.562 Z-3.555
N14375 X-171.541 Y55.824 Z-3.514
N14380 X-172.643 Y56.079 Z-3.471
N14385 X-173.762 Y56.315 Z-3.426
N14390 X-174.894 Y56.528 Z-3.379
N14395 X-176.01 Y56.714 Z-3.333
N14400 X-176.829 Y56.832 Z-3.298
N14405 X-177.846 Y56.963 Z-3.253
N14410 X-180.234 Y57.2 Z-3.146
N14415 X-183.024 Y57.373 Z-3.014
N14420 X-186.218 Y57.455 Z-2.853
N14425 X-189.597 Y57.423 Z-2.67
N14430 X-193.114 Y57.274 Z-2.468
N14435 X-195.862 Y57.08 Z-2.301
N14440 X-199.19 Y56.746 Z-2.089
N14445 X-202.302 Y56.322 Z-1.881
N14450 X-203.594 Y56.106 Z-1.792
N14455 X-204.464 Y55.946 Z-1.732
N14460 X-206.165 Y55.585 Z-1.609
N14465 X-207.015 Y55.376 Z-1.545
N14470 X-207.939 Y55.127 Z-1.476
N14475 X-209.051 Y54.811 Z-1.39
N14480 X-209.7 Y54.63 Z-1.339
N14485 X-210.115 Y54.514 Z-1.305
N14490 X-210.601 Y54.405 Z-1.265
N14495 X-211.036 Y54.322 Z-1.229
N14500 X-211.83 Y54.212 Z-1.162
N14505 X-212.387 Y54.121 Z-1.115
N14510 X-213.287 Y53.963 Z-1.037
N14515 X-213.551 Y53.914 Z-1.014
N14520 X-214.429 Y53.761 Z-0.937
N14525 X-214.853 Y53.694 Z-0.9
N14530 X-215.497 Y53.6 Z-0.843
N14535 X-216.017 Y53.548 Z-0.796
N14540 X-216.391 Y53.518 Z-0.763
N14545 X-216.688 Y53.497
N14550 X-217.757 Y53.417
N14555 X-217.889 Y53.394
N14560 X-218.014 Y53.345
N14565 X-218.127 Y53.273
N14570 X-218.224 Y53.181
N14575 X-218.3 Y53.071
N14580 X-218.354 Y52.948
N14585 X-218.378 Y52.848
N14590 X-218.387 Y52.746
N14595 X-218.406 Y51.136 Z-0.768
N14600 X-218.439 Y48.235 Z-0.841
N14605 X-218.422 Y48.065 Z-0.846
N14610 X-218.377 Y47.905 Z-0.849
N14615 X-218.307 Y47.756 Z-0.853
N14620 X-218.212 Y47.619 Z-0.857
N14625 X-218.093 Y47.497 Z-0.861
N14630 X-217.976 Y47.409 Z-0.865
N14635 X-217.841 Y47.338 Z-0.868
N14640 X-217.696 Y47.287 Z-0.871
N14645 X-217.111 Y47.13 Z-0.885
N14650 X-216.751 Y47.013 Z-0.897
N14655 X-216.383 Y46.882 Z-0.917
N14660 X-216.218 Y46.81 Z-0.933
N14665 X-216.076 Y46.734 Z-0.948
N14670 X-215.936 Y46.637 Z-0.962
N14675 X-215.792 Y46.545 Z-0.977
N14680 X-215.513 Y46.33 Z-1.006
N14685 X-215.413 Y46.233 Z-1.017
N14690 X-215.287 Y46.122 Z-1.03
N14695 X-215.142 Y45.972 Z-1.046
N14700 X-214.997 Y45.819 Z-1.063
N14705 X-214.591 Y45.338 Z-1.112
N14710 X-214.447 Y45.142 Z-1.132
N14715 X-214.32 Y44.93 Z-1.15
N14720 X-214.215 Y44.713 Z-1.168
N14725 X-214.083 Y44.364 Z-1.195
N14730 X-213.967 Y43.981 Z-1.224
N14735 X-213.851 Y43.488 Z-1.263
N14740 X-213.739 Y42.89 Z-1.31
N14745 X-213.636 Y42.204 Z-1.361
N14750 X-213.484 Y41.063 Z-1.422
N14755 X-213.25 Y39.264 Z-1.48
N14760 X-212.966 Y37.074 Z-1.528
N14765 X-212.75 Y35.748 Z-1.553
N14770 X-212.545 Y34.63 Z-1.573
N14775 X-212.312 Y33.48 Z-1.593
N14780 X-212.189 Y32.942 Z-1.603
N14785 X-211.837 Y31.492 Z-1.628
N14790 X-211.574 Y30.543 Z-1.646
N14795 X-211.276 Y29.563 Z-1.664
N14800 X-210.955 Y28.592 Z-1.683
N14805 X-210.626 Y27.671 Z-1.701
N14810 X-210.285 Y26.782 Z-1.72
N14815 X-209.951 Y25.966 Z-1.738
N14820 X-209.529 Y25.048 Z-1.759
N14825 X-209.153 Y24.282 Z-1.777
N14830 X-208.766 Y23.547 Z-1.796
N14835 X-208.355 Y22.814 Z-1.815
N14840 X-207.948 Y22.137 Z-1.834
N14845 X-207.538 Y21.498 Z-1.854
N14850 X-207.05 Y20.778 Z-1.876
N14855 X-206.574 Y20.128 Z-1.899
N14860 X-206.118 Y19.539 Z-1.92
N14865 X-205.636 Y18.953 Z-1.942
N14870 X-205.124 Y18.367 Z-1.966
N14875 X-204.612 Y17.818 Z-1.99
N14880 X-204.05 Y17.249 Z-2.016
N14885 X-203.533 Y16.759 Z-2.04
N14890 X-202.993 Y16.282 Z-2.066
N14895 X-202.401 Y15.79 Z-2.093
N14900 X-201.811 Y15.329 Z-2.121
N14905 X-201.195 Y14.879 Z-2.15
N14910 X-200.542 Y14.431 Z-2.181
N14915 X-200.055 Y14.111 Z-2.205
N14920 X-199.413 Y13.729 Z-2.235
N14925 X-198.728 Y13.35 Z-2.268
N14930 X-198.047 Y12.994 Z-2.301
N14935 X-197.441 Y12.706 Z-2.33
N14940 X-196.809 Y12.43 Z-2.361
N14945 X-196.114 Y12.143 Z-2.395
N14950 X-195.366 Y11.873 Z-2.431
N14955 X-194.556 Y11.606 Z-2.471
N14960 X-193.75 Y11.367 Z-2.511
N14965 X-193.134 Y11.202 Z-2.541
N14970 X-192.204 Y10.993 Z-2.587
N14975 X-191.391 Y10.835 Z-2.627
N14980 X-190.825 Y10.749 Z-2.655
N14985 X-189.948 Y10.64 Z-2.699
N14990 X-189.047 Y10.552 Z-2.744
N14995 X-188.168 Y10.491 Z-2.788
N15000 X-187.322 Y10.455 Z-2.83
N15005 X-186.678 Y10.459 Z-2.862
N15010 X-185.775 Y10.488 Z-2.907
N15015 X-184.874 Y10.54 Z-2.953
N15020 X-183.973 Y10.615 Z-2.998
N15025 X-183.067 Y10.714 Z-3.043
N15030 X-182.215 Y10.83 Z-3.086
N15035 X-181.204 Y11.011 Z-3.136
N15040 X-180.222 Y11.224 Z-3.185
N15045 X-179.275 Y11.454 Z-3.232
N15050 X-178.352 Y11.703 Z-3.278
N15055 X-177.75 Y11.886 Z-3.307
N15060 X-177.075 Y12.104 Z-3.34
N15065 X-176.183 Y12.428 Z-3.384
N15070 X-175.304 Y12.772 Z-3.426
N15075 X-174.417 Y13.144 Z-3.469
N15080 X-173.554 Y13.531 Z-3.51
N15085 X-172.958 Y13.818 Z-3.539
N15090 X-172.19 Y14.225 Z-3.575
N15095 X-171.396 Y14.674 Z-3.613
N15100 X-170.606 Y15.147 Z-3.65
N15105 X-169.992 Y15.538 Z-3.679
N15110 X-169.474 Y15.889 Z-3.703
N15115 X-169.043 Y16.195 Z-3.724
N15120 X-168.373 Y16.697 Z-3.755
N15125 X-167.887 Y17.081 Z-3.778
N15130 X-167.131 Y17.718 Z-3.811
N15135 X-166.544 Y18.243 Z-3.837
N15140 X-165.963 Y18.795 Z-3.863
N15145 X-165.409 Y19.356 Z-3.889
N15150 X-164.88 Y19.925 Z-3.914
N15155 X-164.254 Y20.638 Z-3.945
N15160 X-163.925 Y21.038 Z-3.961
N15165 X-163.322 Y21.808 Z-3.986
N15170 X-162.937 Y22.33 Z-4.002
N15175 X-162.525 Y22.921 Z-4.02
N15180 X-162.063 Y23.619 Z-4.04
N15185 X-161.683 Y24.225 Z-4.057
N15190 X-161.304 Y24.859 Z-4.075
N15195 X-160.93 Y25.514 Z-4.093
N15200 X-160.585 Y26.149 Z-4.107
N15205 X-160.117 Y27.047 Z-4.124
N15210 X-159.543 Y28.239 Z-4.144
N15215 X-159.081 Y29.252 Z-4.161
N15220 X-158.815 Y29.878 Z-4.17
N15225 X-157.842 Y32.24 Z-4.197
N15230 X-156.637 Y35.527 Z-4.209
N15235 X-155.596 Y38.678 Z-4.201
N15240 X-155.247 Y39.833 Z-4.192
N15245 X-155.057 Y40.52 Z-4.184
N15250 X-154.981 Y40.847 Z-4.18
N15255 X-154.945 Y41.037 Z-4.177
N15260 X-154.935 Y41.171 Z-4.175
N15265 X-154.942 Y41.321 Z-4.173
N15270 X-154.971 Y41.48 Z-4.17
N15275 X-155.017 Y41.625 Z-4.167
N15280 X-155.078 Y41.759 Z-4.165
N15285 X-155.143 Y41.865 Z-4.162
N15290 X-155.334 Y42.132 Z-4.157
N15295 X-155.462 Y42.336 Z-4.152
N15300 X-155.576 Y42.549 Z-4.148
N15305 X-155.698 Y42.819 Z-4.142
N15310 X-155.785 Y43.048 Z-4.138
N15315 X-155.842 Y43.231 Z-4.134
N15320 X-155.909 Y43.491 Z-4.13
N15325 X-155.969 Y43.807 Z-4.124
N15330 X-156.012 Y44.157 Z-4.118
N15335 X-156.029 Y44.508 Z-4.113
N15340 X-156.016 Y44.758 Z-4.109
N15345 X-155.975 Y45.014 Z-4.105
N15350 X-155.905 Y45.262 Z-4.102
N15355 X-155.813 Y45.488 Z-4.098
N15360 X-155.68 Y45.736 Z-4.095
N15365 X-155.53 Y45.969 Z-4.091
N15370 X-155.378 Y46.163 Z-4.088
N15375 X-155.181 Y46.372 Z-4.086
N15380 X-154.951 Y46.571 Z-4.084
N15385 X-154.698 Y46.752 Z-4.082
N15390 X-154.407 Y46.925 Z-4.081
N15395 X-154.081 Y47.085 Z-4.079
N15400 X-153.676 Y47.246 Z-4.078
N15405 X-153.326 Y47.358
N15410 X-152.868 Y47.475 Z-4.077
N15415 X-152.508 Y47.545
N15420 X-151.908 Y47.639
N15425 X-151.37 Y47.692
N15430 X-151.15 Y47.71
N15435 X-150.346 Y47.73
N15440 X-149.389 Y47.724
N15445 X-148.686 Y47.697
N15450 X-148.068 Y47.631
N15455 X-147.309 Y47.506
N15460 X-147.038 Y47.444 Z-4.078
N15465 X-146.608 Y47.327
N15470 X-146.226 Y47.198 Z-4.079
N15475 X-145.865 Y47.047 Z-4.08
N15480 X-145.52 Y46.868 Z-4.081
N15485 X-145.243 Y46.693 Z-4.083
N15490 X-144.992 Y46.5 Z-4.085
