%
(2002)
(everything)
(T1 D=6 CR=0 - ZMIN=-18.616 - flat end mill)
(T2 D=6 CR=0 - ZMIN=-4.211 - flat end mill)
N10 G90 G94
N15 G17
N20 G21
N25 M9
N30 G28

(T1 pin holes)
N35 T1 M6
N40 T2
N45 S7760 M3
N50 G54
N55 G0 X-174.332 Y33.517
N60 G43 Z15
N65 Z5.384
N70 G98 G81 X-174.332 Y33.517 Z-18.616 R5.384 F30
N75 X-20.668
N80 G80
N85 G0 Z15
N90 M5
N95 G28

(T2 back frame)
N100 M1
N105 T2 M6
N110 T1
N115 S7760 M3
N120 G54
N125 G0 X-43.267 Y21.865
N130 G43 Z15
N135 Z0.025
N140 G1 Z-1.364 F1397
N145 X-43.263 Y21.872 Z-1.46
N150 X-43.251 Y21.891 Z-1.553
N155 X-43.231 Y21.923 Z-1.641
N160 X-43.204 Y21.966 Z-1.722
N165 X-43.17 Y22.019 Z-1.794
N170 X-43.131 Y22.082 Z-1.855
N175 X-43.087 Y22.152 Z-1.904
N180 X-43.039 Y22.227 Z-1.939
N185 X-42.989 Y22.306 Z-1.959
N190 X-42.938 Y22.387 Z-1.964
N195 X-42.695 Y22.773 Z-1.951
N200 X-42.321 Y23.394 Z-1.931
N205 X-41.958 Y24.043 Z-1.911
N210 X-41.627 Y24.637 Z-1.893
N215 X-41.26 Y25.352 Z-1.873
N220 X-41.028 Y25.809 Z-1.86
N225 X-40.493 Y26.943 Z-1.829
N230 X-40.303 Y27.369 Z-1.817
N235 X-39.974 Y28.14 Z-1.797
N240 X-39.512 Y29.296 Z-1.767
N245 X-39.155 Y30.261 Z-1.742
N250 X-39.042 Y30.585 Z-1.734
N255 X-38.693 Y31.628 Z-1.709
N260 X-38.338 Y32.792 Z-1.681
N265 X-38.019 Y33.958 Z-1.655
N270 X-37.751 Y35.054 Z-1.631
N275 X-37.527 Y36.099 Z-1.609
N280 X-37.486 Y36.301 Z-1.605
N285 X-37.277 Y37.463 Z-1.582
N290 X-37.113 Y38.605 Z-1.56
N295 X-36.989 Y39.771 Z-1.541
N300 X-36.955 Y40.282 Z-1.533
N305 X-36.911 Y40.972 Z-1.522
N310 X-36.903 Y41.299 Z-1.518
N315 X-36.89 Y42.188 Z-1.506
N320 X-36.901 Y42.541 Z-1.502
N325 X-36.94 Y43.457 Z-1.493
N330 X-36.996 Y44.097 Z-1.488
N335 X-37.079 Y44.744 Z-1.485
N340 X-37.194 Y45.403 Z-1.484
N345 X-37.342 Y46.067 Z-1.485
N350 X-37.452 Y46.463 Z-1.487
N355 X-37.535 Y46.754 Z-1.489
N360 X-37.588 Y46.914 Z-1.49
N365 X-37.787 Y47.462 Z-1.497
N370 X-37.869 Y47.661 Z-1.499
N375 X-38.181 Y48.333 Z-1.512
N380 X-38.323 Y48.598 Z-1.518
N385 X-38.529 Y48.955 Z-1.527
N390 X-38.676 Y49.185 Z-1.534
N395 X-38.855 Y49.449 Z-1.543
N400 X-39.062 Y49.73 Z-1.553
N405 X-39.222 Y49.925 Z-1.562
N410 X-39.681 Y50.449 Z-1.586
N415 X-39.859 Y50.632 Z-1.596
N420 X-40.154 Y50.912 Z-1.613
N425 X-40.465 Y51.182 Z-1.632
N430 X-40.641 Y51.322 Z-1.642
N435 X-41.132 Y51.693 Z-1.672
N440 X-41.348 Y51.842 Z-1.686
N445 X-41.64 Y52.034 Z-1.704
N450 X-42.095 Y52.306 Z-1.733
N455 X-42.542 Y52.55 Z-1.763
N460 X-42.901 Y52.727 Z-1.787
N465 X-43.235 Y52.889 Z-1.809
N470 X-43.604 Y53.048 Z-1.833
N475 X-43.957 Y53.197 Z-1.856
N480 X-44.336 Y53.344 Z-1.88
N485 X-45.119 Y53.623 Z-1.93
N490 X-45.44 Y53.722 Z-1.95
N495 X-46.328 Y53.988 Z-2.006
N500 X-46.666 Y54.075 Z-2.029
N505 X-47.564 Y54.298 Z-2.086
N510 X-48.513 Y54.497 Z-2.148
N515 X-48.793 Y54.554 Z-2.166
N520 X-49.96 Y54.756 Z-2.241
N525 X-51.119 Y54.921 Z-2.313
N530 X-52.276 Y55.058 Z-2.383
N535 X-53.425 Y55.166 Z-2.451
N540 X-54.572 Y55.25 Z-2.521
N545 X-55.715 Y55.31 Z-2.589
N550 X-56.855 Y55.349 Z-2.657
N555 X-58.019 Y55.369 Z-2.72
N560 X-59.132 Y55.37 Z-2.781
N565 X-60.32 Y55.35 Z-2.847
N570 X-61.459 Y55.313 Z-2.909
N575 X-62.593 Y55.259 Z-2.97
N580 X-63.707 Y55.187 Z-3.027
N585 X-64.814 Y55.099 Z-3.081
N590 X-65.978 Y54.989 Z-3.138
N595 X-67.119 Y54.862 Z-3.194
N600 X-68.232 Y54.719 Z-3.248
N605 X-69.374 Y54.551 Z-3.302
N610 X-70.519 Y54.363 Z-3.352
N615 X-71.667 Y54.15 Z-3.4
N620 X-72.82 Y53.912 Z-3.451
N625 X-73.973 Y53.646 Z-3.501
N630 X-74.989 Y53.386 Z-3.545
N635 X-75.498 Y53.243 Z-3.566
N640 X-76.314 Y53.008 Z-3.597
N645 X-77.446 Y52.644 Z-3.64
N650 X-78.198 Y52.371 Z-3.669
N655 X-78.667 Y52.198 Z-3.688
N660 X-79.397 Y51.895 Z-3.717
N665 X-79.924 Y51.671 Z-3.739
N670 X-81.021 Y51.144 Z-3.783
N675 X-81.284 Y51.007 Z-3.793
N680 X-82.293 Y50.422 Z-3.829
N685 X-82.528 Y50.272 Z-3.838
N690 X-82.936 Y49.998 Z-3.853
N695 X-83.418 Y49.646 Z-3.872
N700 X-83.67 Y49.449 Z-3.883
N705 X-83.847 Y49.299 Z-3.89
N710 X-84.244 Y48.951 Z-3.908
N715 X-84.366 Y48.836 Z-3.913
N720 X-84.831 Y48.37 Z-3.935
N725 X-85.004 Y48.18 Z-3.943
N730 X-85.163 Y47.996 Z-3.951
N735 X-85.404 Y47.698 Z-3.962
N740 X-85.634 Y47.388 Z-3.972
N745 X-85.933 Y46.931 Z-3.986
N750 X-86.071 Y46.704 Z-3.993
N755 X-89.248 Y48.43 Z-4.004
N760 X-89.37 Y48.364 Z-4.007
N765 X-89.957 Y48.654 Z-4.009
N770 X-90.661 Y48.96 Z-4.012
N775 X-91.195 Y49.165 Z-4.015
N780 X-91.813 Y49.37 Z-4.018
N785 X-92.362 Y49.526 Z-4.02
N790 X-93.021 Y49.687 Z-4.023
N795 X-93.748 Y49.831 Z-4.026
N800 X-94.458 Y49.942 Z-4.028
N805 X-95.258 Y50.042 Z-4.03
N810 X-96.1 Y50.122 Z-4.028
N815 X-97.5 Y50.204
N820 X-98.935 Y50.119
N825 X-99.835 Y50.032 Z-4.03
N830 X-100.795 Y49.906 Z-4.027
N835 X-101.547 Y49.776 Z-4.025
N840 X-102.246 Y49.625 Z-4.022
N845 X-102.87 Y49.463 Z-4.019
N850 X-103.536 Y49.258 Z-4.016
N855 X-104.114 Y49.05 Z-4.013
N860 X-104.673 Y48.819 Z-4.01
N865 X-105.28 Y48.541 Z-4.009
N870 X-105.63 Y48.364 Z-4.007
N875 X-105.752 Y48.43 Z-4.004
N880 X-108.929 Y46.704 Z-3.993
N885 X-109.119 Y47.012 Z-3.984
N890 X-109.351 Y47.367 Z-3.973
N895 X-109.563 Y47.655 Z-3.964
N900 X-109.862 Y48.026 Z-3.95
N905 X-110.116 Y48.313 Z-3.937
N910 X-110.547 Y48.749 Z-3.917
N915 X-110.756 Y48.951 Z-3.907
N920 X-111.29 Y49.416 Z-3.884
N925 X-111.614 Y49.671 Z-3.871
N930 X-112.064 Y49.998 Z-3.853
N935 X-112.533 Y50.312 Z-3.835
N940 X-112.79 Y50.47 Z-3.826
N945 X-113.716 Y51.007 Z-3.793
N950 X-114.02 Y51.164 Z-3.782
N955 X-115.076 Y51.671 Z-3.739
N960 X-115.694 Y51.933 Z-3.713
N965 X-116.33 Y52.197 Z-3.688
N970 X-116.768 Y52.358 Z-3.671
N975 X-117.496 Y52.624 Z-3.642
N980 X-118.009 Y52.791 Z-3.623
N985 X-118.761 Y53.031 Z-3.594
N990 X-119.901 Y53.357 Z-3.55
N995 X-120.65 Y53.55 Z-3.518
N1000 X-121.116 Y53.667 Z-3.497
N1005 X-122.236 Y53.924 Z-3.448
N1010 X-123.384 Y54.16 Z-3.398
N1015 X-124.529 Y54.371 Z-3.349
N1020 X-125.679 Y54.56 Z-3.3
N1025 X-126.851 Y54.73 Z-3.244
N1030 X-127.982 Y54.874 Z-3.189
N1035 X-129.21 Y55.007 Z-3.128
N1040 X-130.283 Y55.107 Z-3.076
N1045 X-131.36 Y55.192 Z-3.024
N1050 X-132.497 Y55.264 Z-2.965
N1055 X-133.661 Y55.318 Z-2.902
N1060 X-134.821 Y55.353 Z-2.839
N1065 X-135.991 Y55.37 Z-2.773
N1070 X-137.075 Y55.368 Z-2.715
N1075 X-138.188 Y55.348 Z-2.654
N1080 X-139.33 Y55.308 Z-2.587
N1085 X-140.477 Y55.246 Z-2.518
N1090 X-141.627 Y55.162 Z-2.447
N1095 X-142.784 Y55.052 Z-2.377
N1100 X-143.942 Y54.913 Z-2.309
N1105 X-145.086 Y54.748 Z-2.238
N1110 X-146.235 Y54.549 Z-2.164
N1115 X-146.863 Y54.419 Z-2.124
N1120 X-147.469 Y54.29 Z-2.084
N1125 X-148.58 Y54.013 Z-2.012
N1130 X-148.878 Y53.927 Z-1.993
N1135 X-149.791 Y53.652 Z-1.935
N1140 X-150.053 Y53.562 Z-1.919
N1145 X-150.739 Y53.316 Z-1.876
N1150 X-151.15 Y53.153 Z-1.849
N1155 X-151.698 Y52.919 Z-1.813
N1160 X-151.991 Y52.78 Z-1.794
N1165 X-152.427 Y52.566 Z-1.765
N1170 X-152.86 Y52.331 Z-1.736
N1175 X-153.223 Y52.116 Z-1.713
N1180 X-153.454 Y51.974 Z-1.698
N1185 X-153.747 Y51.779 Z-1.68
N1190 X-153.915 Y51.658 Z-1.669
N1195 X-154.409 Y51.284 Z-1.639
N1200 X-154.583 Y51.14 Z-1.629
N1205 X-154.854 Y50.904 Z-1.613
N1210 X-155.157 Y50.615 Z-1.595
N1215 X-155.291 Y50.478 Z-1.588
N1220 X-155.389 Y50.37 Z-1.583
N1225 X-155.81 Y49.889 Z-1.56
N1230 X-155.938 Y49.73 Z-1.553
N1235 X-156.179 Y49.401 Z-1.541
N1240 X-156.39 Y49.086 Z-1.531
N1245 X-156.533 Y48.848 Z-1.524
N1250 X-156.717 Y48.53 Z-1.516
N1255 X-156.819 Y48.333 Z-1.512
N1260 X-157.131 Y47.661 Z-1.499
N1265 X-157.213 Y47.462 Z-1.497
N1270 X-157.412 Y46.914 Z-1.49
N1275 X-157.465 Y46.754 Z-1.489
N1280 X-157.623 Y46.205 Z-1.486
N1285 X-157.783 Y45.519 Z-1.484
N1290 X-157.904 Y44.855 Z-1.485
N1295 X-157.993 Y44.196 Z-1.487
N1300 X-158.054 Y43.549 Z-1.492
N1305 X-158.062 Y43.426 Z-1.493
N1310 X-158.108 Y42.312 Z-1.505
N1315 X-158.105 Y41.85 Z-1.511
N1320 X-158.093 Y41.092 Z-1.521
N1325 X-158.076 Y40.764 Z-1.526
N1330 X-158.02 Y39.875 Z-1.539
N1335 X-157.992 Y39.589 Z-1.544
N1340 X-157.887 Y38.605 Z-1.56
N1345 X-157.723 Y37.463 Z-1.582
N1350 X-157.514 Y36.301 Z-1.605
N1355 X-157.35 Y35.521 Z-1.621
N1360 X-157.249 Y35.054 Z-1.631
N1365 X-156.962 Y33.883 Z-1.656
N1370 X-156.642 Y32.725 Z-1.683
N1375 X-156.286 Y31.562 Z-1.71
N1380 X-155.902 Y30.421 Z-1.738
N1385 X-155.712 Y29.898 Z-1.751
N1390 X-155.466 Y29.236 Z-1.768
N1395 X-155.003 Y28.083 Z-1.798
N1400 X-154.635 Y27.227 Z-1.821
N1405 X-154.441 Y26.804 Z-1.833
N1410 X-153.947 Y25.757 Z-1.862
N1415 X-153.474 Y24.831 Z-1.888
N1420 X-153.304 Y24.512 Z-1.897
N1425 X-152.72 Y23.465 Z-1.929
N1430 X-152.305 Y22.773 Z-1.951
N1435 X-151.976 Y22.252 Z-1.968
N1440 X-151.546 Y21.615 Z-1.991
N1445 X-151.138 Y21.018 Z-2.012
N1450 X-150.885 Y20.683 Z-2.025
N1455 X-150.271 Y19.878 Z-2.056
N1460 X-149.982 Y19.525 Z-2.071
N1465 X-149.81 Y19.322 Z-2.08
N1470 X-149.203 Y18.638 Z-2.111
N1475 X-148.899 Y18.322 Z-2.126
N1480 X-148.61 Y18.025 Z-2.141
N1485 X-147.931 Y17.384 Z-2.176
N1490 X-147.671 Y17.157 Z-2.189
N1495 X-147.374 Y16.903 Z-2.204
N1500 X-147.177 Y16.75 Z-2.215
N1505 X-146.318 Y16.096 Z-2.259
N1510 X-146.085 Y15.933 Z-2.271
N1515 X-145.876 Y15.8 Z-2.282
N1520 X-144.892 Y15.195 Z-2.333
N1525 X-144.734 Y15.105 Z-2.342
N1530 X-144.1 Y14.777 Z-2.375
N1535 X-143.733 Y14.607 Z-2.395
N1540 X-143.435 Y14.472 Z-2.411
N1545 X-142.806 Y14.216 Z-2.445
N1550 X-142.203 Y14.001 Z-2.477
N1555 X-141.981 Y13.933 Z-2.489
N1560 X-140.958 Y13.635 Z-2.545
N1565 X-140.406 Y13.505 Z-2.576
N1570 X-140.16 Y13.451 Z-2.589
N1575 X-139.625 Y13.347 Z-2.619
N1580 X-139.042 Y13.258 Z-2.651
N1585 X-138.446 Y13.169 Z-2.683
N1590 X-138.128 Y13.135 Z-2.7
N1595 X-137.251 Y13.048 Z-2.747
N1600 X-136.884 Y13.025 Z-2.767
N1605 X-136.014 Y12.979 Z-2.814
N1610 X-135.439 Y12.97 Z-2.846
N1615 X-134.77 Y12.963 Z-2.882
N1620 X-133.629 Y12.991 Z-2.944
N1625 X-132.471 Y13.057 Z-3.006
N1630 X-131.835 Y13.113 Z-3.038
N1635 X-131.219 Y13.17 Z-3.069
N1640 X-130.095 Y13.306 Z-3.126
N1645 X-129.148 Y13.45 Z-3.174
N1650 X-128.558 Y13.557 Z-3.205
N1655 X-127.707 Y13.721 Z-3.249
N1660 X-126.57 Y13.981 Z-3.307
N1665 X-126.006 Y14.132 Z-3.333
N1670 X-125.288 Y14.328 Z-3.366
N1675 X-124.184 Y14.675 Z-3.419
N1680 X-123.792 Y14.816 Z-3.438
N1685 X-122.982 Y15.112 Z-3.478
N1690 X-122.694 Y15.23 Z-3.492
N1695 X-121.773 Y15.617 Z-3.538
N1700 X-121.33 Y15.822 Z-3.561
N1705 X-120.63 Y16.169 Z-3.592
N1710 X-120.333 Y16.326 Z-3.605
N1715 X-119.253 Y16.935 Z-3.654
N1720 X-118.9 Y17.154 Z-3.671
N1725 X-117.994 Y17.755 Z-3.715
N1730 X-117.201 Y18.342 Z-3.754
N1735 X-116.712 Y18.734 Z-3.779
N1740 X-115.753 Y19.573 Z-3.821
N1745 X-115.44 Y19.874 Z-3.836
N1750 X-114.527 Y20.814 Z-3.879
N1755 X-114.215 Y21.163 Z-3.894
N1760 X-113.48 Y22.05 Z-3.933
N1765 X-113.027 Y22.646 Z-3.956
N1770 X-112.546 Y23.329 Z-3.978
N1775 X-111.867 Y24.38 Z-4.013
N1780 X-111.604 Y24.837 Z-4.027
N1785 X-111.119 Y25.696 Z-4.05
N1790 X-110.615 Y26.695 Z-4.075
N1795 X-110.386 Y27.196 Z-4.086
N1800 X-109.984 Y28.112 Z-4.106
N1805 X-109.519 Y29.306 Z-4.128
N1810 X-109.298 Y29.943 Z-4.138
N1815 X-109.095 Y30.55 Z-4.147
N1820 X-108.743 Y31.744 Z-4.163
N1825 X-108.444 Y32.933 Z-4.176
N1830 X-108.203 Y34.075 Z-4.186
N1835 X-107.989 Y35.307 Z-4.192
N1840 X-107.829 Y36.48 Z-4.184
N1845 X-107.706 Y37.654 Z-4.174
N1850 X-107.62 Y38.833 Z-4.162
N1855 X-107.575 Y39.93 Z-4.148
N1860 Y41.029 Z-4.131
N1865 X-107.579 Y41.276 Z-4.127
N1870 X-107.646 Y42.392 Z-4.106
N1875 X-107.677 Y42.658 Z-4.1
N1880 X-107.832 Y43.708 Z-4.077
N1885 X-107.892 Y43.998 Z-4.069
N1890 X-108.012 Y44.497 Z-4.055
N1895 X-108.102 Y44.793 Z-4.047
N1900 X-108.26 Y45.277 Z-4.034
N1905 X-108.382 Y45.598 Z-4.025
N1910 X-108.61 Y46.107 Z-4.01
N1915 X-108.819 Y46.503 Z-3.999
N1920 X-108.929 Y46.704 Z-3.993
N1925 X-105.752 Y48.43 Z-4.004
N1930 X-105.63 Y48.364 Z-4.007
N1935 X-105.076 Y48.638 Z-4.009
N1940 X-104.397 Y48.937 Z-4.011
N1945 X-103.805 Y49.165 Z-4.015
N1950 X-103.187 Y49.37 Z-4.018
N1955 X-102.638 Y49.526 Z-4.02
N1960 X-101.979 Y49.687 Z-4.023
N1965 X-101.252 Y49.831 Z-4.026
N1970 X-100.542 Y49.942 Z-4.028
N1975 X-99.742 Y50.042 Z-4.03
N1980 X-98.9 Y50.122 Z-4.028
N1985 X-97.5 Y50.204
N1990 X-96.065 Y50.119
N1995 X-95.165 Y50.032 Z-4.03
N2000 X-94.205 Y49.906 Z-4.027
N2005 X-93.453 Y49.776 Z-4.025
N2010 X-92.754 Y49.625 Z-4.022
N2015 X-92.13 Y49.463 Z-4.019
N2020 X-91.465 Y49.258 Z-4.016
N2025 X-90.886 Y49.05 Z-4.013
N2030 X-90.327 Y48.819 Z-4.01
N2035 X-89.732 Y48.547 Z-4.009
N2040 X-89.37 Y48.364 Z-4.007
N2045 X-89.248 Y48.43 Z-4.004
N2050 X-86.071 Y46.704 Z-3.993
N2055 X-86.34 Y46.206 Z-4.008
N2060 X-86.52 Y45.825 Z-4.018
N2065 X-86.67 Y45.468 Z-4.028
N2070 X-86.803 Y45.088 Z-4.039
N2075 X-86.962 Y44.589 Z-4.053
N2080 X-87.047 Y44.255 Z-4.062
N2085 X-87.145 Y43.828 Z-4.074
N2090 X-87.192 Y43.553 Z-4.081
N2095 X-87.334 Y42.586 Z-4.102
N2100 X-87.36 Y42.298 Z-4.108
N2105 X-87.421 Y41.276 Z-4.127
N2110 X-87.426 Y40.725 Z-4.136
N2115 X-87.425 Y39.93 Z-4.148
N2120 X-87.375 Y38.751 Z-4.163
N2125 X-87.287 Y37.577 Z-4.175
N2130 X-87.162 Y36.404 Z-4.185
N2135 X-86.997 Y35.217 Z-4.192
N2140 X-86.777 Y33.969 Z-4.185
N2145 X-86.535 Y32.841 Z-4.175
N2150 X-86.23 Y31.647 Z-4.162
N2155 X-85.878 Y30.464 Z-4.146
N2160 X-85.547 Y29.49 Z-4.131
N2165 X-85.342 Y28.948 Z-4.121
N2170 X-84.995 Y28.06 Z-4.105
N2175 X-84.484 Y26.904 Z-4.08
N2180 X-84.243 Y26.412 Z-4.068
N2185 X-83.882 Y25.698 Z-4.05
N2190 X-83.207 Y24.504 Z-4.017
N2195 X-82.934 Y24.072 Z-4.003
N2200 X-82.423 Y23.283 Z-3.978
N2205 X-81.926 Y22.582 Z-3.954
N2210 X-81.472 Y21.989 Z-3.931
N2215 X-80.701 Y21.066 Z-3.89
N2220 X-80.381 Y20.716 Z-3.874
N2225 X-79.501 Y19.814 Z-3.833
N2230 X-79.18 Y19.512 Z-3.818
N2235 X-78.222 Y18.678 Z-3.775
N2240 X-77.698 Y18.266 Z-3.748
N2245 X-76.975 Y17.734 Z-3.712
N2250 X-75.983 Y17.078 Z-3.665
N2255 X-75.58 Y16.84 Z-3.646
N2260 X-74.547 Y16.259 Z-3.599
N2265 X-73.768 Y15.869 Z-3.565
N2270 X-73.317 Y15.657 Z-3.543
N2275 X-72.877 Y15.47 Z-3.521
N2280 X-72.1 Y15.144 Z-3.482
N2285 X-71.722 Y15.004 Z-3.463
N2290 X-70.853 Y14.687 Z-3.42
N2295 X-69.921 Y14.393 Z-3.377
N2300 X-69.523 Y14.275 Z-3.358
N2305 X-68.49 Y13.996 Z-3.31
N2310 X-67.743 Y13.823 Z-3.272
N2315 X-67.242 Y13.71 Z-3.246
N2320 X-66.095 Y13.491 Z-3.186
N2325 X-65.644 Y13.418 Z-3.163
N2330 X-64.879 Y13.302 Z-3.124
N2335 X-63.72 Y13.163 Z-3.066
N2340 X-62.589 Y13.061 Z-3.009
N2345 X-61.378 Y12.991 Z-2.945
N2350 X-60.226 Y12.963 Z-2.881
N2355 X-59.461 Y12.972 Z-2.84
N2360 X-58.984 Y12.979 Z-2.814
N2365 X-57.863 Y13.039 Z-2.753
N2370 X-57.111 Y13.111 Z-2.713
N2375 X-56.598 Y13.164 Z-2.686
N2380 X-56.144 Y13.23 Z-2.662
N2385 X-55.431 Y13.337 Z-2.622
N2390 X-55.054 Y13.409 Z-2.601
N2395 X-54.704 Y13.479 Z-2.582
N2400 X-54.088 Y13.624 Z-2.548
N2405 X-53.845 Y13.692 Z-2.535
N2410 X-52.912 Y13.964 Z-2.483
N2415 X-52.662 Y14.048 Z-2.47
N2420 X-52.194 Y14.216 Z-2.444
N2425 X-51.541 Y14.482 Z-2.409
N2430 X-50.979 Y14.739 Z-2.379
N2435 X-50.676 Y14.892 Z-2.363
N2440 X-50.226 Y15.127 Z-2.339
N2445 X-49.996 Y15.263 Z-2.328
N2450 X-49.01 Y15.87 Z-2.276
N2455 X-48.831 Y15.99 Z-2.267
N2460 X-48.652 Y16.118 Z-2.257
N2465 X-47.708 Y16.837 Z-2.209
N2470 X-47.542 Y16.974 Z-2.2
N2475 X-47.157 Y17.305 Z-2.18
N2480 X-46.954 Y17.492 Z-2.17
N2485 X-46.411 Y18.004 Z-2.142
N2490 X-46.159 Y18.261 Z-2.129
N2495 X-45.815 Y18.62 Z-2.112
N2500 X-45.161 Y19.355 Z-2.078
N2505 X-44.791 Y19.8 Z-2.06
N2510 X-44.497 Y20.181 Z-2.045
N2515 X-43.914 Y20.946 Z-2.015
N2520 X-43.757 Y21.17 Z-2.007
N2525 X-43.069 Y22.183 Z-1.971
N2530 X-42.938 Y22.387 Z-1.964
N2535 X-42.647 Y22.852 Z-1.948
N2540 X-42.313 Y23.408 Z-1.93
N2545 X-41.955 Y24.04 Z-1.911
N2550 X-41.616 Y24.657 Z-1.892
N2555 X-41.293 Y25.275 Z-1.875
N2560 X-40.987 Y25.884 Z-1.858
N2565 X-40.597 Y26.7 Z-1.835
N2570 X-40.415 Y27.092 Z-1.824
N2575 X-40.1 Y27.813 Z-1.804
N2580 X-39.926 Y28.224 Z-1.793
N2585 X-39.554 Y29.152 Z-1.769
N2590 X-39.343 Y29.706 Z-1.755
N2595 X-39.132 Y30.28 Z-1.74
N2600 X-38.91 Y30.922 Z-1.725
N2605 X-38.68 Y31.621 Z-1.708
N2610 X-38.459 Y32.334 Z-1.691
N2615 X-38.242 Y33.072 Z-1.673
N2620 X-38.038 Y33.816 Z-1.656
N2625 X-37.844 Y34.575 Z-1.639
N2630 X-37.694 Y35.207 Z-1.625
N2635 X-37.528 Y35.977 Z-1.609
N2640 X-37.39 Y36.683 Z-1.595
N2645 X-37.275 Y37.343 Z-1.582
N2650 X-37.171 Y38.024 Z-1.569
N2655 X-37.076 Y38.74 Z-1.556
N2660 X-36.995 Y39.466 Z-1.544
N2665 X-36.933 Y40.152 Z-1.532
N2670 X-36.888 Y40.785 Z-1.522
N2675 X-36.87 Y41.2 Z-1.516
N2680 X-36.856 Y41.912 Z-1.507
N2685 X-36.858 Y42.35 Z-1.501
N2690 X-36.87 Y42.824 Z-1.496
N2695 X-36.893 Y43.401 Z-1.49
N2700 X-36.927 Y43.884 Z-1.485
N2705 X-36.982 Y44.418 Z-1.482
N2710 X-37.057 Y44.965 Z-1.48
N2715 X-37.145 Y45.494 Z-1.479
N2720 X-37.249 Y46.02 Z-1.478
N2725 X-37.407 Y46.698 Z-1.479
N2730 X-37.473 Y46.955 Z-1.48
N2735 X-37.631 Y47.465 Z-1.484
N2740 X-37.739 Y47.784 Z-1.486
N2745 X-37.822 Y47.987 Z-1.489
N2750 X-37.965 Y48.282 Z-1.495
N2755 X-38.131 Y48.585 Z-1.502
N2760 X-38.364 Y48.964 Z-1.513
N2765 X-38.573 Y49.279 Z-1.523
N2770 X-38.75 Y49.521 Z-1.533
N2775 X-39.003 Y49.833 Z-1.546
N2780 X-39.262 Y50.126 Z-1.56
N2785 X-39.517 Y50.397 Z-1.574
N2790 X-39.8 Y50.678 Z-1.59
N2795 X-40.098 Y50.956 Z-1.608
N2800 X-40.373 Y51.194 Z-1.624
N2805 X-40.668 Y51.435 Z-1.642
N2810 X-40.959 Y51.658 Z-1.659
N2815 X-41.241 Y51.86 Z-1.677
N2820 X-41.522 Y52.049 Z-1.694
N2825 X-41.87 Y52.258 Z-1.717
N2830 X-42.235 Y52.464 Z-1.74
N2835 X-42.588 Y52.65 Z-1.764
N2840 X-43.087 Y52.894 Z-1.797
N2845 X-43.41 Y53.039 Z-1.818
N2850 X-43.894 Y53.236 Z-1.85
N2855 X-44.4 Y53.429 Z-1.883
N2860 X-44.931 Y53.617 Z-1.916
N2865 X-45.45 Y53.787 Z-1.949
N2870 X-46.084 Y53.978 Z-1.989
N2875 X-46.548 Y54.106 Z-2.019
N2880 X-47.176 Y54.261 Z-2.059
N2885 X-47.844 Y54.412 Z-2.103
N2890 X-48.537 Y54.556 Z-2.148
N2895 X-49.191 Y54.68 Z-2.19
N2900 X-49.851 Y54.792 Z-2.232
N2905 X-50.592 Y54.905 Z-2.279
N2910 X-51.217 Y54.991 Z-2.317
N2915 X-52.219 Y55.109 Z-2.378
N2920 X-53.048 Y55.19 Z-2.427
N2925 X-53.883 Y55.26 Z-2.477
N2930 X-54.829 Y55.323 Z-2.535
N2935 X-55.742 Y55.373 Z-2.589
N2940 X-57.096 Y55.418 Z-2.668
N2945 X-58.153 Y55.436 Z-2.725
N2950 X-59.196 Y55.437 Z-2.783
N2955 X-60.321 Y55.421 Z-2.845
N2960 X-61.409 Y55.389 Z-2.904
N2965 X-63.314 Y55.292 Z-3.005
N2970 X-65.373 Y55.132 Z-3.106
N2975 X-66.86 Y54.981 Z-3.179
N2980 X-67.52 Y54.902 Z-3.211
N2985 X-68.864 Y54.722 Z-3.275
N2990 X-69.773 Y54.584 Z-3.317
N2995 X-70.691 Y54.431 Z-3.356
N3000 X-71.597 Y54.265 Z-3.394
N3005 X-72.564 Y54.074 Z-3.436
N3010 X-73.268 Y53.92 Z-3.467
N3015 X-74.091 Y53.729 Z-3.503
N3020 X-74.565 Y53.61 Z-3.523
N3025 X-75.586 Y53.338 Z-3.566
N3030 X-76.285 Y53.133 Z-3.593
N3035 X-76.995 Y52.911 Z-3.62
N3040 X-77.773 Y52.652 Z-3.649
N3045 X-78.444 Y52.415 Z-3.675
N3050 X-78.922 Y52.23 Z-3.694
N3055 X-79.775 Y51.872 Z-3.729
N3060 X-80.361 Y51.608 Z-3.753
N3065 X-80.88 Y51.361 Z-3.774
N3070 X-81.456 Y51.065 Z-3.795
N3075 X-82.115 Y50.694 Z-3.818
N3080 X-82.596 Y50.404 Z-3.836
N3085 X-82.946 Y50.176 Z-3.849
N3090 X-83.316 Y49.918 Z-3.863
N3095 X-83.755 Y49.589 Z-3.881
N3100 X-84.204 Y49.223 Z-3.9
N3105 X-84.434 Y49.02 Z-3.91
N3110 X-84.724 Y48.739 Z-3.923
N3115 X-85.022 Y48.426 Z-3.937
N3120 X-85.316 Y48.09 Z-3.952
N3125 X-85.535 Y47.819 Z-3.962
N3130 X-85.785 Y47.482 Z-3.973
N3135 X-86.01 Y47.144 Z-3.983
N3140 X-86.062 Y47.087 Z-3.985
N3145 X-86.131 Y47.047 Z-3.987
N3150 X-86.183 Y47.033 Z-3.988
N3155 X-86.251 Y47.032 Z-3.989
N3160 X-86.317 Y47.048 Z-3.99
N3165 X-86.58 Y47.19 Z-3.992
N3170 X-88.733 Y48.37 Z-3.998
N3175 X-89.127 Y48.572 Z-3.999
N3180 X-89.196 Y48.587 Z-4
N3185 X-89.266 Y48.58 Z-4.001
N3190 X-89.345 Y48.56 Z-4.003
N3195 X-89.416 Y48.567 Z-4.004
N3200 X-89.458 Y48.584
N3205 X-89.844 Y48.786 Z-4.005
N3210 X-90.075 Y48.889 Z-4.006
N3215 X-91.253 Y49.343 Z-4.012
N3220 X-92.508 Y49.707 Z-4.019
N3225 X-93.82 Y49.977 Z-4.025
N3230 X-95.549 Y50.204 Z-4.029
N3235 X-97.285 Y50.328 Z-4.028
N3240 X-97.553 Y50.335
N3245 X-97.982 Y50.31
N3250 X-99.482 Y50.206 Z-4.029
N3255 X-101.212 Y49.983 Z-4.025
N3260 X-102.53 Y49.714 Z-4.018
N3265 X-103.786 Y49.354 Z-4.011
N3270 X-105 Y48.892 Z-4.005
N3275 X-105.232 Y48.784 Z-4.004
N3280 X-105.531 Y48.625
N3285 X-105.604 Y48.601 Z-4.003
N3290 X-105.681 Y48.597 Z-4.002
N3295 X-105.791 Y48.618 Z-4
N3300 X-105.852 Y48.615 Z-3.999
N3305 X-105.92 Y48.592 Z-3.998
N3310 X-106.406 Y48.345 Z-3.997
N3315 X-108.591 Y47.16 Z-3.989
N3320 X-108.653 Y47.135
N3325 X-108.719 Y47.123 Z-3.988
N3330 X-108.786 Y47.126 Z-3.987
N3335 X-108.851 Y47.143 Z-3.985
N3340 X-108.928 Y47.186 Z-3.983
N3345 X-108.977 Y47.232 Z-3.982
N3350 X-109 Y47.262 Z-3.981
N3355 X-109.213 Y47.576 Z-3.971
N3360 X-109.437 Y47.879 Z-3.961
N3365 X-109.656 Y48.152 Z-3.951
N3370 X-109.844 Y48.379 Z-3.941
N3375 X-110.04 Y48.589 Z-3.932
N3380 X-110.337 Y48.9 Z-3.918
N3385 X-110.598 Y49.147 Z-3.906
N3390 X-111.01 Y49.498 Z-3.888
N3395 X-111.298 Y49.722 Z-3.877
N3400 X-111.809 Y50.09 Z-3.856
N3405 X-112.311 Y50.423 Z-3.837
N3410 X-112.832 Y50.744 Z-3.818
N3415 X-113.418 Y51.077 Z-3.797
N3420 X-113.897 Y51.33 Z-3.78
N3425 X-114.376 Y51.566 Z-3.761
N3430 X-114.95 Y51.832 Z-3.738
N3435 X-115.688 Y52.152 Z-3.708
N3440 X-116.326 Y52.411 Z-3.682
N3445 X-116.814 Y52.591 Z-3.663
N3450 X-117.531 Y52.84 Z-3.635
N3455 X-118.263 Y53.08 Z-3.607
N3460 X-118.95 Y53.292 Z-3.581
N3465 X-119.459 Y53.44 Z-3.562
N3470 X-120.535 Y53.728 Z-3.516
N3475 X-121.315 Y53.918 Z-3.483
N3480 X-122.386 Y54.158 Z-3.436
N3485 X-123.184 Y54.32 Z-3.401
N3490 X-124.084 Y54.49 Z-3.362
N3495 X-124.965 Y54.642 Z-3.325
N3500 X-125.872 Y54.785 Z-3.285
N3505 X-126.503 Y54.874 Z-3.255
N3510 X-127.636 Y55.025 Z-3.2
N3515 X-128.31 Y55.103 Z-3.167
N3520 X-131.306 Y55.375 Z-3.021
N3525 X-133.753 Y55.504 Z-2.892
N3530 X-135.909 Y55.551 Z-2.772
N3535 X-138.194 Y55.528 Z-2.648
N3540 X-139.862 Y55.462 Z-2.55
N3545 X-140.811 Y55.405 Z-2.492
N3550 X-141.652 Y55.343 Z-2.441
N3555 X-142.559 Y55.262 Z-2.386
N3560 X-143.241 Y55.189 Z-2.344
N3565 X-144.03 Y55.096 Z-2.298
N3570 X-144.93 Y54.97 Z-2.242
N3575 X-145.655 Y54.856 Z-2.195
N3580 X-146.379 Y54.728 Z-2.149
N3585 X-147.081 Y54.59 Z-2.103
N3590 X-147.791 Y54.438 Z-2.057
N3595 X-148.452 Y54.283 Z-2.013
N3600 X-149.085 Y54.116 Z-1.973
N3605 X-149.719 Y53.932 Z-1.932
N3610 X-150.273 Y53.757 Z-1.897
N3615 X-150.78 Y53.584 Z-1.865
N3620 X-151.312 Y53.388 Z-1.83
N3625 X-151.775 Y53.206 Z-1.799
N3630 X-152.09 Y53.07 Z-1.778
N3635 X-152.56 Y52.85 Z-1.747
N3640 X-153.009 Y52.624 Z-1.716
N3645 X-153.41 Y52.409 Z-1.69
N3650 X-153.678 Y52.257 Z-1.673
N3655 X-154.02 Y52.041 Z-1.651
N3660 X-154.39 Y51.792 Z-1.628
N3665 X-154.734 Y51.55 Z-1.606
N3670 X-155.02 Y51.335 Z-1.589
N3675 X-155.259 Y51.145 Z-1.574
N3680 X-155.577 Y50.873 Z-1.555
N3685 X-155.789 Y50.683 Z-1.543
N3690 X-156.151 Y50.334 Z-1.522
N3695 X-156.248 Y50.253 Z-1.516
N3700 X-156.409 Y50.124 Z-1.506
N3705 X-156.527 Y50.018 Z-1.498
N3710 X-156.69 Y49.863 Z-1.489
N3715 X-156.816 Y49.755 Z-1.481
N3720 X-156.889 Y49.68 Z-1.477
N3725 X-157.055 Y49.501 Z-1.467
N3730 X-157.19 Y49.369 Z-1.459
N3735 X-157.341 Y49.195 Z-1.45
N3740 X-157.582 Y48.903 Z-1.437
N3745 X-157.689 Y48.753 Z-1.431
N3750 X-157.799 Y48.56 Z-1.426
N3755 X-157.926 Y48.289 Z-1.421
N3760 X-157.96 Y48.208 Z-1.42
N3765 X-158.003 Y48.059 Z-1.419
N3770 X-158.024 Y47.926 Z-1.42
N3775 X-158.032 Y47.759 Z-1.423
N3780 X-158.087 Y47.412 Z-1.425
N3785 X-158.118 Y47.188 Z-1.427
N3790 X-158.126 Y46.944 Z-1.43
N3795 X-158.153 Y46.604 Z-1.434
N3800 X-158.173 Y46.345 Z-1.437
N3805 X-158.184 Y46.102 Z-1.441
N3810 X-158.222 Y45.677 Z-1.445
N3815 X-158.245 Y45.375 Z-1.448
N3820 X-158.304 Y44.831 Z-1.452
N3825 X-158.364 Y44.059 Z-1.458
N3830 X-158.395 Y43.481 Z-1.464
N3835 X-158.415 Y42.633 Z-1.475
N3840 X-158.416 Y42.052 Z-1.482
N3845 X-158.395 Y41.2 Z-1.494
N3850 X-158.359 Y40.546 Z-1.505
N3855 X-158.287 Y39.664 Z-1.52
N3860 X-158.185 Y38.712 Z-1.538
N3865 X-158.067 Y37.825 Z-1.554
N3870 X-157.92 Y36.893 Z-1.572
N3875 X-157.76 Y36.023 Z-1.588
N3880 X-157.569 Y35.103 Z-1.606
N3885 X-157.356 Y34.192 Z-1.625
N3890 X-157.103 Y33.214 Z-1.645
N3895 X-156.829 Y32.241 Z-1.667
N3900 X-156.605 Y31.504 Z-1.684
N3905 X-156.387 Y30.833 Z-1.7
N3910 X-155.97 Y29.628 Z-1.729
N3915 X-155.704 Y28.921 Z-1.747
N3920 X-155.357 Y28.046 Z-1.769
N3925 X-155.056 Y27.331 Z-1.788
N3930 X-154.849 Y26.858 Z-1.8
N3935 X-154.12 Y25.328 Z-1.843
N3940 X-153.804 Y24.717 Z-1.861
N3945 X-153.482 Y24.119 Z-1.878
N3950 X-153.052 Y23.35 Z-1.902
N3955 X-152.867 Y23.038 Z-1.912
N3960 X-152.539 Y22.508 Z-1.929
N3965 X-152.18 Y21.952 Z-1.949
N3970 X-151.82 Y21.418 Z-1.967
N3975 X-151.48 Y20.935 Z-1.985
N3980 X-151.111 Y20.436 Z-2.004
N3985 X-150.7 Y19.905 Z-2.025
N3990 X-150.238 Y19.341 Z-2.049
N3995 X-149.892 Y18.941 Z-2.067
N4000 X-149.501 Y18.508 Z-2.087
N4005 X-149.017 Y18.005 Z-2.111
N4010 X-148.602 Y17.604 Z-2.133
N4015 X-148.07 Y17.116 Z-2.16
N4020 X-147.612 Y16.729 Z-2.184
N4025 X-147.163 Y16.379 Z-2.207
N4030 X-146.602 Y15.965 Z-2.237
N4035 X-146.09 Y15.614 Z-2.263
N4040 X-145.561 Y15.281 Z-2.291
N4045 X-144.984 Y14.939 Z-2.321
N4050 X-144.475 Y14.665 Z-2.348
N4055 X-143.945 Y14.406 Z-2.376
N4060 X-143.477 Y14.197 Z-2.401
N4065 X-142.977 Y13.998 Z-2.428
N4070 X-142.498 Y13.823 Z-2.454
N4075 X-142.009 Y13.66 Z-2.48
N4080 X-141.522 Y13.511 Z-2.507
N4085 X-141.036 Y13.376 Z-2.534
N4090 X-140.56 Y13.257 Z-2.559
N4095 X-140.087 Y13.151 Z-2.585
N4100 X-139.605 Y13.057 Z-2.612
N4105 X-139.123 Y12.975 Z-2.638
N4110 X-138.579 Y12.893 Z-2.668
N4115 X-138.057 Y12.827 Z-2.695
N4120 X-137.366 Y12.756 Z-2.732
N4125 X-136.894 Y12.719 Z-2.758
N4130 X-136.132 Y12.676 Z-2.799
N4135 X-135.57 Y12.658 Z-2.83
N4140 X-134.903 Y12.651 Z-2.866
N4145 X-134.236 Y12.658 Z-2.902
N4150 X-133.561 Y12.677 Z-2.939
N4155 X-132.903 Y12.709 Z-2.974
N4160 X-132.228 Y12.754 Z-3.009
N4165 X-131.53 Y12.815 Z-3.044
N4170 X-130.89 Y12.883 Z-3.076
N4175 X-130.217 Y12.968 Z-3.11
N4180 X-129.341 Y13.099 Z-3.155
N4185 X-128.66 Y13.217 Z-3.19
N4190 X-127.993 Y13.346 Z-3.225
N4195 X-127.348 Y13.484 Z-3.258
N4200 X-126.698 Y13.637 Z-3.292
N4205 X-126.033 Y13.807 Z-3.323
N4210 X-125.167 Y14.05 Z-3.363
N4215 X-124.54 Y14.241 Z-3.393
N4220 X-124.096 Y14.385 Z-3.414
N4225 X-123.429 Y14.628 Z-3.447
N4230 X-122.705 Y14.906 Z-3.483
N4235 X-122.161 Y15.133 Z-3.51
N4240 X-121.643 Y15.363 Z-3.536
N4245 X-121.118 Y15.611 Z-3.562
N4250 X-120.6 Y15.87 Z-3.585
N4255 X-120.083 Y16.144 Z-3.608
N4260 X-119.568 Y16.433 Z-3.632
N4265 X-119.061 Y16.733 Z-3.655
N4270 X-118.563 Y17.044 Z-3.679
N4275 X-118.073 Y17.366 Z-3.702
N4280 X-117.592 Y17.699 Z-3.726
N4285 X-117.159 Y18.013 Z-3.748
N4290 X-116.808 Y18.285 Z-3.765
N4295 X-116.478 Y18.554 Z-3.782
N4300 X-115.59 Y19.324 Z-3.82
N4305 X-115.226 Y19.671 Z-3.837
N4310 X-114.746 Y20.157 Z-3.859
N4315 X-114.305 Y20.61 Z-3.88
N4320 X-113.917 Y21.044 Z-3.899
N4325 X-113.38 Y21.692 Z-3.926
N4330 X-112.905 Y22.302 Z-3.951
N4335 X-112.448 Y22.926 Z-3.971
N4340 X-111.994 Y23.589 Z-3.993
N4345 X-111.572 Y24.247 Z-4.014
N4350 X-111.185 Y24.89 Z-4.034
N4355 X-110.803 Y25.572 Z-4.052
N4360 X-110.436 Y26.273 Z-4.069
N4365 X-110.096 Y26.97 Z-4.085
N4370 X-109.678 Y27.891 Z-4.105
N4375 X-109.38 Y28.612 Z-4.119
N4380 X-109.074 Y29.403 Z-4.132
N4385 X-108.769 Y30.254 Z-4.146
N4390 X-108.486 Y31.118 Z-4.158
N4395 X-108.266 Y31.845 Z-4.167
N4400 X-108.035 Y32.7 Z-4.176
N4405 X-107.812 Y33.612 Z-4.184
N4410 X-107.611 Y34.529 Z-4.19
N4415 X-107.414 Y35.546
N4420 X-107.249 Y36.538 Z-4.184
N4425 X-107.104 Y37.558 Z-4.175
N4430 X-106.974 Y38.695 Z-4.164
N4435 X-106.885 Y39.712 Z-4.152
N4440 X-106.817 Y40.558 Z-4.141
N4445 X-106.815 Y40.91 Z-4.136
N4450 X-106.84 Y41.259 Z-4.13
N4455 X-106.923 Y41.884 Z-4.119
N4460 X-106.998 Y42.542 Z-4.107
N4465 X-107.184 Y43.808 Z-4.081
N4470 X-107.246 Y44.106 Z-4.073
N4475 X-107.342 Y44.439 Z-4.065
N4480 X-107.508 Y44.898 Z-4.052
N4485 X-107.678 Y45.421 Z-4.039
N4490 X-107.831 Y45.813 Z-4.028
N4495 X-107.919 Y46.015 Z-4.023
N4500 X-107.94 Y46.071 Z-4.022
N4505 X-107.955 Y46.128 Z-4.02
N4510 X-107.963 Y46.187 Z-4.019
N4515 X-107.965 Y46.245 Z-4.018
N4520 X-107.958 Y46.313 Z-4.016
N4525 X-107.928 Y46.423 Z-4.015
N4530 X-107.887 Y46.505 Z-4.014
N4535 X-107.826 Y46.584 Z-4.013
N4540 X-107.745 Y46.655
N4545 X-107.466 Y46.817 Z-4.014
N4550 X-106.368 Y47.439 Z-4.017
N4555 X-106.146 Y47.552 Z-4.018
N4560 X-105.636 Y47.782 Z-4.019
N4565 X-105.23 Y47.951 Z-4.022
N4570 X-104.939 Y48.102 Z-4.023
N4575 X-104.439 Y48.368
N4580 X-103.418 Y48.821 Z-4.027
N4585 X-102.285 Y49.19 Z-4.03
N4590 X-101.884 Y49.283
N4595 X-101.001 Y49.475
N4600 X-100.512 Y49.554
N4605 X-98.939 Y49.733
N4610 X-98.234 Y49.769 Z-4.029
N4615 X-97.429 Y49.78 Z-4.028
N4620 X-96.791 Y49.767 Z-4.029
N4625 X-96.232 Y49.741 Z-4.03
N4630 X-95.061 Y49.624 Z-4.031
N4635 X-94.293 Y49.516 Z-4.03
N4640 X-93.026 Y49.255
N4645 X-92.72 Y49.169
N4650 X-91.723 Y48.852 Z-4.028
N4655 X-91.151 Y48.62 Z-4.025
N4660 X-90.569 Y48.34 Z-4.023
N4665 X-89.927 Y47.984
N4670 X-89.703 Y47.868
N4675 X-89.394 Y47.752 Z-4.02
N4680 X-89.192 Y47.657
N4685 X-88.688 Y47.383 Z-4.019
N4690 X-87.368 Y46.606 Z-4.016
N4695 X-87.312 Y46.569
N4700 X-87.263 Y46.524
N4705 X-87.219 Y46.473
N4710 X-87.183 Y46.416 Z-4.017
N4715 X-87.155 Y46.355
N4720 X-87.135 Y46.291 Z-4.018
N4725 X-87.124 Y46.225 Z-4.02
N4730 X-87.125 Y46.122 Z-4.022
N4735 X-87.148 Y46.017 Z-4.024
N4740 X-87.267 Y45.741 Z-4.031
N4745 X-87.389 Y45.426 Z-4.04
N4750 X-87.569 Y44.885 Z-4.054
N4755 X-87.768 Y44.362 Z-4.068
N4760 X-87.83 Y44.164 Z-4.073
N4765 X-87.88 Y43.926 Z-4.079
N4770 X-88.094 Y42.52 Z-4.108
N4775 X-88.189 Y41.766 Z-4.122
N4780 X-88.269 Y41.237 Z-4.131
N4785 X-88.294 Y40.948 Z-4.136
N4790 X-88.297 Y40.628 Z-4.14
N4795 X-88.268 Y40.204 Z-4.146
N4800 X-88.157 Y38.907 Z-4.162
N4805 X-88.035 Y37.807 Z-4.173
N4810 X-87.92 Y36.96 Z-4.181
N4815 X-87.776 Y36.032 Z-4.187
N4820 X-87.589 Y35 Z-4.193
N4825 X-87.398 Y34.081 Z-4.188
N4830 X-87.17 Y33.102 Z-4.18
N4835 X-86.92 Y32.142 Z-4.17
N4840 X-86.702 Y31.388 Z-4.162
N4845 X-86.427 Y30.526 Z-4.15
N4850 X-86.123 Y29.654 Z-4.137
N4855 X-85.8 Y28.798 Z-4.123
N4860 X-85.458 Y27.956 Z-4.107
N4865 X-85.062 Y27.074 Z-4.089
N4870 X-84.713 Y26.347 Z-4.073
N4875 X-84.345 Y25.634 Z-4.055
N4880 X-83.957 Y24.935 Z-4.037
N4885 X-83.583 Y24.304 Z-4.018
N4890 X-83.167 Y23.647 Z-3.998
N4895 X-82.732 Y23.003 Z-3.977
N4900 X-82.278 Y22.372 Z-3.957
N4905 X-81.794 Y21.743 Z-3.932
N4910 X-81.277 Y21.11 Z-3.905
N4915 X-80.927 Y20.706 Z-3.888
N4920 X-80.702 Y20.462 Z-3.877
N4925 X-79.933 Y19.676 Z-3.841
N4930 X-79.529 Y19.286 Z-3.823
N4935 X-79.278 Y19.064 Z-3.812
N4940 X-78.596 Y18.471 Z-3.782
N4945 X-78.295 Y18.223 Z-3.767
N4950 X-77.952 Y17.955 Z-3.75
N4955 X-77.495 Y17.621 Z-3.727
N4960 X-77.015 Y17.286 Z-3.703
N4965 X-76.533 Y16.967 Z-3.68
N4970 X-76.042 Y16.657 Z-3.657
N4975 X-75.537 Y16.355 Z-3.633
N4980 X-75.024 Y16.063 Z-3.61
N4985 X-74.516 Y15.79 Z-3.587
N4990 X-73.994 Y15.524 Z-3.564
N4995 X-73.458 Y15.266 Z-3.537
N5000 X-72.748 Y14.948 Z-3.501
N5005 X-72.05 Y14.66 Z-3.466
N5010 X-71.512 Y14.454 Z-3.439
N5015 X-70.975 Y14.259 Z-3.413
N5020 X-70.418 Y14.072 Z-3.387
N5025 X-69.772 Y13.872 Z-3.356
N5030 X-69.106 Y13.68 Z-3.325
N5035 X-68.489 Y13.515 Z-3.296
N5040 X-67.826 Y13.353 Z-3.262
N5045 X-67.165 Y13.204 Z-3.228
N5050 X-66.27 Y13.025 Z-3.181
N5055 X-65.738 Y12.93 Z-3.154
N5060 X-64.862 Y12.796 Z-3.108
N5065 X-64.069 Y12.695 Z-3.068
N5070 X-63.448 Y12.627 Z-3.037
N5075 X-62.759 Y12.566 Z-3.003
N5080 X-62.024 Y12.514 Z-2.964
N5085 X-61.399 Y12.482 Z-2.931
N5090 X-60.758 Y12.463 Z-2.896
N5095 X-60.111 Y12.456 Z-2.861
N5100 X-59.443 Y12.463 Z-2.825
N5105 X-58.896 Y12.48 Z-2.796
N5110 X-58.215 Y12.517 Z-2.759
N5115 X-57.677 Y12.557 Z-2.729
N5120 X-57.073 Y12.617 Z-2.697
N5125 X-56.554 Y12.678 Z-2.669
N5130 X-56.034 Y12.753 Z-2.641
N5135 X-55.5 Y12.843 Z-2.612
N5140 X-54.966 Y12.946 Z-2.583
N5145 X-54.454 Y13.058 Z-2.555
N5150 X-53.892 Y13.197 Z-2.524
N5155 X-53.211 Y13.387 Z-2.487
N5160 X-52.636 Y13.569 Z-2.456
N5165 X-52.064 Y13.773 Z-2.426
N5170 X-51.488 Y14.003 Z-2.395
N5175 X-50.91 Y14.259 Z-2.365
N5180 X-50.356 Y14.53 Z-2.335
N5185 X-49.8 Y14.828 Z-2.306
N5190 X-49.217 Y15.17 Z-2.276
N5195 X-48.687 Y15.505 Z-2.248
N5200 X-48.156 Y15.867 Z-2.221
N5205 X-47.591 Y16.283 Z-2.191
N5210 X-47.089 Y16.679 Z-2.165
N5215 X-46.586 Y17.105 Z-2.139
N5220 X-46.054 Y17.59 Z-2.111
N5225 X-45.595 Y18.037 Z-2.087
N5230 X-45.147 Y18.505 Z-2.064
N5235 X-44.646 Y19.06 Z-2.038
N5240 X-44.166 Y19.627 Z-2.013
N5245 X-43.683 Y20.234 Z-1.988
N5250 X-43.194 Y20.886 Z-1.962
N5255 X-42.666 Y21.631 Z-1.934
N5260 X-42.289 Y22.192 Z-1.913
N5265 X-41.733 Y23.084 Z-1.883
N5270 X-41.224 Y23.97 Z-1.856
N5275 X-40.956 Y24.455 Z-1.841
N5280 X-40.249 Y25.845 Z-1.801
N5285 X-39.775 Y26.856 Z-1.773
N5290 X-39.393 Y27.747 Z-1.751
N5295 X-39.002 Y28.717 Z-1.727
N5300 X-38.655 Y29.636 Z-1.705
N5305 X-38.185 Y31.01 Z-1.675
N5310 X-37.932 Y31.818 Z-1.658
N5315 X-37.648 Y32.799 Z-1.638
N5320 X-37.387 Y33.783 Z-1.619
N5325 X-37.166 Y34.705 Z-1.601
N5330 X-36.959 Y35.662 Z-1.583
N5335 X-36.778 Y36.611 Z-1.565
N5340 X-36.619 Y37.568 Z-1.547
N5345 X-36.487 Y38.488 Z-1.529
N5350 X-36.375 Y39.424 Z-1.511
N5355 X-36.282 Y40.395 Z-1.49
N5360 X-36.227 Y41.182 Z-1.473
N5365 X-36.181 Y42.263 Z-1.449
N5370 X-36.168 Y43.27 Z-1.431
N5375 X-36.165 Y43.742 Z-1.423
N5380 X-36.169 Y44.342 Z-1.415
N5385 X-36.18 Y44.906 Z-1.407
N5390 X-36.182 Y45.213 Z-1.402
N5395 X-36.188 Y45.47 Z-1.399
N5400 X-36.177 Y45.733 Z-1.393
N5405 X-36.126 Y46.259 Z-1.379
N5410 X-36.094 Y46.428 Z-1.373
N5415 X-36.054 Y46.588 Z-1.366
N5420 X-36.036 Y46.698 Z-1.362
N5425 X-35.98 Y47.115 Z-1.349
N5430 X-35.936 Y47.339 Z-1.341
N5435 X-35.898 Y47.509 Z-1.334
N5440 X-35.878 Y47.665 Z-1.329
N5445 X-35.849 Y47.898 Z-1.322
N5450 X-35.792 Y48.303 Z-1.308
N5455 X-35.781 Y48.486 Z-1.303
N5460 X-35.788 Y48.626 Z-1.301
N5465 X-35.81 Y48.773 Z-1.299
N5470 X-35.864 Y48.966 Z-1.3
N5475 X-35.96 Y49.191 Z-1.303
N5480 X-36.034 Y49.315 Z-1.307
N5485 X-36.114 Y49.414 Z-1.312
N5490 X-36.207 Y49.502 Z-1.318
N5495 X-36.348 Y49.603 Z-1.328
N5500 X-36.689 Y49.896 Z-1.352
N5505 X-36.879 Y50.036 Z-1.365
N5510 X-37.096 Y50.184 Z-1.381
N5515 X-37.261 Y50.305 Z-1.392
N5520 X-37.421 Y50.4 Z-1.404
N5525 X-37.568 Y50.482 Z-1.414
N5530 X-37.768 Y50.606 Z-1.427
N5535 X-37.936 Y50.697 Z-1.439
N5540 X-38.13 Y50.796 Z-1.452
N5545 X-38.294 Y50.902 Z-1.463
N5550 X-38.736 Y51.243 Z-1.491
N5555 X-38.893 Y51.354 Z-1.5
N5560 X-38.983 Y51.423 Z-1.506
N5565 X-39.045 Y51.461 Z-1.51
N5570 X-39.35 Y51.685 Z-1.529
N5575 X-39.735 Y51.947 Z-1.553
N5580 X-40.033 Y52.133 Z-1.573
N5585 X-40.479 Y52.404 Z-1.601
N5590 X-40.888 Y52.637 Z-1.628
N5595 X-41.283 Y52.848 Z-1.654
N5600 X-41.71 Y53.061 Z-1.684
N5605 X-42.126 Y53.254 Z-1.711
N5610 X-42.571 Y53.446 Z-1.741
N5615 X-42.944 Y53.597 Z-1.766
N5620 X-43.498 Y53.802 Z-1.804
N5625 X-44.001 Y53.977 Z-1.838
N5630 X-44.629 Y54.171 Z-1.879
N5635 X-45.239 Y54.346 Z-1.917
N5640 X-45.839 Y54.507 Z-1.957
N5645 X-46.404 Y54.647 Z-1.994
N5650 X-47.033 Y54.787 Z-2.035
N5655 X-47.772 Y54.938 Z-2.083
N5660 X-48.528 Y55.079 Z-2.132
N5665 X-49.258 Y55.203 Z-2.179
N5670 X-49.989 Y55.313 Z-2.226
N5675 X-50.894 Y55.435 Z-2.283
N5680 X-51.736 Y55.533 Z-2.334
N5685 X-52.474 Y55.609 Z-2.379
N5690 X-52.902 Y55.644 Z-2.404
N5695 X-54.946 Y55.797 Z-2.528
N5700 X-57.047 Y55.886 Z-2.65
N5705 X-59.15 Y55.915 Z-2.767
N5710 X-61.432 Y55.88 Z-2.891
N5715 X-64.386 Y55.733 Z-3.042
N5720 X-66.769 Y55.531 Z-3.159
N5725 X-67.617 Y55.439 Z-3.199
N5730 X-68.981 Y55.268 Z-3.263
N5735 X-69.889 Y55.138 Z-3.304
N5740 X-70.8 Y54.994 Z-3.343
N5745 X-71.637 Y54.849 Z-3.379
N5750 X-72.473 Y54.69 Z-3.416
N5755 X-73.284 Y54.523 Z-3.451
N5760 X-74.111 Y54.338 Z-3.486
N5765 X-74.801 Y54.173 Z-3.515
N5770 X-76.061 Y53.838 Z-3.566
N5775 X-76.735 Y53.642 Z-3.591
N5780 X-77.446 Y53.421 Z-3.618
N5785 X-78.051 Y53.219 Z-3.641
N5790 X-78.877 Y52.924 Z-3.674
N5795 X-79.653 Y52.62 Z-3.705
N5800 X-80.433 Y52.29 Z-3.736
N5805 X-81.053 Y52.011 Z-3.76
N5810 X-81.5 Y51.797 Z-3.777
N5815 X-82.1 Y51.49 Z-3.798
N5820 X-82.572 Y51.231 Z-3.815
N5825 X-83.066 Y50.945 Z-3.832
N5830 X-83.542 Y50.655 Z-3.85
N5835 X-84.009 Y50.356 Z-3.867
N5840 X-84.474 Y50.039 Z-3.885
N5845 X-84.97 Y49.673 Z-3.905
N5850 X-85.15 Y49.512 Z-3.913
N5855 X-85.31 Y49.339 Z-3.92
N5860 X-85.548 Y49.056 Z-3.932
N5865 X-85.797 Y48.777 Z-3.945
N5870 X-85.991 Y48.537 Z-3.955
N5875 X-86.051 Y48.469 Z-3.957
N5880 X-86.138 Y48.393 Z-3.96
N5885 X-86.238 Y48.33 Z-3.963
N5890 X-86.354 Y48.28 Z-3.966
N5895 X-86.421 Y48.261 Z-3.967
N5900 X-86.489 Y48.247 Z-3.969
N5905 X-86.57 Y48.24 Z-3.97
N5910 X-86.703 Y48.246 Z-3.972
N5915 X-86.807 Y48.267 Z-3.973
N5920 X-86.911 Y48.304 Z-3.974
N5925 X-87.437 Y48.579 Z-3.976
N5930 X-87.785 Y48.765 Z-3.977
N5935 X-88.184 Y48.994
N5940 X-88.423 Y49.114 Z-3.978
N5945 X-88.662 Y49.214 Z-3.979
N5950 X-88.823 Y49.26 Z-3.98
N5955 X-88.965 Y49.277 Z-3.983
N5960 X-89.133 Y49.282 Z-3.985
N5965 X-89.277 Y49.307 Z-3.987
N5970 X-89.43 Y49.362
N5975 X-89.59 Y49.447 Z-3.988
N5980 X-89.721 Y49.503
N5985 X-90.027 Y49.607 Z-3.99
N5990 X-91.511 Y50.045 Z-4.004
N5995 X-93.04 Y50.378 Z-4.018
N6000 X-94.375 Y50.583 Z-4.025
N6005 X-96.165 Y50.768 Z-4.028
N6010 X-97.372 Y50.846
N6015 X-97.634
N6020 X-98.296 Y50.799
N6025 X-99.925 Y50.673
N6030 X-101.712 Y50.435 Z-4.019
N6035 X-103.309 Y50.11 Z-4.005
N6040 X-104.787 Y49.697 Z-3.991
N6045 X-105.292 Y49.532 Z-3.987
N6050 X-105.423 Y49.476
N6055 X-105.568 Y49.398
N6060 X-105.694 Y49.353 Z-3.986
N6065 X-105.835 Y49.33 Z-3.985
N6070 X-106.096 Y49.288 Z-3.981
N6075 X-106.365 Y49.222 Z-3.978
N6080 X-106.618 Y49.133 Z-3.977
N6085 X-106.88 Y49.009 Z-3.976
N6090 X-107.229 Y48.81 Z-3.975
N6095 X-107.59 Y48.62 Z-3.974
N6100 X-108.041 Y48.389 Z-3.973
N6105 X-108.165 Y48.339 Z-3.972
N6110 X-108.296 Y48.311 Z-3.971
N6115 X-108.401 Y48.306 Z-3.969
N6120 X-108.506 Y48.315 Z-3.967
N6125 X-108.577 Y48.33 Z-3.966
N6130 X-108.703 Y48.374 Z-3.963
N6135 X-108.811 Y48.435 Z-3.96
N6140 X-108.902 Y48.506 Z-3.957
N6145 X-108.99 Y48.603 Z-3.953
N6150 X-109.236 Y48.916 Z-3.94
N6155 X-109.396 Y49.087 Z-3.933
N6160 X-109.487 Y49.187 Z-3.928
N6165 X-109.71 Y49.461 Z-3.917
N6170 X-109.884 Y49.635 Z-3.909
N6175 X-110.08 Y49.794 Z-3.9
N6180 X-110.683 Y50.221 Z-3.877
N6185 X-111.148 Y50.531 Z-3.859
N6190 X-111.609 Y50.823 Z-3.842
N6195 X-112.08 Y51.105 Z-3.825
N6200 X-112.568 Y51.382 Z-3.808
N6205 X-113.048 Y51.64 Z-3.791
N6210 X-113.537 Y51.888 Z-3.774
N6215 X-113.983 Y52.102 Z-3.757
N6220 X-114.579 Y52.372 Z-3.733
N6225 X-115.384 Y52.713 Z-3.702
N6230 X-116.146 Y53.011 Z-3.671
N6235 X-116.989 Y53.313 Z-3.638
N6240 X-117.665 Y53.538 Z-3.611
N6245 X-118.414 Y53.771 Z-3.583
N6250 X-119.069 Y53.959 Z-3.559
N6255 X-119.869 Y54.174 Z-3.526
N6260 X-120.654 Y54.37 Z-3.493
N6265 X-121.405 Y54.545 Z-3.461
N6270 X-122.155 Y54.707 Z-3.429
N6275 X-122.975 Y54.87 Z-3.393
N6280 X-123.799 Y55.021 Z-3.357
N6285 X-124.611 Y55.157 Z-3.322
N6290 X-125.501 Y55.294 Z-3.284
N6295 X-126.152 Y55.383 Z-3.254
N6300 X-127.418 Y55.543 Z-3.195
N6305 X-128.206 Y55.629 Z-3.157
N6310 X-130.606 Y55.836 Z-3.04
N6315 X-133.612 Y55.988 Z-2.885
N6320 X-135.909 Y56.024 Z-2.76
N6325 X-138.21 Y55.993 Z-2.631
N6330 X-141.124 Y55.849 Z-2.46
N6335 X-142.439 Y55.744 Z-2.38
N6340 X-143.253 Y55.664 Z-2.33
N6345 X-144.077 Y55.572 Z-2.28
N6350 X-145.107 Y55.441 Z-2.216
N6355 X-145.841 Y55.332 Z-2.169
N6360 X-146.63 Y55.203 Z-2.118
N6365 X-147.415 Y55.061 Z-2.067
N6370 X-148.165 Y54.912 Z-2.017
N6375 X-148.796 Y54.774 Z-1.976
N6380 X-149.376 Y54.635 Z-1.937
N6385 X-150.022 Y54.469 Z-1.895
N6390 X-150.62 Y54.3 Z-1.857
N6395 X-151.209 Y54.12 Z-1.818
N6400 X-151.784 Y53.931 Z-1.778
N6405 X-152.226 Y53.774 Z-1.748
N6410 X-152.709 Y53.586 Z-1.715
N6415 X-153.137 Y53.41 Z-1.686
N6420 X-153.586 Y53.211 Z-1.656
N6425 X-154.124 Y52.951 Z-1.618
N6430 X-154.543 Y52.733 Z-1.591
N6435 X-154.944 Y52.51 Z-1.565
N6440 X-155.429 Y52.231 Z-1.533
N6445 X-155.794 Y52.005 Z-1.509
N6450 X-156.045 Y51.844 Z-1.493
N6455 X-156.26 Y51.698 Z-1.48
N6460 X-156.363 Y51.634 Z-1.473
N6465 X-156.626 Y51.463 Z-1.456
N6470 X-157.002 Y51.212 Z-1.432
N6475 X-157.179 Y51.112 Z-1.42
N6480 X-157.34 Y51.041 Z-1.408
N6485 X-157.57 Y50.946 Z-1.391
N6490 X-157.782 Y50.848 Z-1.375
N6495 X-157.991 Y50.751 Z-1.359
N6500 X-158.159 Y50.677 Z-1.346
N6505 X-158.309 Y50.597 Z-1.335
N6510 X-158.574 Y50.443 Z-1.315
N6515 X-158.806 Y50.308 Z-1.298
N6520 X-159.004 Y50.175 Z-1.284
N6525 X-159.236 Y50.01 Z-1.267
N6530 X-159.441 Y49.878 Z-1.252
N6535 X-159.824 Y49.601 Z-1.224
N6540 X-159.904 Y49.524 Z-1.219
N6545 X-159.968 Y49.433 Z-1.215
N6550 X-159.995 Y49.376 Z-1.214
N6555 X-160.017 Y49.317
N6560 X-160.032 Y49.252
N6565 X-160.039 Y49.185 Z-1.215
N6570 X-160.035 Y49.085 Z-1.217
N6575 X-160.017 Y48.997 Z-1.221
N6580 X-159.938 Y48.722 Z-1.234
N6585 X-159.895 Y48.543 Z-1.242
N6590 X-159.841 Y48.373 Z-1.25
N6595 X-159.736 Y47.873 Z-1.27
N6600 X-159.664 Y47.602 Z-1.282
N6605 X-159.56 Y47.258 Z-1.298
N6610 X-159.393 Y46.657 Z-1.325
N6615 X-159.317 Y46.403 Z-1.336
N6620 X-159.277 Y46.208 Z-1.344
N6625 X-159.214 Y45.871 Z-1.356
N6630 X-159.179 Y45.572 Z-1.364
N6635 X-159.164 Y45.165 Z-1.373
N6640 X-159.152 Y44.851 Z-1.379
N6645 X-159.144 Y44.304 Z-1.389
N6650 X-159.136 Y43.902 Z-1.395
N6655 X-159.117 Y43.055 Z-1.414
N6660 X-159.09 Y42.126 Z-1.438
N6665 X-159.028 Y40.97 Z-1.468
N6670 X-158.952 Y40.035 Z-1.49
N6675 X-158.847 Y39.024 Z-1.511
N6680 X-158.717 Y38.008 Z-1.532
N6685 X-158.569 Y37.029 Z-1.551
N6690 X-158.392 Y36.02 Z-1.57
N6695 X-158.201 Y35.062 Z-1.587
N6700 X-157.992 Y34.122 Z-1.605
N6705 X-157.764 Y33.194 Z-1.622
N6710 X-157.515 Y32.269 Z-1.64
N6715 X-157.24 Y31.335 Z-1.659
N6720 X-156.949 Y30.418 Z-1.677
N6725 X-156.63 Y29.49 Z-1.697
N6730 X-156.291 Y28.569 Z-1.718
N6735 X-155.931 Y27.656 Z-1.739
N6740 X-155.58 Y26.821 Z-1.759
N6745 X-155.387 Y26.399 Z-1.77
N6750 X-154.611 Y24.789 Z-1.813
N6755 X-154.193 Y24.004 Z-1.835
N6760 X-153.647 Y23.042 Z-1.865
N6765 X-153.219 Y22.347 Z-1.888
N6770 X-152.813 Y21.724 Z-1.909
N6775 X-152.317 Y21.009 Z-1.935
N6780 X-151.833 Y20.351 Z-1.961
N6785 X-151.322 Y19.697 Z-1.987
N6790 X-150.84 Y19.117 Z-2.013
N6795 X-150.356 Y18.571 Z-2.038
N6800 X-149.829 Y18.012 Z-2.065
N6805 X-149.34 Y17.529 Z-2.09
N6810 X-148.827 Y17.058 Z-2.117
N6815 X-148.308 Y16.612 Z-2.144
N6820 X-147.77 Y16.18 Z-2.171
N6825 X-147.197 Y15.752 Z-2.201
N6830 X-146.678 Y15.389 Z-2.228
N6835 X-146.159 Y15.054 Z-2.254
N6840 X-145.512 Y14.669 Z-2.288
N6845 X-144.969 Y14.371 Z-2.316
N6850 X-144.401 Y14.084 Z-2.345
N6855 X-143.835 Y13.824 Z-2.375
N6860 X-143.246 Y13.578 Z-2.405
N6865 X-142.658 Y13.358 Z-2.436
N6870 X-142.043 Y13.152 Z-2.468
N6875 X-141.252 Y12.917 Z-2.51
N6880 X-140.567 Y12.738 Z-2.546
N6885 X-140.138 Y12.643 Z-2.569
N6890 X-139.353 Y12.495 Z-2.611
N6895 X-138.559 Y12.37 Z-2.654
N6900 X-137.937 Y12.289 Z-2.688
N6905 X-137.341 Y12.226 Z-2.72
N6910 X-136.744 Y12.175 Z-2.752
N6915 X-136.156 Y12.139 Z-2.783
N6920 X-135.559 Y12.115 Z-2.815
N6925 X-134.916 Y12.102 Z-2.85
N6930 X-134.367 Y12.104 Z-2.879
N6935 X-133.659 Y12.123 Z-2.917
N6940 X-132.964 Y12.155 Z-2.954
N6945 X-132.254 Y12.201 Z-2.992
N6950 X-131.561 Y12.259 Z-3.026
N6955 X-130.417 Y12.389 Z-3.084
N6960 X-129.792 Y12.476 Z-3.116
N6965 X-129.097 Y12.587 Z-3.152
N6970 X-128.551 Y12.687 Z-3.181
N6975 X-127.858 Y12.829 Z-3.216
N6980 X-127.165 Y12.985 Z-3.252
N6985 X-126.505 Y13.146 Z-3.286
N6990 X-125.827 Y13.326 Z-3.318
N6995 X-125.235 Y13.494 Z-3.345
N7000 X-124.776 Y13.638 Z-3.367
N7005 X-123.965 Y13.91 Z-3.407
N7010 X-123.39 Y14.119 Z-3.435
N7015 X-122.617 Y14.423 Z-3.473
N7020 X-121.873 Y14.74 Z-3.51
N7025 X-121.131 Y15.083 Z-3.548
N7030 X-120.595 Y15.346 Z-3.572
N7035 X-120.066 Y15.62 Z-3.596
N7040 X-119.546 Y15.904 Z-3.619
N7045 X-119.087 Y16.167 Z-3.64
N7050 X-118.647 Y16.435 Z-3.661
N7055 X-118.214 Y16.713 Z-3.682
N7060 X-117.585 Y17.133 Z-3.712
N7065 X-117.097 Y17.492 Z-3.736
N7070 X-116.719 Y17.774 Z-3.755
N7075 X-116.323 Y18.086 Z-3.776
N7080 X-115.938 Y18.417 Z-3.793
N7085 X-115.23 Y19.029 Z-3.823
N7090 X-114.842 Y19.4 Z-3.841
N7095 X-114.373 Y19.867 Z-3.863
N7100 X-113.858 Y20.403 Z-3.887
N7105 X-113.496 Y20.807 Z-3.905
N7110 X-113.035 Y21.353 Z-3.928
N7115 X-112.689 Y21.78 Z-3.945
N7120 X-112.239 Y22.369 Z-3.966
N7125 X-111.807 Y22.972 Z-3.984
N7130 X-111.368 Y23.626 Z-4.004
N7135 X-110.933 Y24.316 Z-4.025
N7140 X-110.531 Y24.996 Z-4.046
N7145 X-110.138 Y25.703 Z-4.064
N7150 X-109.752 Y26.446 Z-4.082
N7155 X-109.381 Y27.215 Z-4.098
N7160 X-109.081 Y27.863 Z-4.111
N7165 X-108.667 Y28.852 Z-4.129
N7170 X-108.298 Y29.799 Z-4.144
N7175 X-107.977 Y30.685 Z-4.156
N7180 X-107.679 Y31.572 Z-4.167
N7185 X-107.383 Y32.536 Z-4.177
N7190 X-107.16 Y33.328 Z-4.184
N7195 X-106.757 Y34.921 Z-4.195
N7200 X-106.529 Y35.953 Z-4.189
N7205 X-106.311 Y37.055 Z-4.182
N7210 X-106.107 Y38.211 Z-4.173
N7215 X-105.953 Y39.212 Z-4.163
N7220 X-105.846 Y39.98 Z-4.155
N7225 X-105.784 Y40.343 Z-4.151
N7230 X-105.761 Y40.596 Z-4.148
N7235 X-105.751 Y40.911 Z-4.144
N7240 X-105.771 Y41.166 Z-4.14
N7245 X-105.815 Y41.397 Z-4.136
N7250 X-105.893 Y41.686 Z-4.13
N7255 X-105.989 Y42.147 Z-4.122
N7260 X-106.123 Y42.938 Z-4.108
N7265 X-106.206 Y43.458 Z-4.1
N7270 X-106.26 Y43.84 Z-4.093
N7275 X-106.313 Y44.099 Z-4.087
N7280 X-106.378 Y44.33 Z-4.081
N7285 X-106.454 Y44.551 Z-4.076
N7290 X-106.556 Y44.798 Z-4.069
N7295 X-106.648 Y44.996 Z-4.064
N7300 X-106.719 Y45.177 Z-4.059
N7305 X-106.806 Y45.459 Z-4.052
N7310 X-106.829 Y45.566 Z-4.049
N7315 X-106.837 Y45.685 Z-4.047
N7320 X-106.823 Y45.815 Z-4.045
N7325 X-106.801 Y45.899 Z-4.043
N7330 X-106.77 Y45.979 Z-4.042
N7335 X-106.719 Y46.073 Z-4.041
N7340 X-106.655 Y46.158 Z-4.04
N7345 X-106.592 Y46.223
N7350 X-106.425 Y46.346 Z-4.039
N7355 X-105.892 Y46.719
N7360 X-105.663 Y46.858
N7365 X-105.349 Y47.017 Z-4.04
N7370 X-105.02 Y47.155 Z-4.042
N7375 X-104.899 Y47.227
N7380 X-104.487 Y47.529 Z-4.04
N7385 X-104.041 Y47.817
N7390 X-103.616 Y48.054
N7395 X-103.223 Y48.245 Z-4.041
N7400 X-102.306 Y48.601 Z-4.042
N7405 X-102.023 Y48.689
N7410 X-100.917 Y48.959
N7415 X-100.475 Y49.038
N7420 X-98.935 Y49.223 Z-4.041
N7425 X-98.201 Y49.258
N7430 X-97.347 Y49.267 Z-4.04
N7435 X-96.472 Y49.244 Z-4.041
N7440 X-96.029 Y49.215
N7445 X-94.575 Y49.037 Z-4.042
N7450 X-93.502 Y48.819
N7455 X-92.882 Y48.645
N7460 X-92.698 Y48.585
N7465 X-91.774 Y48.222 Z-4.041
N7470 X-91.323 Y47.996 Z-4.04
N7475 X-90.938 Y47.773
N7480 X-90.487 Y47.475 Z-4.041
N7485 X-90.113 Y47.198 Z-4.043
N7490 X-89.961 Y47.102
N7495 X-89.646 Y46.923 Z-4.042
N7500 X-89.498 Y46.864 Z-4.041
N7505 X-89.252 Y46.795 Z-4.039
N7510 X-89.127 Y46.745
N7515 X-89.025 Y46.692
N7520 X-88.841 Y46.569
N7525 X-88.687 Y46.44
N7530 X-88.596 Y46.342 Z-4.04
N7535 X-88.516 Y46.234 Z-4.041
N7540 X-88.447 Y46.119 Z-4.042
N7545 X-88.391 Y45.997 Z-4.044
N7550 X-88.34 Y45.838 Z-4.047
N7555 X-88.319 Y45.74 Z-4.048
N7560 X-88.302 Y45.574 Z-4.051
N7565 X-88.305 Y45.425 Z-4.054
N7570 X-88.323 Y45.289 Z-4.057
N7575 X-88.353 Y45.164 Z-4.06
N7580 X-88.393 Y45.047 Z-4.063
N7585 X-88.437 Y44.949 Z-4.066
N7590 X-88.541 Y44.751 Z-4.072
N7595 X-88.634 Y44.572 Z-4.077
N7600 X-88.7 Y44.407 Z-4.081
N7605 X-88.763 Y44.198 Z-4.086
N7610 X-88.778 Y44.115 Z-4.088
N7615 X-88.857 Y43.528 Z-4.1
N7620 X-88.96 Y42.904 Z-4.11
N7625 X-89.098 Y42.131 Z-4.123
N7630 X-89.186 Y41.737 Z-4.13
N7635 X-89.303 Y41.325 Z-4.138
N7640 X-89.351 Y41.091 Z-4.142
N7645 X-89.369 Y40.884 Z-4.146
N7650 X-89.37 Y40.74 Z-4.148
N7655 X-89.365 Y40.642 Z-4.149
N7660 X-89.339 Y40.435 Z-4.151
N7665 X-89.256 Y39.986 Z-4.156
N7670 X-89.142 Y39.178 Z-4.164
N7675 X-89.011 Y38.322 Z-4.172
N7680 X-88.815 Y37.197 Z-4.181
N7685 X-88.582 Y36.009 Z-4.189
N7690 X-88.351 Y34.96 Z-4.195
N7695 X-88.077 Y33.839 Z-4.189
N7700 X-87.751 Y32.663 Z-4.179
N7705 X-87.482 Y31.778 Z-4.17
N7710 X-87.181 Y30.865 Z-4.16
N7715 X-86.845 Y29.92 Z-4.147
N7720 X-86.493 Y29.003 Z-4.133
N7725 X-86.099 Y28.047 Z-4.116
N7730 X-85.893 Y27.577 Z-4.107
N7735 X-85.402 Y26.544 Z-4.086
N7740 X-85.033 Y25.82 Z-4.069
N7745 X-84.705 Y25.217 Z-4.054
N7750 X-84.296 Y24.51 Z-4.034
N7755 X-83.882 Y23.835 Z-4.013
N7760 X-83.435 Y23.152 Z-3.993
N7765 X-83.021 Y22.557 Z-3.975
N7770 X-82.595 Y21.983 Z-3.957
N7775 X-82.243 Y21.535 Z-3.939
N7780 X-81.882 Y21.096 Z-3.92
N7785 X-81.495 Y20.642 Z-3.901
N7790 X-81.22 Y20.336 Z-3.888
N7795 X-80.711 Y19.805 Z-3.864
N7800 X-80.285 Y19.378 Z-3.844
N7805 X-79.905 Y19.012 Z-3.827
N7810 X-79.778 Y18.897 Z-3.821
N7815 X-78.92 Y18.151 Z-3.783
N7820 X-78.585 Y17.875 Z-3.767
N7825 X-78.232 Y17.6 Z-3.749
N7830 X-77.527 Y17.076 Z-3.714
N7835 X-76.81 Y16.593 Z-3.679
N7840 X-76.365 Y16.303 Z-3.658
N7845 X-75.889 Y16.016 Z-3.636
N7850 X-75.391 Y15.731 Z-3.613
N7855 X-74.87 Y15.448 Z-3.59
N7860 X-74.355 Y15.181 Z-3.567
N7865 X-73.805 Y14.91 Z-3.54
N7870 X-73.251 Y14.653 Z-3.513
N7875 X-72.492 Y14.322 Z-3.475
N7880 X-71.732 Y14.017 Z-3.437
N7885 X-70.973 Y13.738 Z-3.399
N7890 X-70.071 Y13.434 Z-3.355
N7895 X-69.719 Y13.325 Z-3.338
N7900 X-69.055 Y13.135 Z-3.308
N7905 X-68.4 Y12.961 Z-3.276
N7910 X-67.717 Y12.793 Z-3.241
N7915 X-67.034 Y12.638 Z-3.206
N7920 X-66.405 Y12.509 Z-3.174
N7925 X-65.924 Y12.418 Z-3.149
N7930 X-65.143 Y12.29 Z-3.108
N7935 X-64.707 Y12.228 Z-3.086
N7940 X-63.533 Y12.087 Z-3.026
N7945 X-62.836 Y12.024 Z-2.991
N7950 X-62.09 Y11.97 Z-2.951
N7955 X-61.701 Y11.948 Z-2.931
N7960 X-60.51 Y11.913 Z-2.867
N7965 X-60.02 Z-2.841
N7970 X-59.351 Y11.927 Z-2.805
N7975 X-58.723 Y11.955 Z-2.772
N7980 X-57.903 Y12.011 Z-2.728
N7985 X-57.082 Y12.092 Z-2.684
N7990 X-56.365 Y12.183 Z-2.646
N7995 X-55.644 Y12.3 Z-2.608
N8000 X-54.818 Y12.458 Z-2.564
N8005 X-54.418 Y12.547 Z-2.543
N8010 X-53.717 Y12.729 Z-2.506
N8015 X-52.926 Y12.962 Z-2.465
N8020 X-52.294 Y13.171 Z-2.432
N8025 X-51.678 Y13.4 Z-2.4
N8030 X-51.058 Y13.655 Z-2.368
N8035 X-50.495 Y13.911 Z-2.339
N8040 X-49.928 Y14.195 Z-2.31
N8045 X-49.383 Y14.493 Z-2.282
N8050 X-48.58 Y14.965 Z-2.241
N8055 X-48.119 Y15.262 Z-2.217
N8060 X-47.57 Y15.651 Z-2.189
N8065 X-46.995 Y16.084 Z-2.16
N8070 X-46.449 Y16.523 Z-2.132
N8075 X-45.902 Y16.992 Z-2.104
N8080 X-45.371 Y17.478 Z-2.077
N8085 X-44.868 Y17.968 Z-2.051
N8090 X-44.38 Y18.475 Z-2.026
N8095 X-43.893 Y19.013 Z-2.001
N8100 X-43.44 Y19.548 Z-1.978
N8105 X-42.932 Y20.185 Z-1.952
N8110 X-42.448 Y20.828 Z-1.927
N8115 X-41.952 Y21.528 Z-1.901
N8120 X-41.556 Y22.124 Z-1.881
N8125 X-41.104 Y22.841 Z-1.857
N8130 X-40.57 Y23.762 Z-1.829
N8135 X-40.244 Y24.358 Z-1.812
N8140 X-39.634 Y25.555 Z-1.78
N8145 X-39.153 Y26.583 Z-1.754
N8150 X-38.836 Y27.324 Z-1.736
N8155 X-38.475 Y28.224 Z-1.716
N8160 X-38.122 Y29.163 Z-1.695
N8165 X-37.805 Y30.069 Z-1.676
N8170 X-37.492 Y31.031 Z-1.657
N8175 X-37.202 Y31.997 Z-1.638
N8180 X-36.968 Y32.85 Z-1.622
N8185 X-36.724 Y33.827 Z-1.603
N8190 X-36.492 Y34.85 Z-1.585
N8195 X-36.287 Y35.856 Z-1.566
N8200 X-36.126 Y36.741 Z-1.549
N8205 X-35.852 Y38.542 Z-1.514
N8210 X-35.708 Y39.783 Z-1.487
N8215 X-35.597 Y41.004 Z-1.456
N8220 X-35.5 Y42.38 Z-1.413
N8225 X-35.446 Y43.385 Z-1.378
N8230 X-35.389 Y44.306 Z-1.349
N8235 X-35.34 Y44.942 Z-1.333
N8240 X-35.276 Y45.529 Z-1.316
N8245 X-35.222 Y45.825 Z-1.306
N8250 X-35.147 Y46.111 Z-1.294
N8255 X-35.066 Y46.355 Z-1.282
N8260 X-34.948 Y46.655 Z-1.266
N8265 X-34.828 Y46.913 Z-1.25
N8270 X-34.687 Y47.225 Z-1.231
N8275 X-34.444 Y47.779 Z-1.198
N8280 X-34.079 Y48.666 Z-1.147
N8285 X-34.033 Y48.795 Z-1.14
N8290 X-33.992 Y48.953 Z-1.133
N8295 X-33.968 Y49.1 Z-1.128
N8300 X-33.957 Y49.289 Z-1.123
N8305 X-33.963 Y49.421 Z-1.121
N8310 X-33.986 Y49.594 Z-1.119
N8315 X-34.016 Y49.725 Z-1.118
N8320 X-34.08 Y49.915 Z-1.12
N8325 X-34.136 Y50.037 Z-1.122
N8330 X-34.226 Y50.193 Z-1.126
N8335 X-34.311 Y50.312 Z-1.131
N8340 X-34.436 Y50.454 Z-1.139
N8345 X-34.572 Y50.576 Z-1.148
N8350 X-34.72 Y50.683 Z-1.158
N8355 X-34.851 Y50.759 Z-1.168
N8360 X-35.16 Y50.913 Z-1.192
N8365 X-35.467 Y51.053 Z-1.215
N8370 X-35.804 Y51.193 Z-1.242
N8375 X-36.142 Y51.318 Z-1.268
N8380 X-36.475 Y51.429 Z-1.295
N8385 X-37.001 Y51.584 Z-1.337
N8390 X-37.159 Y51.632 Z-1.35
N8395 X-37.306 Y51.691 Z-1.361
N8400 X-37.444 Y51.761 Z-1.371
N8405 X-37.993 Y52.058 Z-1.41
N8410 X-38.24 Y52.201 Z-1.427
N8415 X-38.665 Y52.443 Z-1.455
N8420 X-39.156 Y52.712 Z-1.487
N8425 X-39.85 Y53.071 Z-1.533
N8430 X-40.284 Y53.286 Z-1.562
N8435 X-40.722 Y53.487 Z-1.594
N8440 X-41.261 Y53.715 Z-1.631
N8445 X-41.769 Y53.916 Z-1.666
N8450 X-42.334 Y54.124 Z-1.705
N8455 X-42.766 Y54.271 Z-1.735
N8460 X-43.336 Y54.45 Z-1.774
N8465 X-43.949 Y54.628 Z-1.816
N8470 X-44.591 Y54.801 Z-1.858
N8475 X-45.211 Y54.954 Z-1.9
N8480 X-45.9 Y55.111 Z-1.945
N8485 X-46.609 Y55.259 Z-1.992
N8490 X-47.413 Y55.412 Z-2.045
N8495 X-48.225 Y55.552 Z-2.098
N8500 X-49.319 Y55.719 Z-2.168
N8505 X-50.467 Y55.87 Z-2.241
N8510 X-51.443 Y55.981 Z-2.302
N8515 X-53.851 Y56.194 Z-2.449
N8520 X-56.838 Y56.349 Z-2.624
N8525 X-59.158 Y56.392 Z-2.754
N8530 X-62.328 Y56.346 Z-2.923
N8535 X-64.92 Y56.216 Z-3.054
N8540 X-67.546 Y55.995 Z-3.18
N8545 X-69.384 Y55.778 Z-3.264
N8550 X-70.586 Y55.608 Z-3.317
N8555 X-71.444 Y55.47 Z-3.355
N8560 X-72.253 Y55.326 Z-3.39
N8565 X-73.091 Y55.164 Z-3.426
N8570 X-73.895 Y54.994 Z-3.459
N8575 X-74.664 Y54.82 Z-3.491
N8580 X-75.485 Y54.619 Z-3.524
N8585 X-76.304 Y54.405 Z-3.557
N8590 X-76.831 Y54.256 Z-3.577
N8595 X-77.663 Y54.002 Z-3.609
N8600 X-78.321 Y53.787 Z-3.635
N8605 X-78.952 Y53.566 Z-3.66
N8610 X-79.588 Y53.33 Z-3.685
N8615 X-80.221 Y53.081 Z-3.709
N8620 X-81.033 Y52.739 Z-3.739
N8625 X-81.795 Y52.394 Z-3.768
N8630 X-82.294 Y52.154 Z-3.785
N8635 X-82.875 Y51.86 Z-3.805
N8640 X-83.592 Y51.474 Z-3.83
N8645 X-84.144 Y51.159 Z-3.851
N8650 X-84.815 Y50.755 Z-3.875
N8655 X-85.479 Y50.336 Z-3.899
N8660 X-85.638 Y50.219 Z-3.905
N8665 X-85.786 Y50.078 Z-3.912
N8670 X-85.895 Y49.95 Z-3.917
N8675 X-86.043 Y49.746 Z-3.925
N8680 X-86.165 Y49.621 Z-3.93
N8685 X-86.304 Y49.518 Z-3.936
N8690 X-86.455 Y49.439 Z-3.94
N8695 X-86.604 Y49.388 Z-3.944
N8700 X-86.76 Y49.358 Z-3.948
N8705 X-86.925 Y49.352 Z-3.951
N8710 X-87.081 Y49.369 Z-3.953
N8715 X-87.255 Y49.416 Z-3.955
N8720 X-87.415 Y49.489 Z-3.956
N8725 X-87.584 Y49.591
N8730 X-87.688 Y49.642
N8735 X-88.168 Y49.852 Z-3.958
N8740 X-88.359 Y49.916 Z-3.96
N8745 X-88.548 Y49.956 Z-3.962
N8750 X-88.715 Y49.975 Z-3.965
N8755 X-88.921 Y49.992 Z-3.968
N8760 X-89.078 Y50.023 Z-3.97
N8765 X-89.279 Y50.086 Z-3.972
N8770 X-89.448 Y50.148 Z-3.974
N8775 X-90.075 Y50.301 Z-3.981
N8780 X-91.48 Y50.64 Z-3.998
N8785 X-93.407 Y50.978 Z-4.018
N8790 X-95.859 Y51.254 Z-4.028
N8795 X-97.233 Y51.354
N8800 X-97.501 Y51.363
N8805 X-97.766 Y51.355
N8810 X-100.139 Y51.164 Z-4.026
N8815 X-102.182 Y50.901 Z-4.013
N8820 X-104.072 Y50.542 Z-3.991
N8825 X-105.539 Y50.184 Z-3.973
N8830 X-105.772 Y50.104 Z-3.971
N8835 X-105.965 Y50.049 Z-3.969
N8840 X-106.181 Y50.016 Z-3.966
N8845 X-106.467 Y49.992 Z-3.961
N8850 X-106.705 Y49.944 Z-3.958
N8855 X-106.961 Y49.864 Z-3.956
N8860 X-107.216 Y49.755 Z-3.955
N8865 X-107.48 Y49.619 Z-3.954
N8870 X-107.83 Y49.459 Z-3.952
N8875 X-107.979 Y49.418 Z-3.951
N8880 X-108.134 Y49.401 Z-3.949
N8885 X-108.275 Y49.408 Z-3.946
N8890 X-108.426 Y49.44 Z-3.943
N8895 X-108.557 Y49.49 Z-3.939
N8900 X-108.676 Y49.556 Z-3.935
N8905 X-108.795 Y49.648 Z-3.931
N8910 X-108.901 Y49.762 Z-3.926
N8915 X-109.046 Y49.959 Z-3.918
N8920 X-109.184 Y50.105 Z-3.912
N8925 X-109.425 Y50.322 Z-3.901
N8930 X-109.613 Y50.463 Z-3.894
N8935 X-110.157 Y50.807 Z-3.875
N8940 X-110.787 Y51.188 Z-3.852
N8945 X-111.317 Y51.493 Z-3.832
N8950 X-112.052 Y51.891 Z-3.806
N8955 X-112.593 Y52.168 Z-3.787
N8960 X-113.16 Y52.444 Z-3.768
N8965 X-113.71 Y52.697 Z-3.747
N8970 X-114.354 Y52.977 Z-3.723
N8975 X-115.035 Y53.257 Z-3.697
N8980 X-115.676 Y53.504 Z-3.672
N8985 X-116.314 Y53.737 Z-3.648
N8990 X-116.975 Y53.962 Z-3.622
N8995 X-117.637 Y54.174 Z-3.596
N9000 X-118.322 Y54.381 Z-3.569
N9005 X-118.943 Y54.552 Z-3.545
N9010 X-119.764 Y54.765 Z-3.512
N9015 X-120.549 Y54.954 Z-3.48
N9020 X-121.367 Y55.138 Z-3.446
N9025 X-122.149 Y55.3 Z-3.413
N9030 X-122.969 Y55.457 Z-3.378
N9035 X-123.778 Y55.598 Z-3.343
N9040 X-124.584 Y55.726 Z-3.307
N9045 X-125.738 Y55.889 Z-3.256
N9050 X-127.923 Y56.13 Z-3.155
N9055 X-128.508 Y56.193 Z-3.127
N9060 X-131.284 Y56.388 Z-2.991
N9065 X-133.722 Y56.479 Z-2.866
N9070 X-137.007 Y56.487 Z-2.687
N9075 X-140.093 Y56.377 Z-2.509
N9080 X-142.917 Y56.173 Z-2.339
N9085 X-144.841 Y55.966 Z-2.218
N9090 X-146.035 Y55.81 Z-2.142
N9095 X-147.213 Y55.631 Z-2.065
N9100 X-148.206 Y55.458 Z-2
N9105 X-149.062 Y55.291 Z-1.943
N9110 X-149.793 Y55.134 Z-1.895
N9115 X-150.457 Y54.981 Z-1.85
N9120 X-151.203 Y54.791 Z-1.8
N9125 X-151.799 Y54.626 Z-1.759
N9130 X-152.351 Y54.462 Z-1.721
N9135 X-152.864 Y54.295 Z-1.685
N9140 X-153.388 Y54.112 Z-1.648
N9145 X-153.909 Y53.916 Z-1.612
N9150 X-154.404 Y53.717 Z-1.578
N9155 X-154.92 Y53.495 Z-1.541
N9160 X-155.377 Y53.286 Z-1.509
N9165 X-156.031 Y52.975 Z-1.465
N9170 X-156.366 Y52.804 Z-1.443
N9175 X-157.362 Y52.282 Z-1.375
N9180 X-157.64 Y52.149 Z-1.354
N9185 X-157.903 Y52.04 Z-1.333
N9190 X-158.165 Y51.955 Z-1.313
N9195 X-158.438 Y51.89 Z-1.29
N9200 X-158.647 Y51.855 Z-1.273
N9205 X-158.912 Y51.811 Z-1.251
N9210 X-159.158 Y51.759 Z-1.23
N9215 X-159.412 Y51.693 Z-1.21
N9220 X-159.665 Y51.613 Z-1.19
N9225 X-159.889 Y51.531 Z-1.172
N9230 X-160.164 Y51.415 Z-1.151
N9235 X-160.439 Y51.291 Z-1.129
N9240 X-160.866 Y51.076 Z-1.097
N9245 X-161.042 Y50.974 Z-1.084
N9250 X-161.566 Y50.633 Z-1.046
N9255 X-161.667 Y50.554 Z-1.039
N9260 X-161.753 Y50.467 Z-1.033
N9265 X-161.824 Y50.378 Z-1.029
N9270 X-161.893 Y50.264 Z-1.025
N9275 X-161.945 Y50.146 Z-1.023
N9280 X-161.983 Y50.018
N9285 X-162.003 Y49.885 Z-1.024
N9290 X-162.005 Y49.732 Z-1.027
N9295 X-161.988 Y49.601 Z-1.032
N9300 X-161.951 Y49.465 Z-1.038
N9305 X-161.897 Y49.338 Z-1.046
N9310 X-161.825 Y49.217 Z-1.055
N9315 X-161.719 Y49.07 Z-1.067
N9320 X-161.617 Y48.898 Z-1.08
N9325 X-161.519 Y48.696 Z-1.093
N9330 X-161.425 Y48.475 Z-1.106
N9335 X-161.318 Y48.243 Z-1.121
N9340 X-161.136 Y47.829 Z-1.146
N9345 X-161.002 Y47.546 Z-1.163
N9350 X-160.862 Y47.276 Z-1.181
N9355 X-160.694 Y46.981 Z-1.202
N9360 X-160.516 Y46.679 Z-1.223
N9365 X-160.388 Y46.43 Z-1.24
N9370 X-160.292 Y46.209 Z-1.253
N9375 X-160.195 Y45.943 Z-1.266
N9380 X-160.108 Y45.64 Z-1.28
N9385 X-160.047 Y45.346 Z-1.291
N9390 X-159.976 Y44.809 Z-1.308
N9395 X-159.909 Y44.14 Z-1.33
N9400 X-159.817 Y42.961 Z-1.377
N9405 X-159.756 Y42.033 Z-1.414
N9410 X-159.644 Y40.645 Z-1.459
N9415 X-159.53 Y39.484 Z-1.488
N9420 X-159.424 Y38.664 Z-1.507
N9425 X-159.219 Y37.127 Z-1.538
N9430 X-159.006 Y35.891 Z-1.561
N9435 X-158.804 Y34.858 Z-1.58
N9440 X-158.576 Y33.815 Z-1.599
N9445 X-158.338 Y32.829 Z-1.617
N9450 X-158.164 Y32.16 Z-1.629
N9455 X-157.858 Y31.098 Z-1.65
N9460 X-157.562 Y30.153 Z-1.668
N9465 X-157.232 Y29.178 Z-1.688
N9470 X-156.89 Y28.242 Z-1.708
N9475 X-156.514 Y27.281 Z-1.729
N9480 X-156.199 Y26.528 Z-1.746
N9485 X-155.799 Y25.657 Z-1.768
N9490 X-155.458 Y24.95 Z-1.785
N9495 X-155.064 Y24.188 Z-1.806
N9500 X-154.627 Y23.396 Z-1.828
N9505 X-154.168 Y22.609 Z-1.852
N9510 X-153.643 Y21.786 Z-1.879
N9515 X-153.225 Y21.171 Z-1.9
N9520 X-152.713 Y20.463 Z-1.926
N9525 X-152.242 Y19.852 Z-1.949
N9530 X-151.751 Y19.256 Z-1.974
N9535 X-151.243 Y18.678 Z-2
N9540 X-150.716 Y18.116 Z-2.026
N9545 X-150.189 Y17.588 Z-2.053
N9550 X-149.637 Y17.067 Z-2.08
N9555 X-149.06 Y16.557 Z-2.11
N9560 X-148.483 Y16.078 Z-2.139
N9565 X-147.881 Y15.609 Z-2.169
N9570 X-147.281 Y15.172 Z-2.199
N9575 X-146.826 Y14.865 Z-2.222
N9580 X-146.327 Y14.561 Z-2.247
N9585 X-145.559 Y14.122 Z-2.286
N9590 X-144.984 Y13.819 Z-2.315
N9595 X-144.403 Y13.539 Z-2.345
N9600 X-143.802 Y13.276 Z-2.375
N9605 X-143.15 Y13.016 Z-2.408
N9610 X-142.522 Y12.791 Z-2.44
N9615 X-141.85 Y12.576 Z-2.475
N9620 X-141.149 Y12.373 Z-2.511
N9625 X-140.465 Y12.197 Z-2.546
N9630 X-139.662 Y12.03 Z-2.588
N9635 X-138.87 Y11.887 Z-2.629
N9640 X-138.231 Y11.793 Z-2.662
N9645 X-137.378 Y11.697 Z-2.707
N9650 X-136.54 Y11.626 Z-2.751
N9655 X-135.696 Y11.578 Z-2.795
N9660 X-134.803 Y11.552 Z-2.841
N9665 X-133.766 Y11.564 Z-2.896
N9670 X-132.888 Y11.602 Z-2.942
N9675 X-132.348 Y11.639 Z-2.97
N9680 X-131.046 Y11.757 Z-3.037
N9685 X-130.429 Y11.835 Z-3.069
N9690 X-129.847 Y11.915 Z-3.099
N9695 X-129.11 Y12.036 Z-3.137
N9700 X-128.812 Y12.09 Z-3.152
N9705 X-128.124 Y12.227 Z-3.188
N9710 X-127.434 Y12.378 Z-3.223
N9715 X-126.74 Y12.545 Z-3.258
N9720 X-126.111 Y12.708 Z-3.289
N9725 X-125.593 Y12.857 Z-3.314
N9730 X-124.98 Y13.04 Z-3.343
N9735 X-124.333 Y13.256 Z-3.375
N9740 X-123.505 Y13.553 Z-3.416
N9745 X-122.69 Y13.869 Z-3.456
N9750 X-121.879 Y14.21 Z-3.496
N9755 X-121.12 Y14.552 Z-3.533
N9760 X-120.686 Y14.763 Z-3.555
N9765 X-120.173 Y15.029 Z-3.578
N9770 X-119.652 Y15.313 Z-3.601
N9775 X-119.121 Y15.618 Z-3.625
N9780 X-118.418 Y16.046 Z-3.659
N9785 X-117.733 Y16.491 Z-3.692
N9790 X-117.225 Y16.84 Z-3.716
N9795 X-116.579 Y17.308 Z-3.748
N9800 X-116.06 Y17.712 Z-3.774
N9805 X-115.136 Y18.494 Z-3.815
N9810 X-114.85 Y18.754 Z-3.827
N9815 X-114.404 Y19.18 Z-3.848
N9820 X-113.959 Y19.621 Z-3.868
N9825 X-113.523 Y20.073 Z-3.889
N9830 X-113.1 Y20.54 Z-3.909
N9835 X-112.606 Y21.12 Z-3.934
N9840 X-112.267 Y21.536 Z-3.951
N9845 X-111.937 Y21.959 Z-3.966
N9850 X-111.535 Y22.497 Z-3.982
N9855 X-111.122 Y23.092 Z-4
N9860 X-110.646 Y23.815 Z-4.021
N9865 X-110.202 Y24.535 Z-4.042
N9870 X-109.783 Y25.257 Z-4.064
N9875 X-109.383 Y25.993 Z-4.082
N9880 X-108.999 Y26.75 Z-4.098
N9885 X-108.59 Y27.599 Z-4.114
N9890 X-108.312 Y28.223 Z-4.126
N9895 X-107.984 Y28.993 Z-4.139
N9900 X-107.581 Y29.999 Z-4.154
N9905 X-107.201 Y31.013 Z-4.167
N9910 X-106.883 Y31.922 Z-4.177
N9915 X-106.552 Y32.942 Z-4.186
N9920 X-106.126 Y34.378 Z-4.195
N9925 X-105.84 Y35.429 Z-4.194
N9930 X-105.551 Y36.58 Z-4.189
N9935 X-105.26 Y37.838 Z-4.182
N9940 X-105.029 Y38.937 Z-4.175
N9945 X-104.848 Y39.869 Z-4.168
N9950 X-104.777 Y40.138 Z-4.165
N9955 X-104.723 Y40.385 Z-4.162
N9960 X-104.686 Y40.731 Z-4.157
N9965 X-104.681 Y40.929 Z-4.154
N9970 X-104.703 Y41.164 Z-4.15
N9975 X-104.75 Y41.384 Z-4.146
N9980 X-104.819 Y41.591 Z-4.143
N9985 X-104.915 Y41.831 Z-4.138
N9990 X-105.01 Y42.136 Z-4.133
N9995 X-105.079 Y42.416 Z-4.128
N10000 X-105.207 Y43.055 Z-4.118
N10005 X-105.285 Y43.503 Z-4.11
N10010 X-105.33 Y43.827 Z-4.105
N10015 X-105.383 Y44.303 Z-4.097
N10020 X-105.409 Y44.467 Z-4.094
N10025 X-105.446 Y44.601 Z-4.09
N10030 X-105.491 Y44.712 Z-4.088
N10035 X-105.599 Y44.915 Z-4.082
N10040 X-105.648 Y45.02 Z-4.079
N10045 X-105.707 Y45.197 Z-4.074
N10050 X-105.769 Y45.391 Z-4.069
N10055 X-105.782 Y45.45 Z-4.068
N10060 X-105.784 Y45.545 Z-4.066
N10065 X-105.769 Y45.614 Z-4.064
N10070 X-105.736 Y45.689 Z-4.063
N10075 X-105.679 Y45.764
N10080 X-105.509 Y45.9 Z-4.062
N10085 X-105.479 Y45.938
N10090 X-105.472 Y45.985 Z-4.061
N10095 X-105.463 Y46.032 Z-4.06
N10100 X-105.43 Y46.065
N10105 X-105.399 Y46.075
N10110 X-105.214 Y46.096 Z-4.062
N10115 X-105.128 Y46.117 Z-4.063
N10120 X-105.051 Y46.16
N10125 X-104.551 Y46.537 Z-4.061
N10130 X-104.231 Y46.832 Z-4.059
N10135 X-103.99 Y47.034 Z-4.057
N10140 X-103.598 Y47.324 Z-4.056
N10145 X-103.241 Y47.549 Z-4.055
N10150 X-102.838 Y47.766
N10155 X-102.347 Y47.986
N10160 X-101.962 Y48.13 Z-4.054
N10165 X-101.449 Y48.291
N10170 X-100.854 Y48.437
N10175 X-100.398 Y48.527 Z-4.053
N10180 X-99.574 Y48.647
N10185 X-98.856 Y48.719
N10190 X-98.084 Y48.75
N10195 X-97.371 Y48.756
N10200 X-96.566 Y48.737
N10205 X-96.019 Y48.704
N10210 X-95.358 Y48.634
N10215 X-94.506 Y48.501 Z-4.054
N10220 X-93.957 Y48.383
N10225 X-93.392 Y48.231
N10230 X-92.896 Y48.064 Z-4.055
N10235 X-92.533 Y47.917
N10240 X-92.065 Y47.695
N10245 X-91.663 Y47.466 Z-4.056
N10250 X-91.299 Y47.222 Z-4.057
N10255 X-90.929 Y46.932 Z-4.058
N10260 X-90.631 Y46.662 Z-4.061
N10265 X-90.456 Y46.502 Z-4.062
N10270 X-89.987 Y46.143 Z-4.063
N10275 X-89.914 Y46.1
N10280 X-89.832 Y46.074
N10285 X-89.618 Y46.035 Z-4.061
N10290 X-89.591 Y46.024
N10295 X-89.57 Y46.003
N10300 X-89.558 Y45.976
N10305 X-89.559 Y45.923 Z-4.062
N10310 X-89.542 Y45.88 Z-4.063
N10315 X-89.526 Y45.863
N10320 X-89.376 Y45.742 Z-4.064
N10325 X-89.315 Y45.663 Z-4.065
N10330 X-89.28 Y45.569 Z-4.066
N10335 X-89.272 Y45.499 Z-4.068
N10340 X-89.28 Y45.425 Z-4.069
N10345 X-89.289 Y45.389 Z-4.07
N10350 X-89.396 Y45.068 Z-4.078
N10355 X-89.44 Y44.957 Z-4.081
N10360 X-89.54 Y44.771 Z-4.087
N10365 X-89.589 Y44.667 Z-4.09
N10370 X-89.634 Y44.539 Z-4.093
N10375 X-89.671 Y44.361 Z-4.097
N10380 X-89.733 Y43.83 Z-4.106
N10385 X-89.796 Y43.409 Z-4.112
N10390 X-89.858 Y43.072 Z-4.118
N10395 X-89.989 Y42.443 Z-4.128
N10400 X-90.055 Y42.179 Z-4.133
N10405 X-90.143 Y41.902 Z-4.138
N10410 X-90.231 Y41.68 Z-4.142
N10415 X-90.305 Y41.493 Z-4.145
N10420 X-90.364 Y41.277 Z-4.149
N10425 X-90.402 Y41.036 Z-4.153
N10430 X-90.411 Y40.827 Z-4.156
N10435 X-90.398 Y40.609 Z-4.159
N10440 X-90.357 Y40.31 Z-4.164
N10445 X-90.292 Y40.049 Z-4.167
N10450 X-90.237 Y39.836 Z-4.169
N10455 X-90.058 Y38.913 Z-4.177
N10460 X-89.886 Y38.085 Z-4.181
N10465 X-89.625 Y36.929 Z-4.188
N10470 X-89.336 Y35.75 Z-4.193
N10475 X-89.034 Y34.617 Z-4.197
N10480 X-88.58 Y33.069 Z-4.187
N10485 X-88.252 Y32.048 Z-4.179
N10490 X-87.906 Y31.05 Z-4.168
N10495 X-87.529 Y30.037 Z-4.155
N10500 X-87.137 Y29.055 Z-4.141
N10505 X-86.799 Y28.255 Z-4.128
N10510 X-86.486 Y27.55 Z-4.115
N10515 X-86.07 Y26.687 Z-4.098
N10520 X-85.688 Y25.935 Z-4.082
N10525 X-85.286 Y25.195 Z-4.064
N10530 X-84.866 Y24.47 Z-4.043
N10535 X-84.441 Y23.779 Z-4.023
N10540 X-83.978 Y23.072 Z-4.002
N10545 X-83.67 Y22.621 Z-3.989
N10550 X-83.457 Y22.326 Z-3.98
N10555 X-82.98 Y21.695 Z-3.96
N10560 X-82.67 Y21.303 Z-3.945
N10565 X-82.317 Y20.878 Z-3.927
N10570 X-81.893 Y20.385 Z-3.906
N10575 X-81.55 Y20.007 Z-3.889
N10580 X-81.121 Y19.561 Z-3.869
N10585 X-80.677 Y19.119 Z-3.848
N10590 X-80.225 Y18.686 Z-3.828
N10595 X-79.942 Y18.427 Z-3.815
N10600 X-79.18 Y17.777 Z-3.782
N10605 X-78.84 Y17.499 Z-3.766
N10610 X-78.53 Y17.259 Z-3.75
N10615 X-77.862 Y16.762 Z-3.717
N10620 X-77.306 Y16.376 Z-3.689
N10625 X-76.714 Y15.986 Z-3.661
N10630 X-76.075 Y15.595 Z-3.631
N10635 X-75.373 Y15.192 Z-3.598
N10640 X-74.785 Y14.871 Z-3.572
N10645 X-74.22 Y14.579 Z-3.546
N10650 X-73.686 Y14.324 Z-3.52
N10655 X-72.972 Y14.006 Z-3.485
N10660 X-72.333 Y13.737 Z-3.454
N10665 X-71.699 Y13.486 Z-3.422
N10670 X-71.05 Y13.244 Z-3.39
N10675 X-70.405 Y13.018 Z-3.358
N10680 X-69.953 Y12.868 Z-3.336
N10685 X-69.005 Y12.585 Z-3.29
N10690 X-68.176 Y12.365 Z-3.249
N10695 X-67.245 Y12.144 Z-3.202
N10700 X-66.52 Y11.989 Z-3.165
N10705 X-65.915 Y11.872 Z-3.134
N10710 X-65.129 Y11.74 Z-3.094
N10715 X-64.117 Y11.604 Z-3.042
N10720 X-63.218 Y11.506 Z-2.995
N10725 X-62.445 Y11.442 Z-2.955
N10730 X-61.451 Y11.388 Z-2.903
N10735 X-60.773 Y11.373 Z-2.868
N10740 X-60.108 Y11.368 Z-2.833
N10745 X-59.209 Y11.397 Z-2.787
N10750 X-58.345 Y11.449 Z-2.742
N10755 X-57.5 Y11.523 Z-2.698
N10760 X-56.66 Y11.619 Z-2.654
N10765 X-56.038 Y11.712 Z-2.622
N10770 X-55.193 Y11.868 Z-2.579
N10775 X-54.433 Y12.03 Z-2.54
N10780 X-53.625 Y12.244 Z-2.499
N10785 X-52.881 Y12.465 Z-2.461
N10790 X-52.158 Y12.704 Z-2.424
N10795 X-51.604 Y12.905 Z-2.397
N10800 X-50.763 Y13.255 Z-2.354
N10805 X-50.162 Y13.531 Z-2.324
N10810 X-49.59 Y13.818 Z-2.295
N10815 X-48.999 Y14.141 Z-2.266
N10820 X-48.381 Y14.505 Z-2.235
N10825 X-47.791 Y14.878 Z-2.205
N10830 X-47.201 Y15.278 Z-2.176
N10835 X-46.64 Y15.685 Z-2.148
N10840 X-46.076 Y16.122 Z-2.12
N10845 X-45.543 Y16.563 Z-2.094
N10850 X-45.009 Y17.034 Z-2.067
N10855 X-44.504 Y17.508 Z-2.042
N10860 X-43.999 Y18.014 Z-2.017
N10865 X-43.501 Y18.545 Z-1.993
N10870 X-43.027 Y19.085 Z-1.969
N10875 X-42.524 Y19.691 Z-1.944
N10880 X-42.051 Y20.296 Z-1.921
N10885 X-41.537 Y20.993 Z-1.896
N10890 X-41.152 Y21.547 Z-1.877
N10895 X-40.588 Y22.413 Z-1.849
N10900 X-40.153 Y23.14 Z-1.827
N10905 X-39.715 Y23.918 Z-1.805
N10910 X-39.308 Y24.687 Z-1.784
N10915 X-38.959 Y25.392 Z-1.767
N10920 X-38.504 Y26.369 Z-1.743
N10925 X-38.168 Y27.171 Z-1.725
N10930 X-37.822 Y28.048 Z-1.706
N10935 X-37.487 Y28.958 Z-1.687
N10940 X-37.162 Y29.905 Z-1.668
N10945 X-36.856 Y30.869 Z-1.649
N10950 X-36.581 Y31.808 Z-1.631
N10955 X-36.382 Y32.545 Z-1.618
N10960 X-36.119 Y33.626 Z-1.598
N10965 X-35.892 Y34.654 Z-1.58
N10970 X-35.679 Y35.728 Z-1.56
N10975 X-35.521 Y36.618 Z-1.543
N10980 X-35.241 Y38.468 Z-1.506
N10985 X-35.068 Y39.91 Z-1.472
N10990 X-34.932 Y41.228 Z-1.432
N10995 X-34.804 Y42.612 Z-1.374
N11000 X-34.74 Y43.263 Z-1.34
N11005 X-34.661 Y43.96 Z-1.305
N11010 X-34.577 Y44.554 Z-1.277
N11015 X-34.487 Y45.061 Z-1.257
N11020 X-34.423 Y45.334 Z-1.244
N11025 X-34.329 Y45.619 Z-1.23
N11030 X-34.226 Y45.855 Z-1.216
N11035 X-34.081 Y46.134 Z-1.198
N11040 X-33.983 Y46.286 Z-1.186
N11045 X-33.913 Y46.384 Z-1.178
N11050 X-33.69 Y46.744 Z-1.151
N11055 X-33.523 Y47.039 Z-1.13
N11060 X-33.443 Y47.189 Z-1.12
N11065 X-33.394 Y47.273 Z-1.114
N11070 X-33.209 Y47.633 Z-1.091
N11075 X-33.104 Y47.807 Z-1.078
N11080 X-33.015 Y47.977 Z-1.067
N11085 X-32.943 Y48.09 Z-1.058
N11090 X-32.787 Y48.288 Z-1.04
N11095 X-32.659 Y48.438 Z-1.025
N11100 X-32.55 Y48.552 Z-1.013
N11105 X-32.372 Y48.713 Z-0.994
N11110 X-32.205 Y48.847 Z-0.976
N11115 X-32.034 Y48.967 Z-0.958
N11120 X-31.91 Y49.052 Z-0.946
N11125 X-31.807 Y49.138 Z-0.935
N11130 X-31.717 Y49.23 Z-0.925
N11135 X-31.632 Y49.337 Z-0.915
N11140 X-31.55 Y49.467 Z-0.904
N11145 X-31.496 Y49.577 Z-0.897
N11150 X-31.452 Y49.694 Z-0.89
N11155 X-31.413 Y49.84 Z-0.883
N11160 X-31.392 Y49.99 Z-0.878
N11165 X-31.387 Y50.146 Z-0.874
N11170 X-31.402 Y50.301 Z-0.872
N11175 X-31.436 Y50.459 Z-0.871
N11180 X-31.479 Y50.586 Z-0.872
N11185 X-31.544 Y50.727 Z-0.875
N11190 X-31.616 Y50.845 Z-0.879
N11195 X-31.697 Y50.951 Z-0.883
N11200 X-31.812 Y51.07 Z-0.891
N11205 X-31.937 Y51.172 Z-0.9
N11210 X-32.079 Y51.26 Z-0.911
N11215 X-32.233 Y51.331 Z-0.923
N11220 X-33.204 Y51.675 Z-1
N11225 X-33.318 Y51.726 Z-1.009
N11230 X-33.964 Y51.964 Z-1.06
N11235 X-34.348 Y52.121 Z-1.09
N11240 X-34.46 Y52.171 Z-1.098
N11245 X-34.95 Y52.351 Z-1.137
N11250 X-35.26 Y52.453 Z-1.161
N11255 X-35.541 Y52.532 Z-1.185
N11260 X-35.796 Y52.592 Z-1.205
N11265 X-36.076 Y52.645 Z-1.229
N11270 X-36.537 Y52.71 Z-1.268
N11275 X-36.719 Y52.744 Z-1.283
N11280 X-36.913 Y52.793 Z-1.298
N11285 X-37.216 Y52.895 Z-1.323
N11290 X-37.442 Y52.979 Z-1.34
N11295 X-37.64 Y53.066 Z-1.354
N11300 X-37.896 Y53.184 Z-1.373
N11305 X-38.148 Y53.3 Z-1.391
N11310 X-39.129 Y53.724 Z-1.458
N11315 X-39.763 Y53.987 Z-1.505
N11320 X-40.28 Y54.189 Z-1.541
N11325 X-40.878 Y54.405 Z-1.583
N11330 X-41.606 Y54.647 Z-1.635
N11335 X-42.282 Y54.846 Z-1.683
N11340 X-43.017 Y55.053 Z-1.735
N11345 X-43.926 Y55.278 Z-1.798
N11350 X-44.897 Y55.493 Z-1.865
N11355 X-46.002 Y55.71 Z-1.939
N11360 X-47.131 Y55.907 Z-2.015
N11365 X-48.37 Y56.096 Z-2.097
N11370 X-49.094 Y56.192 Z-2.144
N11375 X-51.686 Y56.486 Z-2.308
N11380 X-54.493 Y56.704 Z-2.478
N11385 X-57.025 Y56.824 Z-2.625
N11390 X-60.306 Y56.874 Z-2.807
N11395 X-63.397 Y56.811 Z-2.967
N11400 X-66.115 Y56.66 Z-3.1
N11405 X-68.636 Y56.431 Z-3.217
N11410 X-69.993 Y56.266 Z-3.277
N11415 X-71.173 Y56.097 Z-3.329
N11420 X-72.271 Y55.915 Z-3.376
N11425 X-73.358 Y55.711 Z-3.421
N11430 X-74.459 Y55.48 Z-3.466
N11435 X-75.525 Y55.233 Z-3.509
N11440 X-76.607 Y54.957 Z-3.552
N11445 X-77.247 Y54.775 Z-3.577
N11450 X-78.152 Y54.497 Z-3.612
N11455 X-79.06 Y54.194 Z-3.647
N11460 X-79.947 Y53.873 Z-3.681
N11465 X-80.854 Y53.52 Z-3.714
N11470 X-81.753 Y53.144 Z-3.747
N11475 X-82.359 Y52.873 Z-3.769
N11480 X-83.061 Y52.541 Z-3.793
N11485 X-83.732 Y52.209 Z-3.817
N11490 X-84.051 Y52.043 Z-3.828
N11495 X-85.16 Y51.451 Z-3.866
N11500 X-85.854 Y51.073 Z-3.889
N11505 X-86.043 Y50.962 Z-3.895
N11510 X-86.214 Y50.834 Z-3.902
N11515 X-86.397 Y50.68 Z-3.909
N11520 X-86.559 Y50.577 Z-3.914
N11525 X-86.721 Y50.504 Z-3.919
N11530 X-86.9 Y50.452 Z-3.924
N11535 X-87.087 Y50.426 Z-3.928
N11540 X-87.241 Y50.425 Z-3.931
N11545 X-87.422 Y50.447 Z-3.933
N11550 X-87.577 Y50.488 Z-3.935
N11555 X-87.933 Y50.601 Z-3.94
N11560 X-88.214 Y50.662 Z-3.944
N11565 X-88.615 Y50.724 Z-3.951
N11570 X-88.841 Y50.736 Z-3.955
N11575 X-88.981 Y50.742 Z-3.957
N11580 X-89.088 Y50.763 Z-3.959
N11585 X-89.286 Y50.822 Z-3.962
N11590 X-90.036 Y50.967 Z-3.975
N11595 X-91.164 Y51.162 Z-3.991
N11600 X-92.44 Y51.379 Z-4.007
N11605 X-94.846 Y51.67 Z-4.025
N11610 X-97.18 Y51.866 Z-4.028
N11615 X-97.448 Y51.877
N11620 X-97.819 Y51.867
N11625 X-100.189 Y51.674 Z-4.025
N11630 X-102.6 Y51.389 Z-4.006
N11635 X-104.889 Y51.008 Z-3.976
N11640 X-105.866 Y50.83 Z-3.959
N11645 X-106.321 Y50.769 Z-3.952
N11650 X-106.638 Y50.724 Z-3.946
N11655 X-106.982 Y50.656 Z-3.94
N11660 X-107.35 Y50.558 Z-3.935
N11665 X-107.687 Y50.45 Z-3.931
N11670 X-107.818 Y50.425 Z-3.929
N11675 X-107.972 Y50.422 Z-3.927
N11680 X-108.118 Y50.444 Z-3.924
N11685 X-108.252 Y50.486 Z-3.92
N11690 X-108.375 Y50.547 Z-3.916
N11695 X-108.491 Y50.63 Z-3.912
N11700 X-108.684 Y50.815 Z-3.904
N11705 X-108.829 Y50.935 Z-3.899
N11710 X-109.013 Y51.061 Z-3.892
N11715 X-109.12 Y51.122 Z-3.888
N11720 X-109.663 Y51.417 Z-3.87
N11725 X-110.347 Y51.786 Z-3.847
N11730 X-111.099 Y52.186 Z-3.821
N11735 X-111.765 Y52.52 Z-3.798
N11740 X-112.467 Y52.858 Z-3.773
N11745 X-113.219 Y53.198 Z-3.746
N11750 X-114.134 Y53.582 Z-3.713
N11755 X-115.032 Y53.934 Z-3.68
N11760 X-115.954 Y54.269 Z-3.645
N11765 X-116.861 Y54.574 Z-3.61
N11770 X-117.797 Y54.863 Z-3.574
N11775 X-118.386 Y55.032 Z-3.551
N11780 X-119.436 Y55.302 Z-3.509
N11785 X-120.526 Y55.559 Z-3.465
N11790 X-121.623 Y55.791 Z-3.42
N11795 X-122.7 Y55.996 Z-3.375
N11800 X-123.8 Y56.18 Z-3.328
N11805 X-124.969 Y56.351 Z-3.277
N11810 X-125.684 Y56.44 Z-3.246
N11815 X-128.44 Y56.721 Z-3.119
N11820 X-131.266 Y56.894 Z-2.982
N11825 X-133.719 Y56.966 Z-2.857
N11830 X-137.082 Y56.954 Z-2.675
N11835 X-140.514 Y56.817 Z-2.477
N11840 X-143.324 Y56.608 Z-2.306
N11845 X-145.482 Y56.384 Z-2.169
N11850 X-147.379 Y56.133 Z-2.045
N11855 X-148.536 Y55.953 Z-1.968
N11860 X-149.706 Y55.747 Z-1.889
N11865 X-150.735 Y55.544 Z-1.819
N11870 X-151.791 Y55.311 Z-1.746
N11875 X-153.451 Y54.872 Z-1.627
N11880 X-154.189 Y54.646 Z-1.573
N11885 X-154.934 Y54.396 Z-1.519
N11890 X-155.702 Y54.112 Z-1.465
N11895 X-156.667 Y53.738 Z-1.394
N11900 X-156.97 Y53.619 Z-1.373
N11905 X-157.33 Y53.472 Z-1.346
N11910 X-157.56 Y53.377 Z-1.33
N11915 X-157.941 Y53.251 Z-1.3
N11920 X-158.217 Y53.175 Z-1.278
N11925 X-158.502 Y53.119 Z-1.255
N11930 X-159 Y53.052 Z-1.213
N11935 X-159.329 Y52.992 Z-1.185
N11940 X-159.652 Y52.92 Z-1.157
N11945 X-160.096 Y52.799 Z-1.12
N11950 X-160.599 Y52.642 Z-1.08
N11955 X-160.719 Y52.596 Z-1.071
N11960 X-161.149 Y52.45 Z-1.037
N11965 X-161.759 Y52.264 Z-0.988
N11970 X-161.842 Y52.233 Z-0.982
N11975 X-162.46 Y52.054 Z-0.932
N11980 X-162.618 Y51.999 Z-0.919
N11985 X-162.808 Y51.912 Z-0.905
N11990 X-162.958 Y51.827 Z-0.893
N11995 X-163.131 Y51.707 Z-0.88
N12000 X-163.293 Y51.569 Z-0.869
N12005 X-163.445 Y51.41 Z-0.859
N12010 X-163.562 Y51.262 Z-0.852
N12015 X-163.665 Y51.104 Z-0.846
N12020 X-163.747 Y50.95 Z-0.842
N12025 X-163.809 Y50.81 Z-0.84
N12030 X-163.878 Y50.611 Z-0.838
N12035 X-163.923 Y50.421
N12040 X-163.952 Y50.222 Z-0.841
N12045 X-163.961 Y49.997 Z-0.845
N12050 X-163.949 Y49.788 Z-0.851
N12055 X-163.917 Y49.588 Z-0.858
N12060 X-163.887 Y49.462 Z-0.863
N12065 X-163.835 Y49.298 Z-0.872
N12070 X-163.755 Y49.106 Z-0.884
N12075 X-163.693 Y48.987 Z-0.893
N12080 X-163.602 Y48.837 Z-0.904
N12085 X-163.475 Y48.666 Z-0.919
N12090 X-163.329 Y48.507 Z-0.935
N12095 X-163.163 Y48.36 Z-0.953
N12100 X-162.986 Y48.228 Z-0.972
N12105 X-162.823 Y48.109 Z-0.989
N12110 X-162.658 Y47.964 Z-1.006
N12115 X-162.512 Y47.807 Z-1.023
N12120 X-162.407 Y47.671 Z-1.035
N12125 X-162.092 Y47.245 Z-1.071
N12130 X-162.014 Y47.12 Z-1.081
N12135 X-161.874 Y46.875 Z-1.098
N12140 X-161.809 Y46.775 Z-1.106
N12145 X-161.636 Y46.486 Z-1.127
N12150 X-161.431 Y46.17 Z-1.151
N12155 X-161.256 Y45.917 Z-1.171
N12160 X-161.139 Y45.705 Z-1.186
N12165 X-161.006 Y45.432 Z-1.204
N12170 X-160.913 Y45.183 Z-1.219
N12175 X-160.841 Y44.917 Z-1.232
N12180 X-160.762 Y44.55 Z-1.25
N12185 X-160.693 Y44.169 Z-1.271
N12190 X-160.619 Y43.693 Z-1.297
N12195 X-160.514 Y42.858 Z-1.347
N12200 X-160.359 Y41.379 Z-1.42
N12205 X-160.153 Y39.432 Z-1.481
N12210 X-159.998 Y38.268 Z-1.508
N12215 X-159.831 Y37.03 Z-1.533
N12220 X-159.626 Y35.811 Z-1.556
N12225 X-159.414 Y34.691 Z-1.576
N12230 X-159.181 Y33.59 Z-1.596
N12235 X-158.988 Y32.768 Z-1.61
N12240 X-158.684 Y31.588 Z-1.632
N12245 X-158.396 Y30.59 Z-1.65
N12250 X-158.092 Y29.625 Z-1.669
N12255 X-157.775 Y28.696 Z-1.687
N12260 X-157.425 Y27.738 Z-1.707
N12265 X-157.062 Y26.816 Z-1.727
N12270 X-156.82 Y26.234 Z-1.74
N12275 X-156.285 Y25.081 Z-1.767
N12280 X-155.927 Y24.363 Z-1.786
N12285 X-155.513 Y23.588 Z-1.806
N12290 X-155.07 Y22.811 Z-1.828
N12295 X-154.676 Y22.164 Z-1.847
N12300 X-154.141 Y21.344 Z-1.873
N12305 X-153.743 Y20.775 Z-1.892
N12310 X-153.235 Y20.089 Z-1.917
N12315 X-152.743 Y19.466 Z-1.941
N12320 X-152.244 Y18.871 Z-1.965
N12325 X-151.753 Y18.32 Z-1.989
N12330 X-151.235 Y17.774 Z-2.014
N12335 X-150.699 Y17.242 Z-2.04
N12340 X-150.158 Y16.741 Z-2.066
N12345 X-149.559 Y16.221 Z-2.096
N12350 X-149.106 Y15.854 Z-2.118
N12355 X-148.457 Y15.365 Z-2.149
N12360 X-147.779 Y14.884 Z-2.182
N12365 X-147.284 Y14.549 Z-2.207
N12370 X-146.686 Y14.184 Z-2.236
N12375 X-146.005 Y13.799 Z-2.27
N12380 X-145.388 Y13.47 Z-2.3
N12385 X-144.774 Y13.17 Z-2.33
N12390 X-144.159 Y12.896 Z-2.361
N12395 X-143.429 Y12.595 Z-2.397
N12400 X-142.705 Y12.337 Z-2.433
N12405 X-141.938 Y12.087 Z-2.471
N12410 X-141.147 Y11.857 Z-2.511
N12415 X-140.538 Y11.697 Z-2.542
N12420 X-139.643 Y11.504 Z-2.587
N12425 X-138.843 Y11.355 Z-2.627
N12430 X-138.206 Y11.262 Z-2.66
N12435 X-137.349 Y11.163 Z-2.703
N12440 X-136.488 Y11.086 Z-2.747
N12445 X-135.622 Y11.033 Z-2.792
N12450 X-134.801 Y11.003 Z-2.833
N12455 X-133.862 Y11.012 Z-2.882
N12460 X-133.004 Y11.043 Z-2.925
N12465 X-132.185 Y11.095 Z-2.967
N12470 X-131.32 Y11.175 Z-3.012
N12475 X-130.458 Y11.278 Z-3.055
N12480 X-129.594 Y11.405 Z-3.099
N12485 X-128.781 Y11.546 Z-3.141
N12490 X-127.81 Y11.749 Z-3.19
N12495 X-126.934 Y11.956 Z-3.234
N12500 X-126.053 Y12.189 Z-3.277
N12505 X-125.194 Y12.441 Z-3.32
N12510 X-124.703 Y12.597 Z-3.344
N12515 X-124.041 Y12.828 Z-3.377
N12520 X-123.389 Y13.07 Z-3.409
N12525 X-122.75 Y13.32 Z-3.44
N12530 X-122.1 Y13.59 Z-3.472
N12535 X-121.272 Y13.956 Z-3.511
N12540 X-120.678 Y14.238 Z-3.54
N12545 X-119.927 Y14.629 Z-3.576
N12550 X-119.357 Y14.945 Z-3.602
N12555 X-118.805 Y15.267 Z-3.628
N12560 X-118.073 Y15.72 Z-3.662
N12565 X-117.358 Y16.192 Z-3.697
N12570 X-116.669 Y16.675 Z-3.73
N12575 X-116.027 Y17.154 Z-3.761
N12580 X-115.755 Y17.371 Z-3.775
N12585 X-115.18 Y17.855 Z-3.8
N12590 X-114.712 Y18.268 Z-3.82
N12595 X-114.253 Y18.692 Z-3.841
N12600 X-113.804 Y19.127 Z-3.861
N12605 X-113.426 Y19.508 Z-3.879
N12610 X-113.055 Y19.897 Z-3.897
N12615 X-112.691 Y20.294 Z-3.914
N12620 X-112.314 Y20.723 Z-3.933
N12625 X-111.973 Y21.129 Z-3.95
N12630 X-111.644 Y21.544 Z-3.965
N12635 X-111.116 Y22.234 Z-3.987
N12640 X-110.93 Y22.493 Z-3.995
N12645 X-110.479 Y23.149 Z-4.014
N12650 X-110.029 Y23.838 Z-4.034
N12655 X-109.675 Y24.411 Z-4.05
N12660 X-109.232 Y25.168 Z-4.072
N12665 X-108.817 Y25.921 Z-4.091
N12670 X-108.387 Y26.754 Z-4.108
N12675 X-108.09 Y27.35 Z-4.119
N12680 X-107.578 Y28.459 Z-4.139
N12685 X-107.209 Y29.306 Z-4.153
N12690 X-106.927 Y29.989 Z-4.162
N12695 X-106.502 Y31.071 Z-4.175
N12700 X-106.224 Y31.809 Z-4.183
N12705 X-105.607 Y33.573 Z-4.196
N12710 X-104.866 Y35.934 Z-4.199
N12715 X-104.184 Y38.376 Z-4.191
N12720 X-103.87 Y39.617 Z-4.182
N12725 X-103.751 Y40.027 Z-4.177
N12730 X-103.699 Y40.278 Z-4.174
N12735 X-103.675 Y40.461 Z-4.172
N12740 X-103.661 Y40.694 Z-4.169
N12745 X-103.663 Y40.9 Z-4.166
N12750 X-103.686 Y41.17 Z-4.162
N12755 X-103.728 Y41.417 Z-4.158
N12760 X-103.787 Y41.65 Z-4.154
N12765 X-103.861 Y41.869 Z-4.15
N12770 X-103.985 Y42.158 Z-4.144
N12775 X-104.079 Y42.397 Z-4.14
N12780 X-104.173 Y42.696 Z-4.134
N12785 X-104.282 Y43.145 Z-4.126
N12790 X-104.344 Y43.453 Z-4.121
N12795 X-104.404 Y43.83 Z-4.115
N12800 X-104.449 Y44.258 Z-4.108
N12805 X-104.463 Y44.416 Z-4.105
N12810 X-104.484 Y44.544 Z-4.103
N12815 X-104.503 Y44.629 Z-4.102
N12820 X-104.565 Y44.821 Z-4.098
N12825 X-104.592 Y44.947 Z-4.095
N12830 X-104.603 Y45.065 Z-4.093
N12835 X-104.598 Y45.191 Z-4.09
N12840 X-104.577 Y45.319 Z-4.087
N12845 X-104.534 Y45.456 Z-4.085
N12850 X-104.472 Y45.587 Z-4.083
N12855 X-104.409 Y45.684 Z-4.082
N12860 X-104.327 Y45.78 Z-4.081
N12865 X-104.182 Y45.908 Z-4.08
N12870 X-103.85 Y46.182 Z-4.077
N12875 X-103.646 Y46.389 Z-4.075
N12880 X-103.436 Y46.597 Z-4.073
N12885 X-103.145 Y46.845 Z-4.071
N12890 X-102.854 Y47.056 Z-4.07
N12895 X-102.553 Y47.241 Z-4.069
N12900 X-102.178 Y47.435 Z-4.068
N12905 X-101.806 Y47.596 Z-4.067
N12910 X-101.391 Y47.745 Z-4.066
N12915 X-100.975 Y47.867
N12920 X-100.382 Y48.004 Z-4.065
N12925 X-99.731 Y48.11
N12930 X-99.158 Y48.181
N12935 X-98.688 Y48.218
N12940 X-97.838 Y48.242
N12945 X-96.89 Y48.236
N12950 X-96.147 Y48.205
N12955 X-95.389 Y48.123
N12960 X-94.62 Y47.996
N12965 X-94.028 Y47.857 Z-4.066
N12970 X-93.614 Y47.734 Z-4.067
N12975 X-93.2 Y47.584
N12980 X-92.83 Y47.422 Z-4.068
N12985 X-92.457 Y47.226 Z-4.069
N12990 X-92.122 Y47.015 Z-4.07
N12995 X-91.871 Y46.83 Z-4.071
N13000 X-91.584 Y46.581 Z-4.074
N13005 X-91.395 Y46.392 Z-4.076
N13010 X-91.17 Y46.156 Z-4.078
N13015 X-90.9 Y45.922 Z-4.08
N13020 X-90.741 Y45.786 Z-4.081
N13025 X-90.633 Y45.658 Z-4.083
N13030 X-90.568 Y45.551 Z-4.084
N13035 X-90.508 Y45.416 Z-4.086
N13040 X-90.487 Y45.35 Z-4.087
N13045 X-90.467 Y45.26 Z-4.089
N13050 X-90.456 Y45.185 Z-4.091
N13055 X-90.452 Y45.041 Z-4.094
N13060 X-90.467 Y44.91 Z-4.097
N13065 X-90.494 Y44.798 Z-4.099
N13070 X-90.546 Y44.64 Z-4.102
N13075 X-90.574 Y44.511 Z-4.104
N13080 X-90.598 Y44.32 Z-4.107
N13085 X-90.639 Y43.922 Z-4.114
N13090 X-90.69 Y43.577 Z-4.12
N13095 X-90.742 Y43.309 Z-4.124
N13100 X-90.828 Y42.939 Z-4.131
N13105 X-90.913 Y42.626 Z-4.136
N13110 X-91.012 Y42.343 Z-4.141
N13115 X-91.11 Y42.116 Z-4.146
N13120 X-91.214 Y41.869 Z-4.151
N13125 X-91.294 Y41.629 Z-4.155
N13130 X-91.355 Y41.376 Z-4.159
N13135 X-91.397 Y41.106 Z-4.164
N13140 X-91.412 Y40.916 Z-4.167
N13145 X-91.416 Y40.716 Z-4.169
N13150 X-91.406 Y40.503 Z-4.172
N13155 X-91.38 Y40.274 Z-4.175
N13160 X-91.324 Y39.993 Z-4.178
N13165 X-91.203 Y39.572 Z-4.183
N13170 X-90.472 Y36.796 Z-4.199
N13175 X-89.794 Y34.54 Z-4.2
N13180 X-88.97 Y32.096 Z-4.186
N13185 X-88.489 Y30.817 Z-4.174
N13190 X-88.142 Y29.939 Z-4.163
N13195 X-87.877 Y29.296 Z-4.154
N13200 X-87.552 Y28.545 Z-4.141
N13205 X-87.105 Y27.569 Z-4.125
N13210 X-86.901 Y27.138 Z-4.117
N13215 X-86.45 Y26.245 Z-4.1
N13220 X-86.132 Y25.646 Z-4.086
N13225 X-85.696 Y24.867 Z-4.065
N13230 X-85.249 Y24.117 Z-4.044
N13235 X-84.911 Y23.58 Z-4.029
N13240 X-84.525 Y22.996 Z-4.012
N13245 X-84.12 Y22.409 Z-3.994
N13250 X-83.848 Y22.036 Z-3.983
N13255 X-83.291 Y21.312 Z-3.96
N13260 X-82.959 Y20.902 Z-3.944
N13265 X-82.603 Y20.486 Z-3.926
N13270 X-82.189 Y20.024 Z-3.906
N13275 X-81.76 Y19.565 Z-3.885
N13280 X-81.329 Y19.124 Z-3.865
N13285 X-80.881 Y18.687 Z-3.844
N13290 X-80.425 Y18.261 Z-3.823
N13295 X-79.959 Y17.845 Z-3.803
N13300 X-79.459 Y17.418 Z-3.781
N13305 X-78.999 Y17.048 Z-3.759
N13310 X-78.378 Y16.582 Z-3.73
N13315 X-77.709 Y16.109 Z-3.697
N13320 X-77.009 Y15.644 Z-3.664
N13325 X-76.31 Y15.207 Z-3.63
N13330 X-75.594 Y14.787 Z-3.596
N13335 X-74.862 Y14.385 Z-3.562
N13340 X-74.218 Y14.054 Z-3.532
N13345 X-73.46 Y13.701 Z-3.495
N13350 X-72.616 Y13.334 Z-3.455
N13355 X-71.75 Y12.983 Z-3.412
N13360 X-70.886 Y12.658 Z-3.37
N13365 X-70.119 Y12.391 Z-3.332
N13370 X-69.279 Y12.133 Z-3.291
N13375 X-68.402 Y11.889 Z-3.247
N13380 X-67.524 Y11.668 Z-3.203
N13385 X-66.622 Y11.466 Z-3.158
N13390 X-66.005 Y11.344 Z-3.127
N13395 X-65.146 Y11.195 Z-3.083
N13400 X-64.103 Y11.05 Z-3.031
N13405 X-63.141 Y10.949 Z-2.982
N13410 X-62.32 Y10.885 Z-2.94
N13415 X-61.487 Y10.844 Z-2.898
N13420 X-60.622 Y10.826 Z-2.854
N13425 X-60.103 Y10.825 Z-2.827
N13430 X-59.21 Y10.86 Z-2.782
N13435 X-58.344 Y10.918 Z-2.738
N13440 X-57.478 Y10.998 Z-2.694
N13445 X-56.609 Y11.103 Z-2.65
N13450 X-56.115 Y11.177 Z-2.626
N13455 X-55.287 Y11.333 Z-2.584
N13460 X-54.458 Y11.513 Z-2.543
N13465 X-53.848 Y11.67 Z-2.512
N13470 X-53.05 Y11.899 Z-2.472
N13475 X-52.358 Y12.12 Z-2.438
N13480 X-51.703 Y12.352 Z-2.406
N13485 X-51.047 Y12.61 Z-2.373
N13490 X-50.368 Y12.899 Z-2.34
N13495 X-49.768 Y13.179 Z-2.311
N13500 X-49.167 Y13.484 Z-2.281
N13505 X-48.399 Y13.904 Z-2.244
N13510 X-47.791 Y14.261 Z-2.214
N13515 X-47.432 Y14.488 Z-2.197
N13520 X-46.634 Y15.036 Z-2.158
N13525 X-45.961 Y15.524 Z-2.126
N13530 X-45.488 Y15.887 Z-2.103
N13535 X-44.923 Y16.357 Z-2.076
N13540 X-44.391 Y16.826 Z-2.051
N13545 X-43.915 Y17.271 Z-2.028
N13550 X-43.394 Y17.789 Z-2.003
N13555 X-42.915 Y18.293 Z-1.98
N13560 X-42.405 Y18.865 Z-1.956
N13565 X-41.926 Y19.433 Z-1.933
N13570 X-41.463 Y20.017 Z-1.911
N13575 X-40.917 Y20.746 Z-1.886
N13580 X-40.562 Y21.253 Z-1.869
N13585 X-40.034 Y22.054 Z-1.844
N13590 X-39.633 Y22.702 Z-1.825
N13595 X-39.247 Y23.37 Z-1.806
N13600 X-38.85 Y24.1 Z-1.787
N13605 X-38.462 Y24.862 Z-1.768
N13610 X-38.113 Y25.595 Z-1.75
N13615 X-37.836 Y26.201 Z-1.736
N13620 X-37.47 Y27.093 Z-1.717
N13625 X-37.121 Y28.001 Z-1.698
N13630 X-36.783 Y28.946 Z-1.679
N13635 X-36.482 Y29.854 Z-1.661
N13640 X-36.194 Y30.793 Z-1.643
N13645 X-35.95 Y31.655 Z-1.628
N13650 X-35.635 Y32.898 Z-1.605
N13655 X-35.428 Y33.815 Z-1.589
N13660 X-35.195 Y34.949 Z-1.569
N13665 X-34.986 Y36.09 Z-1.548
N13670 X-34.88 Y36.735 Z-1.536
N13675 X-34.49 Y39.484 Z-1.476
N13680 X-34.279 Y41.268 Z-1.418
N13685 X-34.125 Y42.502 Z-1.351
N13690 X-34.04 Y43.1 Z-1.31
N13695 X-33.93 Y43.723 Z-1.266
N13700 X-33.818 Y44.235 Z-1.231
N13705 X-33.73 Y44.574 Z-1.209
N13710 X-33.607 Y44.944 Z-1.185
N13715 X-33.508 Y45.171 Z-1.17
N13720 X-33.388 Y45.384 Z-1.152
N13725 X-33.244 Y45.594 Z-1.134
N13730 X-32.979 Y45.943 Z-1.102
N13735 X-32.753 Y46.246 Z-1.076
N13740 X-32.687 Y46.324 Z-1.069
N13745 X-32.534 Y46.531 Z-1.051
N13750 X-32.433 Y46.639 Z-1.04
N13755 X-32.355 Y46.733 Z-1.031
N13760 X-32.282 Y46.822 Z-1.023
N13765 X-32.177 Y46.919 Z-1.012
N13770 X-31.977 Y47.093 Z-0.99
N13775 X-31.799 Y47.22 Z-0.972
N13780 X-31.678 Y47.314 Z-0.959
N13785 X-31.573 Y47.378 Z-0.949
N13790 X-31.418 Y47.451 Z-0.933
N13795 X-31.268 Y47.508 Z-0.919
N13800 X-30.933 Y47.622 Z-0.892
N13805 X-30.723 Y47.698 Z-0.883
N13810 X-30.547 Y47.786 Z-0.875
N13815 X-30.374 Y47.901 Z-0.868
N13820 X-30.219 Y48.035 Z-0.861
N13825 X-30.074 Y48.196 Z-0.855
N13830 X-29.958 Y48.363 Z-0.849
N13835 X-29.861 Y48.55 Z-0.843
N13840 X-29.786 Y48.756 Z-0.837
N13845 X-29.741 Y48.951 Z-0.832
N13850 X-29.72 Y49.159 Z-0.827
N13855 X-29.703 Y51.615 Z-0.763
N13860 X-29.709 Y51.845
N13865 X-29.732 Y51.977
N13870 X-29.769 Y52.105
N13875 X-29.822 Y52.229
N13880 X-29.888 Y52.345
N13885 X-29.967 Y52.453
N13890 X-30.059 Y52.552
N13895 X-30.161 Y52.638
N13900 X-30.272 Y52.713
N13905 X-30.392 Y52.774
N13910 X-30.517 Y52.82
N13915 X-30.696 Y52.86
N13920 X-30.953 Y52.894 Z-0.766
N13925 X-31.422 Y52.934 Z-0.806
N13930 X-31.759 Y52.965 Z-0.837
N13935 X-32.058 Y53.006 Z-0.863
N13940 X-32.328 Y53.056 Z-0.887
N13945 X-33.755 Y53.373 Z-1.007
N13950 X-34.214 Y53.485 Z-1.045
N13955 X-34.294 Y53.509 Z-1.052
N13960 X-34.935 Y53.657 Z-1.106
N13965 X-35.383 Y53.75 Z-1.144
N13970 X-35.556 Y53.783 Z-1.159
N13975 X-35.978 Y53.85 Z-1.194
N13980 X-36.408 Y53.91 Z-1.23
N13985 X-36.691 Y53.962 Z-1.254
N13990 X-37.2 Y54.087 Z-1.294
N13995 X-37.468 Y54.165 Z-1.316
N14000 X-37.836 Y54.286 Z-1.344
N14005 X-38.356 Y54.454 Z-1.384
N14010 X-39.65 Y54.87 Z-1.483
N14015 X-40.456 Y55.11 Z-1.542
N14020 X-41.297 Y55.339 Z-1.605
N14025 X-42.04 Y55.515 Z-1.66
N14030 X-43.149 Y55.77 Z-1.739
N14035 X-44.411 Y56.015 Z-1.827
N14040 X-45.072 Y56.127 Z-1.872
N14045 X-47.369 Y56.485 Z-2.026
N14050 X-50.575 Y56.861 Z-2.235
N14055 X-53.79 Y57.127 Z-2.433
N14060 X-57.007 Y57.293 Z-2.62
N14065 X-60.305 Y57.359 Z-2.802
N14070 X-63.41 Y57.318 Z-2.962
N14075 X-66.588 Y57.161 Z-3.115
N14080 X-68.719 Y56.979 Z-3.213
N14085 X-70.063 Y56.827 Z-3.272
N14090 X-71.268 Y56.664 Z-3.324
N14095 X-72.41 Y56.48 Z-3.372
N14100 X-73.544 Y56.273 Z-3.419
N14105 X-74.663 Y56.044 Z-3.464
N14110 X-75.778 Y55.792 Z-3.508
N14115 X-76.878 Y55.52 Z-3.551
N14120 X-77.688 Y55.288 Z-3.582
N14125 X-78.637 Y54.995 Z-3.619
N14130 X-79.607 Y54.671 Z-3.655
N14135 X-80.558 Y54.328 Z-3.69
N14140 X-81.492 Y53.966 Z-3.723
N14145 X-82.413 Y53.584 Z-3.756
N14150 X-83.467 Y53.117 Z-3.792
N14155 X-84.456 Y52.654 Z-3.825
N14160 X-85.948 Y51.949 Z-3.873
N14165 X-86.348 Y51.767 Z-3.885
N14170 X-86.633 Y51.612 Z-3.895
N14175 X-86.813 Y51.499 Z-3.901
N14180 X-86.975 Y51.428 Z-3.905
N14185 X-87.126 Y51.387 Z-3.909
N14190 X-87.291 Y51.367 Z-3.913
N14195 X-87.423 Y51.369 Z-3.916
N14200 X-87.672 Y51.392 Z-3.922
N14205 X-87.919 Y51.429 Z-3.927
N14210 X-88.347 Y51.452 Z-3.936
N14215 X-88.726 Y51.476 Z-3.945
N14220 X-88.983 Y51.483 Z-3.95
N14225 X-89.247 Y51.53 Z-3.956
N14230 X-91.908 Y51.856 Z-3.999
N14235 X-93.547 Y52.056 Z-4.017
N14240 X-96.219 Y52.296 Z-4.028
N14245 X-97.146 Y52.379
N14250 X-97.548 Y52.392
N14255 X-97.854 Y52.38
N14260 X-100.393 Y52.158 Z-4.024
N14265 X-101.634 Y52.049 Z-4.015
N14270 X-105.09 Y51.638 Z-3.969
N14275 X-105.801 Y51.555 Z-3.954
N14280 X-106.023 Y51.517 Z-3.95
N14285 X-106.329 Y51.509 Z-3.943
N14290 X-106.947 Y51.476 Z-3.929
N14295 X-107.135 Y51.466 Z-3.925
N14300 X-107.405 Y51.432 Z-3.919
N14305 X-107.642 Y51.423 Z-3.914
N14310 X-107.827 Y51.441 Z-3.91
N14315 X-107.988 Y51.481 Z-3.905
N14320 X-108.139 Y51.541 Z-3.901
N14325 X-108.287 Y51.625 Z-3.896
N14330 X-108.429 Y51.709 Z-3.892
N14335 X-108.703 Y51.849 Z-3.883
N14340 X-109.542 Y52.234 Z-3.857
N14345 X-111.236 Y53.04 Z-3.801
N14350 X-112.331 Y53.534 Z-3.764
N14355 X-113.223 Y53.913 Z-3.732
N14360 X-114.167 Y54.288 Z-3.699
N14365 X-115.12 Y54.641 Z-3.664
N14370 X-116.054 Y54.963 Z-3.629
N14375 X-117.01 Y55.268 Z-3.593
N14380 X-118.026 Y55.567 Z-3.554
N14385 X-119.105 Y55.839 Z-3.512
N14390 X-120.21 Y56.094 Z-3.468
N14395 X-121.328 Y56.328 Z-3.423
N14400 X-122.459 Y56.539 Z-3.377
N14405 X-123.592 Y56.727 Z-3.329
N14410 X-124.458 Y56.849 Z-3.292
N14415 X-125.379 Y56.967 Z-3.252
N14420 X-127.734 Y57.2 Z-3.146
N14425 X-130.524 Y57.373 Z-3.014
N14430 X-133.718 Y57.455 Z-2.853
N14435 X-137.097 Y57.423 Z-2.67
N14440 X-140.614 Y57.274 Z-2.468
N14445 X-143.362 Y57.08 Z-2.301
N14450 X-146.69 Y56.746 Z-2.089
N14455 X-149.802 Y56.322 Z-1.881
N14460 X-151.094 Y56.106 Z-1.792
N14465 X-151.964 Y55.946 Z-1.732
N14470 X-153.665 Y55.585 Z-1.609
N14475 X-154.515 Y55.376 Z-1.545
N14480 X-155.439 Y55.127 Z-1.476
N14485 X-156.551 Y54.811 Z-1.39
N14490 X-157.2 Y54.63 Z-1.339
N14495 X-157.615 Y54.514 Z-1.305
N14500 X-158.101 Y54.405 Z-1.265
N14505 X-158.536 Y54.322 Z-1.229
N14510 X-159.33 Y54.212 Z-1.162
N14515 X-159.884 Y54.121 Z-1.115
N14520 X-160.787 Y53.963 Z-1.037
N14525 X-161.051 Y53.914 Z-1.014
N14530 X-161.929 Y53.761 Z-0.937
N14535 X-162.353 Y53.694 Z-0.9
N14540 X-162.997 Y53.6 Z-0.843
N14545 X-163.517 Y53.548 Z-0.796
N14550 X-163.891 Y53.518 Z-0.763
N14555 X-164.188 Y53.497
N14560 X-165.257 Y53.417
N14565 X-165.389 Y53.394
N14570 X-165.514 Y53.345
N14575 X-165.627 Y53.273
N14580 X-165.724 Y53.181
N14585 X-165.8 Y53.071
N14590 X-165.854 Y52.948
N14595 X-165.878 Y52.848
N14600 X-165.887 Y52.746
N14605 X-165.906 Y51.136 Z-0.768
N14610 X-165.939 Y48.235 Z-0.841
N14615 X-165.922 Y48.065 Z-0.846
N14620 X-165.877 Y47.905 Z-0.849
N14625 X-165.807 Y47.756 Z-0.853
N14630 X-165.712 Y47.619 Z-0.857
N14635 X-165.593 Y47.497 Z-0.861
N14640 X-165.476 Y47.409 Z-0.865
N14645 X-165.341 Y47.338 Z-0.868
N14650 X-165.196 Y47.287 Z-0.871
N14655 X-164.611 Y47.13 Z-0.885
N14660 X-164.251 Y47.013 Z-0.897
N14665 X-163.883 Y46.882 Z-0.917
N14670 X-163.718 Y46.81 Z-0.933
N14675 X-163.576 Y46.734 Z-0.948
N14680 X-163.436 Y46.637 Z-0.962
N14685 X-163.292 Y46.545 Z-0.977
N14690 X-163.013 Y46.33 Z-1.006
N14695 X-162.913 Y46.233 Z-1.017
N14700 X-162.787 Y46.122 Z-1.03
N14705 X-162.642 Y45.972 Z-1.046
N14710 X-162.497 Y45.819 Z-1.063
N14715 X-162.091 Y45.338 Z-1.112
N14720 X-161.947 Y45.142 Z-1.132
N14725 X-161.82 Y44.93 Z-1.15
N14730 X-161.715 Y44.713 Z-1.168
N14735 X-161.583 Y44.364 Z-1.195
N14740 X-161.467 Y43.981 Z-1.224
N14745 X-161.351 Y43.488 Z-1.263
N14750 X-161.239 Y42.89 Z-1.31
N14755 X-161.136 Y42.204 Z-1.361
N14760 X-160.984 Y41.063 Z-1.422
N14765 X-160.75 Y39.264 Z-1.48
N14770 X-160.466 Y37.074 Z-1.528
N14775 X-160.25 Y35.748 Z-1.553
N14780 X-160.045 Y34.63 Z-1.573
N14785 X-159.812 Y33.48 Z-1.593
N14790 X-159.689 Y32.942 Z-1.603
N14795 X-159.337 Y31.492 Z-1.628
N14800 X-159.074 Y30.543 Z-1.646
N14805 X-158.776 Y29.563 Z-1.664
N14810 X-158.455 Y28.592 Z-1.683
N14815 X-158.126 Y27.671 Z-1.701
N14820 X-157.785 Y26.782 Z-1.72
N14825 X-157.451 Y25.966 Z-1.738
N14830 X-157.029 Y25.048 Z-1.759
N14835 X-156.653 Y24.282 Z-1.777
N14840 X-156.266 Y23.547 Z-1.796
N14845 X-155.855 Y22.814 Z-1.815
N14850 X-155.448 Y22.137 Z-1.834
N14855 X-155.038 Y21.498 Z-1.854
N14860 X-154.55 Y20.778 Z-1.876
N14865 X-154.074 Y20.128 Z-1.899
N14870 X-153.618 Y19.539 Z-1.92
N14875 X-153.136 Y18.953 Z-1.942
N14880 X-152.624 Y18.367 Z-1.966
N14885 X-152.112 Y17.818 Z-1.99
N14890 X-151.55 Y17.249 Z-2.016
N14895 X-151.033 Y16.759 Z-2.04
N14900 X-150.493 Y16.282 Z-2.066
N14905 X-149.901 Y15.79 Z-2.093
N14910 X-149.311 Y15.329 Z-2.121
N14915 X-148.695 Y14.879 Z-2.15
N14920 X-148.042 Y14.431 Z-2.181
N14925 X-147.555 Y14.111 Z-2.205
N14930 X-146.913 Y13.729 Z-2.235
N14935 X-146.228 Y13.35 Z-2.268
N14940 X-145.547 Y12.994 Z-2.301
N14945 X-144.941 Y12.706 Z-2.33
N14950 X-144.309 Y12.43 Z-2.361
N14955 X-143.614 Y12.143 Z-2.395
N14960 X-142.866 Y11.873 Z-2.431
N14965 X-142.056 Y11.606 Z-2.471
N14970 X-141.25 Y11.367 Z-2.511
N14975 X-140.634 Y11.202 Z-2.541
N14980 X-139.704 Y10.993 Z-2.587
N14985 X-138.891 Y10.835 Z-2.627
N14990 X-138.325 Y10.749 Z-2.655
N14995 X-137.448 Y10.64 Z-2.699
N15000 X-136.547 Y10.552 Z-2.744
N15005 X-135.668 Y10.491 Z-2.788
N15010 X-134.822 Y10.455 Z-2.83
N15015 X-134.178 Y10.459 Z-2.862
N15020 X-133.275 Y10.488 Z-2.907
N15025 X-132.374 Y10.54 Z-2.953
N15030 X-131.473 Y10.615 Z-2.998
N15035 X-130.567 Y10.714 Z-3.043
N15040 X-129.715 Y10.83 Z-3.086
N15045 X-128.704 Y11.011 Z-3.136
N15050 X-127.722 Y11.224 Z-3.185
N15055 X-126.775 Y11.454 Z-3.232
N15060 X-125.852 Y11.703 Z-3.278
N15065 X-125.25 Y11.886 Z-3.307
N15070 X-124.575 Y12.104 Z-3.34
N15075 X-123.683 Y12.428 Z-3.384
N15080 X-122.804 Y12.772 Z-3.426
N15085 X-121.917 Y13.144 Z-3.469
N15090 X-121.054 Y13.531 Z-3.51
N15095 X-120.458 Y13.818 Z-3.539
N15100 X-119.69 Y14.225 Z-3.575
N15105 X-118.896 Y14.674 Z-3.613
N15110 X-118.106 Y15.147 Z-3.65
N15115 X-117.492 Y15.538 Z-3.679
N15120 X-116.974 Y15.889 Z-3.703
N15125 X-116.543 Y16.195 Z-3.724
N15130 X-115.873 Y16.697 Z-3.755
N15135 X-115.387 Y17.081 Z-3.778
N15140 X-114.631 Y17.718 Z-3.811
N15145 X-114.044 Y18.243 Z-3.837
N15150 X-113.463 Y18.795 Z-3.863
N15155 X-112.909 Y19.356 Z-3.889
N15160 X-112.38 Y19.925 Z-3.914
N15165 X-111.754 Y20.638 Z-3.945
N15170 X-111.425 Y21.038 Z-3.961
N15175 X-110.822 Y21.808 Z-3.986
N15180 X-110.437 Y22.33 Z-4.002
N15185 X-110.025 Y22.921 Z-4.02
N15190 X-109.563 Y23.619 Z-4.04
N15195 X-109.183 Y24.225 Z-4.057
N15200 X-108.804 Y24.859 Z-4.075
N15205 X-108.43 Y25.514 Z-4.093
N15210 X-108.085 Y26.149 Z-4.107
N15215 X-107.617 Y27.047 Z-4.124
N15220 X-107.043 Y28.239 Z-4.144
N15225 X-106.581 Y29.252 Z-4.161
N15230 X-106.315 Y29.878 Z-4.17
N15235 X-105.342 Y32.24 Z-4.197
N15240 X-104.137 Y35.527 Z-4.209
N15245 X-103.096 Y38.678 Z-4.201
N15250 X-102.747 Y39.833 Z-4.192
N15255 X-102.557 Y40.52 Z-4.184
N15260 X-102.481 Y40.847 Z-4.18
N15265 X-102.445 Y41.037 Z-4.177
N15270 X-102.435 Y41.171 Z-4.175
N15275 X-102.442 Y41.321 Z-4.173
N15280 X-102.471 Y41.48 Z-4.17
N15285 X-102.517 Y41.625 Z-4.167
N15290 X-102.578 Y41.759 Z-4.165
N15295 X-102.643 Y41.865 Z-4.162
N15300 X-102.834 Y42.132 Z-4.157
N15305 X-102.962 Y42.336 Z-4.152
N15310 X-103.076 Y42.549 Z-4.148
N15315 X-103.198 Y42.819 Z-4.142
N15320 X-103.285 Y43.048 Z-4.138
N15325 X-103.342 Y43.231 Z-4.134
N15330 X-103.409 Y43.491 Z-4.13
N15335 X-103.469 Y43.807 Z-4.124
N15340 X-103.512 Y44.157 Z-4.118
N15345 X-103.529 Y44.508 Z-4.113
N15350 X-103.516 Y44.758 Z-4.109
N15355 X-103.475 Y45.014 Z-4.105
N15360 X-103.405 Y45.262 Z-4.102
N15365 X-103.313 Y45.488 Z-4.098
N15370 X-103.18 Y45.736 Z-4.095
N15375 X-103.03 Y45.969 Z-4.091
N15380 X-102.878 Y46.163 Z-4.088
N15385 X-102.681 Y46.372 Z-4.086
N15390 X-102.451 Y46.571 Z-4.084
N15395 X-102.198 Y46.752 Z-4.082
N15400 X-101.907 Y46.925 Z-4.081
N15405 X-101.581 Y47.085 Z-4.079
N15410 X-101.176 Y47.246 Z-4.078
N15415 X-100.826 Y47.358
N15420 X-100.368 Y47.475 Z-4.077
N15425 X-100.008 Y47.545
N15430 X-99.408 Y47.639
N15435 X-98.87 Y47.692
N15440 X-98.65 Y47.71
N15445 X-97.846 Y47.73
N15450 X-96.889 Y47.724
N15455 X-96.186 Y47.697
N15460 X-95.568 Y47.631
N15465 X-94.809 Y47.506
N15470 X-94.538 Y47.444 Z-4.078
N15475 X-94.108 Y47.327
N15480 X-93.726 Y47.198 Z-4.079
N15485 X-93.365 Y47.047 Z-4.08
N15490 X-93.02 Y46.868 Z-4.081
N15495 X-92.743 Y46.693 Z-4.083
N15500 X-92.492 Y46.5 Z-4.085
N15505 X-92.276 Y46.3 Z-4.087
N15510 X-92.099 Y46.099 Z-4.09
N15515 X-91.952 Y45.896 Z-4.093
N15520 X-91.805 Y45.647 Z-4.097
N15525 X-91.714 Y45.464 Z-4.099
N15530 X-91.631 Y45.247 Z-4.102
N15535 X-91.574 Y45.041 Z-4.105
N15540 X-91.531 Y44.792 Z-4.109
N15545 X-91.515 Y44.554 Z-4.113
N15550 X-91.527 Y44.223 Z-4.118
N15555 X-91.565 Y43.878 Z-4.123
N15560 X-91.631 Y43.531 Z-4.129
N15565 X-91.724 Y43.188 Z-4.136
N15570 X-91.837 Y42.877 Z-4.142
N15575 X-91.977 Y42.57 Z-4.148
N15580 X-92.138 Y42.287 Z-4.154
N15585 X-92.303 Y42.047 Z-4.159
N15590 X-92.431 Y41.873 Z-4.163
N15595 X-92.518 Y41.713 Z-4.166
N15600 X-92.582 Y41.543 Z-4.169
N15605 X-92.62 Y41.362 Z-4.173
N15610 X-92.632 Y41.172 Z-4.176
N15615 X-92.624 Y41.04 Z-4.178
N15620 X-92.583 Y40.815 Z-4.181
N15625 X-92.497 Y40.454 Z-4.185
N15630 X-92.296 Y39.721 Z-4.194
N15635 X-92.061 Y38.964 Z-4.2
